testdata/filters/DU04.cube
#Created by: Adobe Photoshop Export Color Lookup Plugin
#Copyright: (C) Copyright 2017 @ 2017 Joseph Angelo Todaro
TITLE "DU04 - Orange Blue"
#LUT size
LUT_3D_SIZE 5
#data domain
#LUT data points
DOMAIN_MIN 0.000000 0.000000 0.000000
DOMAIN_MAX 0.903226 0.903226 0.903226
0.028992 0.159760 0.321564
0.077271 0.164642 0.321564
0.145660 0.174133 0.316437
0.229736 0.187378 0.306671
0.325256 0.203400 0.293427
0.077271 0.164642 0.321564
0.109222 0.168884 0.319702
0.186005 0.180359 0.312042
0.276337 0.195068 0.300415
0.375671 0.212097 0.285889
0.145660 0.174133 0.316437
0.186005 0.180359 0.312042
0.229736 0.187378 0.306671
0.325256 0.203400 0.293427
0.427582 0.221222 0.277863
0.229736 0.187378 0.306671
0.276337 0.195068 0.300415
0.325256 0.203400 0.293427
0.375946 0.212158 0.285858
0.480164 0.230560 0.269440
0.325256 0.203400 0.293427
0.375671 0.212097 0.285889
0.427582 0.221222 0.277863
0.480164 0.230560 0.269440
0.532928 0.240021 0.260834
0.050354 0.161560 0.321564
0.145660 0.174133 0.316437
0.229736 0.187378 0.306671
0.325256 0.203400 0.293427
0.427582 0.221222 0.277863
0.109222 0.168884 0.319702
0.186005 0.180359 0.312042
0.276337 0.195068 0.300415
0.375946 0.212158 0.285858
0.480469 0.230621 0.269379
0.186005 0.180359 0.312042
0.276337 0.195068 0.300415
0.325256 0.203400 0.293427
0.427856 0.221252 0.277802
0.532928 0.240021 0.260834
0.276337 0.195068 0.300415
0.375946 0.212158 0.285858
0.427856 0.221252 0.277802
0.480469 0.230621 0.269379
0.585266 0.249481 0.252106
0.375671 0.212097 0.285889
0.480469 0.230621 0.269379
0.532928 0.240021 0.260834
0.585266 0.249481 0.252106
0.636719 0.258850 0.243439
0.077271 0.164642 0.321564
0.186005 0.180359 0.312042
0.325256 0.203400 0.293427
0.427582 0.221222 0.277863
0.532928 0.240021 0.260834
0.145660 0.174133 0.316437
0.229736 0.187378 0.306671
0.375946 0.212158 0.285858
0.480469 0.230621 0.269379
0.585266 0.249481 0.252106
0.229736 0.187378 0.306671
0.325256 0.203400 0.293427
0.427856 0.221252 0.277802
0.533203 0.240082 0.260773
0.636993 0.258881 0.243408
0.325256 0.203400 0.293427
0.427856 0.221252 0.277802
0.533203 0.240082 0.260773
0.585541 0.249542 0.252075
0.686920 0.268005 0.234924
0.427582 0.221222 0.277863
0.532928 0.240021 0.260834
0.636993 0.258881 0.243408
0.686920 0.268005 0.234924
0.734619 0.276733 0.226746
0.109222 0.168884 0.319702
0.229736 0.187378 0.306671
0.375671 0.212097 0.285889
0.532928 0.240021 0.260834
0.636719 0.258850 0.243439
0.186005 0.180359 0.312042
0.276337 0.195068 0.300415
0.427856 0.221252 0.277802
0.585266 0.249481 0.252106
0.686676 0.267944 0.234955
0.276337 0.195068 0.300415
0.375946 0.212158 0.285858
0.480469 0.230621 0.269379
0.636993 0.258881 0.243408
0.734619 0.276733 0.226746
0.375946 0.212158 0.285858
0.480469 0.230621 0.269379
0.585541 0.249542 0.252075
0.686920 0.268005 0.234924
0.780243 0.285065 0.218933
0.480164 0.230560 0.269440
0.585266 0.249481 0.252106
0.686920 0.268005 0.234924
0.780243 0.285065 0.218933
0.822540 0.292816 0.211731
0.145660 0.174133 0.316437
0.276337 0.195068 0.300415
0.427582 0.221222 0.277863
0.585266 0.249481 0.252106
0.734619 0.276733 0.226746
0.229736 0.187378 0.306671
0.325256 0.203400 0.293427
0.480469 0.230621 0.269379
0.636719 0.258850 0.243439
0.779999 0.285034 0.218994
0.325256 0.203400 0.293427
0.427856 0.221252 0.277802
0.533203 0.240082 0.260773
0.686920 0.268005 0.234924
0.822327 0.292755 0.211761
0.427582 0.221222 0.277863
0.533203 0.240082 0.260773
0.636993 0.258881 0.243408
0.734863 0.276764 0.226715
0.861176 0.299835 0.205200
0.532928 0.240021 0.260834
0.636719 0.258850 0.243439
0.734619 0.276733 0.226746
0.822540 0.292816 0.211731
0.895660 0.306091 0.199463
