testdata/filters/DU04.cube
#Created by: Adobe Photoshop Export Color Lookup Plugin
#Copyright: (C) Copyright 2017 @ 2017 Joseph Angelo Todaro
TITLE "DU04 - Orange Blue"
#LUT size
LUT_3D_SIZE 8
#data domain
#LUT data points
DOMAIN_MIN 0.000000 0.000000 0.000000
DOMAIN_MAX 0.903226 0.903226 0.903226
0.028992 0.159760 0.321564
0.053802 0.161926 0.321564
0.085968 0.165741 0.321289
0.124268 0.170990 0.318451
0.168335 0.177582 0.314056
0.216919 0.185272 0.308289
0.269379 0.193909 0.301392
0.325256 0.203400 0.293427
0.053802 0.161926 0.321564
0.069031 0.163635 0.321564
0.104279 0.168182 0.320099
0.145660 0.174133 0.316437
0.191956 0.181305 0.311340
0.242828 0.189514 0.304962
0.296997 0.198578 0.297516
0.353851 0.208313 0.289215
0.085968 0.165741 0.321289
0.104279 0.168182 0.320099
0.124268 0.170990 0.318451
0.168121 0.177551 0.314087
0.216919 0.185272 0.308289
0.269379 0.193909 0.301392
0.325256 0.203400 0.293427
0.383179 0.213409 0.284729
0.124268 0.170990 0.318451
0.145660 0.174133 0.316437
0.168121 0.177551 0.314087
0.191956 0.181305 0.311340
0.242828 0.189514 0.304962
0.296997 0.198578 0.297516
0.353851 0.208313 0.289215
0.412903 0.218628 0.280151
0.168335 0.177582 0.314056
0.191956 0.181305 0.311340
0.216919 0.185272 0.308289
0.242828 0.189514 0.304962
0.269379 0.193909 0.301392
0.325256 0.203400 0.293427
0.383179 0.213409 0.284729
0.442596 0.223877 0.275452
0.216919 0.185272 0.308289
0.242828 0.189514 0.304962
0.269379 0.193909 0.301392
0.296997 0.198578 0.297516
0.325256 0.203400 0.293427
0.353851 0.208313 0.289215
0.412903 0.218628 0.280151
0.472778 0.229218 0.270630
0.269379 0.193909 0.301392
0.296997 0.198578 0.297516
0.325256 0.203400 0.293427
0.353851 0.208313 0.289215
0.383179 0.213409 0.284729
0.412903 0.218628 0.280151
0.442596 0.223877 0.275452
0.502991 0.234650 0.265747
0.325256 0.203400 0.293427
0.353851 0.208313 0.289215
0.383179 0.213409 0.284729
0.412903 0.218628 0.280151
0.442596 0.223877 0.275452
0.472778 0.229218 0.270630
0.502991 0.234650 0.265747
0.532928 0.240021 0.260834
0.040527 0.160645 0.321564
0.085968 0.165741 0.321289
0.124268 0.170990 0.318451
0.168121 0.177551 0.314087
0.216919 0.185272 0.308289
0.269379 0.193909 0.301392
0.325256 0.203400 0.293427
0.383179 0.213409 0.284729
0.069031 0.163635 0.321564
0.104462 0.168213 0.320068
0.145660 0.174133 0.316437
0.191956 0.181305 0.311340
0.242828 0.189514 0.304962
0.296997 0.198578 0.297516
0.353851 0.208313 0.289215
0.412903 0.218628 0.280151
0.104279 0.168182 0.320099
0.145660 0.174133 0.316437
0.168335 0.177582 0.314056
0.216919 0.185272 0.308289
0.269379 0.193909 0.301392
0.325256 0.203400 0.293427
0.383179 0.213409 0.284729
0.442596 0.223877 0.275452
0.145660 0.174133 0.316437
0.191956 0.181305 0.311340
0.216919 0.185272 0.308289
0.242828 0.189514 0.304962
0.296997 0.198578 0.297516
0.353851 0.208313 0.289215
0.412903 0.218628 0.280151
0.472778 0.229218 0.270630
0.191956 0.181305 0.311340
0.242828 0.189514 0.304962
0.269379 0.193909 0.301392
0.296997 0.198578 0.297516
0.325256 0.203400 0.293427
0.383179 0.213409 0.284729
0.442596 0.223877 0.275452
0.502991 0.234650 0.265747
0.242828 0.189514 0.304962
0.296997 0.198578 0.297516
0.325256 0.203400 0.293427
0.353851 0.208313 0.289215
0.383179 0.213409 0.284729
0.412903 0.218628 0.280151
0.472778 0.229218 0.270630
0.532928 0.240021 0.260834
0.296997 0.198578 0.297516
0.353851 0.208313 0.289215
0.383179 0.213409 0.284729
0.412903 0.218628 0.280151
0.442596 0.223877 0.275452
0.472778 0.229218 0.270630
0.502991 0.234650 0.265747
0.563019 0.245453 0.255829
0.353851 0.208313 0.289215
0.412903 0.218628 0.280151
0.442596 0.223877 0.275452
0.472778 0.229218 0.270630
0.502991 0.234650 0.265747
0.532928 0.240021 0.260834
0.563019 0.245453 0.255829
0.592865 0.250854 0.250854
0.053802 0.161926 0.321564
0.104279 0.168182 0.320099
0.168121 0.177551 0.314087
0.216919 0.185272 0.308289
0.269379 0.193909 0.301392
0.325256 0.203400 0.293427
0.383179 0.213409 0.284729
0.442596 0.223877 0.275452
0.085968 0.165741 0.321289
0.124268 0.170990 0.318451
0.191956 0.181305 0.311340
0.242828 0.189514 0.304962
0.296997 0.198578 0.297516
0.353851 0.208313 0.289215
0.412903 0.218628 0.280151
0.472778 0.229218 0.270630
0.124268 0.170990 0.318451
0.168335 0.177582 0.314056
0.216919 0.185272 0.308289
0.269379 0.193909 0.301392
0.325256 0.203400 0.293427
0.383179 0.213409 0.284729
0.442871 0.223938 0.275421
0.502991 0.234650 0.265747
0.168121 0.177551 0.314087
0.216919 0.185272 0.308289
0.269379 0.193909 0.301392
0.296997 0.198578 0.297516
0.353851 0.208313 0.289215
0.412903 0.218628 0.280151
0.472778 0.229218 0.270630
0.533203 0.240082 0.260773
0.216919 0.185272 0.308289
0.269379 0.193909 0.301392
0.325256 0.203400 0.293427
0.353851 0.208313 0.289215
0.383179 0.213409 0.284729
0.442871 0.223938 0.275421
0.502991 0.234650 0.265747
0.563019 0.245453 0.255829
0.269379 0.193909 0.301392
0.325256 0.203400 0.293427
0.383179 0.213409 0.284729
0.412903 0.218628 0.280151
0.442871 0.223938 0.275421
0.472778 0.229218 0.270630
0.533203 0.240082 0.260773
0.592865 0.250854 0.250854
0.325256 0.203400 0.293427
0.383179 0.213409 0.284729
0.442871 0.223938 0.275421
0.472778 0.229218 0.270630
0.502991 0.234650 0.265747
0.533203 0.240082 0.260773
0.563019 0.245453 0.255829
0.622375 0.256226 0.245880
0.383179 0.213409 0.284729
0.442596 0.223877 0.275452
0.502991 0.234650 0.265747
0.533203 0.240082 0.260773
0.563019 0.245453 0.255829
0.592865 0.250854 0.250854
0.622375 0.256226 0.245880
0.651184 0.261475 0.240997
0.069031 0.163635 0.321564
0.124268 0.170990 0.318451
0.191956 0.181305 0.311340
0.269379 0.193909 0.301392
0.325256 0.203400 0.293427
0.383179 0.213409 0.284729
0.442596 0.223877 0.275452
0.502991 0.234650 0.265747
0.104279 0.168182 0.320099
0.145660 0.174133 0.316437
0.216919 0.185272 0.308289
0.296997 0.198578 0.297516
0.353851 0.208313 0.289215
0.412903 0.218628 0.280151
0.472778 0.229218 0.270630
0.532928 0.240021 0.260834
0.145660 0.174133 0.316437
0.191956 0.181305 0.311340
0.242828 0.189514 0.304962
0.325256 0.203400 0.293427
0.383179 0.213409 0.284729
0.442871 0.223938 0.275421
0.502991 0.234650 0.265747
0.563019 0.245453 0.255829
0.191956 0.181305 0.311340
0.242828 0.189514 0.304962
0.296997 0.198578 0.297516
0.354126 0.208374 0.289154
0.412903 0.218628 0.280151
0.472778 0.229218 0.270630
0.533203 0.240082 0.260773
0.592865 0.250854 0.250854
0.242828 0.189514 0.304962
0.296997 0.198578 0.297516
0.353851 0.208313 0.289215
0.412903 0.218628 0.280151
0.442871 0.223938 0.275421
0.502991 0.234650 0.265747
0.563019 0.245453 0.255829
0.622375 0.256226 0.245880
0.296997 0.198578 0.297516
0.353851 0.208313 0.289215
0.412903 0.218628 0.280151
0.472778 0.229218 0.270630
0.502991 0.234650 0.265747
0.533203 0.240082 0.260773
0.592865 0.250854 0.250854
0.651184 0.261475 0.240997
0.353851 0.208313 0.289215
0.412903 0.218628 0.280151
0.472778 0.229218 0.270630
0.533203 0.240082 0.260773
0.563019 0.245453 0.255829
0.592865 0.250854 0.250854
0.622375 0.256226 0.245880
0.679749 0.266693 0.236145
0.412903 0.218628 0.280151
0.472778 0.229218 0.270630
0.533203 0.240082 0.260773
0.592865 0.250854 0.250854
0.622375 0.256226 0.245880
0.651184 0.261475 0.240997
0.679749 0.266693 0.236145
0.707672 0.271790 0.231354
0.085968 0.165741 0.321289
0.145660 0.174133 0.316437
0.216919 0.185272 0.308289
0.296997 0.198578 0.297516
0.383179 0.213409 0.284729
0.442596 0.223877 0.275452
0.502991 0.234650 0.265747
0.563019 0.245453 0.255829
0.124268 0.170990 0.318451
0.168335 0.177582 0.314056
0.242828 0.189514 0.304962
0.325256 0.203400 0.293427
0.412903 0.218628 0.280151
0.472778 0.229218 0.270630
0.532928 0.240021 0.260834
0.592865 0.250854 0.250854
0.168121 0.177551 0.314087
0.216919 0.185272 0.308289
0.269379 0.193909 0.301392
0.353851 0.208313 0.289215
0.442871 0.223938 0.275421
0.502991 0.234650 0.265747
0.563019 0.245453 0.255829
0.622375 0.256226 0.245880
0.216919 0.185272 0.308289
0.269379 0.193909 0.301392
0.325256 0.203400 0.293427
0.383179 0.213409 0.284729
0.472778 0.229218 0.270630
0.533203 0.240082 0.260773
0.592865 0.250854 0.250854
0.651184 0.261475 0.240997
0.269379 0.193909 0.301392
0.325256 0.203400 0.293427
0.383179 0.213409 0.284729
0.442871 0.223938 0.275421
0.502991 0.234650 0.265747
0.563293 0.245483 0.255798
0.622375 0.256226 0.245880
0.679749 0.266693 0.236145
0.325256 0.203400 0.293427
0.383179 0.213409 0.284729
0.442871 0.223938 0.275421
0.502991 0.234650 0.265747
0.563293 0.245483 0.255798
0.592865 0.250854 0.250854
0.651459 0.261536 0.240936
0.707672 0.271790 0.231354
0.383179 0.213409 0.284729
0.442596 0.223877 0.275452
0.502991 0.234650 0.265747
0.563019 0.245453 0.255829
0.622375 0.256226 0.245880
0.651459 0.261536 0.240936
0.679749 0.266693 0.236145
0.734863 0.276764 0.226715
0.442596 0.223877 0.275452
0.502991 0.234650 0.265747
0.563019 0.245453 0.255829
0.622375 0.256226 0.245880
0.679749 0.266693 0.236145
0.707672 0.271790 0.231354
0.734863 0.276764 0.226715
0.760956 0.281555 0.222229
0.104279 0.168182 0.320099
0.168121 0.177551 0.314087
0.242828 0.189514 0.304962
0.325256 0.203400 0.293427
0.412903 0.218628 0.280151
0.502991 0.234650 0.265747
0.563019 0.245453 0.255829
0.622101 0.256165 0.245911
0.145660 0.174133 0.316437
0.191956 0.181305 0.311340
0.269379 0.193909 0.301392
0.353851 0.208313 0.289215
0.442596 0.223877 0.275452
0.532928 0.240021 0.260834
0.592865 0.250854 0.250854
0.651184 0.261475 0.240997
0.191956 0.181305 0.311340
0.242828 0.189514 0.304962
0.296997 0.198578 0.297516
0.383179 0.213409 0.284729
0.472778 0.229218 0.270630
0.563019 0.245453 0.255829
0.622375 0.256226 0.245880
0.679749 0.266693 0.236145
0.242828 0.189514 0.304962
0.296997 0.198578 0.297516
0.353851 0.208313 0.289215
0.412903 0.218628 0.280151
0.502991 0.234650 0.265747
0.592865 0.250854 0.250854
0.651184 0.261475 0.240997
0.707672 0.271790 0.231354
0.296997 0.198578 0.297516
0.353851 0.208313 0.289215
0.412903 0.218628 0.280151
0.472778 0.229218 0.270630
0.533203 0.240082 0.260773
0.622375 0.256226 0.245880
0.679749 0.266693 0.236145
0.734863 0.276764 0.226715
0.353851 0.208313 0.289215
0.412903 0.218628 0.280151
0.472778 0.229218 0.270630
0.533203 0.240082 0.260773
0.592865 0.250854 0.250854
0.651459 0.261536 0.240936
0.707672 0.271790 0.231354
0.760956 0.281555 0.222229
0.412903 0.218628 0.280151
0.472778 0.229218 0.270630
0.533203 0.240082 0.260773
0.592865 0.250854 0.250854
0.651459 0.261536 0.240936
0.707672 0.271790 0.231354
0.734863 0.276764 0.226715
0.786377 0.286224 0.217865
0.472778 0.229218 0.270630
0.532928 0.240021 0.260834
0.592865 0.250854 0.250854
0.651184 0.261475 0.240997
0.707672 0.271790 0.231354
0.760956 0.281555 0.222229
0.786377 0.286224 0.217865
0.810760 0.290680 0.213715
0.124268 0.170990 0.318451
0.191956 0.181305 0.311340
0.269379 0.193909 0.301392
0.353851 0.208313 0.289215
0.442596 0.223877 0.275452
0.532928 0.240021 0.260834
0.622101 0.256165 0.245911
0.679749 0.266693 0.236145
0.168121 0.177551 0.314087
0.216919 0.185272 0.308289
0.296997 0.198578 0.297516
0.383179 0.213409 0.284729
0.472778 0.229218 0.270630
0.563019 0.245453 0.255829
0.651184 0.261475 0.240997
0.707428 0.271759 0.231415
0.216919 0.185272 0.308289
0.269379 0.193909 0.301392
0.325256 0.203400 0.293427
0.412903 0.218628 0.280151
0.502991 0.234650 0.265747
0.592865 0.250854 0.250854
0.679749 0.266693 0.236145
0.734619 0.276733 0.226746
0.269379 0.193909 0.301392
0.325256 0.203400 0.293427
0.383179 0.213409 0.284729
0.442871 0.223938 0.275421
0.533203 0.240082 0.260773
0.622375 0.256226 0.245880
0.707672 0.271790 0.231354
0.760956 0.281555 0.222229
0.325256 0.203400 0.293427
0.383179 0.213409 0.284729
0.442871 0.223938 0.275421
0.502991 0.234650 0.265747
0.563293 0.245483 0.255798
0.651459 0.261536 0.240936
0.734863 0.276764 0.226715
0.786377 0.286224 0.217865
0.383179 0.213409 0.284729
0.442596 0.223877 0.275452
0.502991 0.234650 0.265747
0.563019 0.245453 0.255829
0.622375 0.256226 0.245880
0.679749 0.266693 0.236145
0.760956 0.281555 0.222229
0.810760 0.290680 0.213715
0.442596 0.223877 0.275452
0.502991 0.234650 0.265747
0.563019 0.245453 0.255829
0.622375 0.256226 0.245880
0.679749 0.266693 0.236145
0.734863 0.276764 0.226715
0.786377 0.286224 0.217865
0.833984 0.294922 0.209778
0.502991 0.234650 0.265747
0.563019 0.245453 0.255829
0.622375 0.256226 0.245880
0.679749 0.266693 0.236145
0.734863 0.276764 0.226715
0.786377 0.286224 0.217865
0.833984 0.294922 0.209778
0.855804 0.298859 0.206085
0.145660 0.174133 0.316437
0.216919 0.185272 0.308289
0.296997 0.198578 0.297516
0.383179 0.213409 0.284729
0.472778 0.229218 0.270630
0.563019 0.245453 0.255829
0.651184 0.261475 0.240997
0.734619 0.276733 0.226746
0.191956 0.181305 0.311340
0.242828 0.189514 0.304962
0.325256 0.203400 0.293427
0.412903 0.218628 0.280151
0.502991 0.234650 0.265747
0.592865 0.250854 0.250854
0.679749 0.266693 0.236145
0.760956 0.281555 0.222229
0.242828 0.189514 0.304962
0.296997 0.198578 0.297516
0.353851 0.208313 0.289215
0.442596 0.223877 0.275452
0.533203 0.240082 0.260773
0.622375 0.256226 0.245880
0.707672 0.271790 0.231354
0.786377 0.286224 0.217865
0.296997 0.198578 0.297516
0.353851 0.208313 0.289215
0.412903 0.218628 0.280151
0.472778 0.229218 0.270630
0.563019 0.245453 0.255829
0.651184 0.261475 0.240997
0.734619 0.276733 0.226746
0.810547 0.290619 0.213745
0.353851 0.208313 0.289215
0.412903 0.218628 0.280151
0.472778 0.229218 0.270630
0.533203 0.240082 0.260773
0.592865 0.250854 0.250854
0.679749 0.266693 0.236145
0.760956 0.281555 0.222229
0.833801 0.294861 0.209808
0.412903 0.218628 0.280151
0.472778 0.229218 0.270630
0.533203 0.240082 0.260773
0.592865 0.250854 0.250854
0.651459 0.261536 0.240936
0.707672 0.271790 0.231354
0.786377 0.286224 0.217865
0.855804 0.298859 0.206085
0.472778 0.229218 0.270630
0.532928 0.240021 0.260834
0.592865 0.250854 0.250854
0.651184 0.261475 0.240997
0.707672 0.271790 0.231354
0.760956 0.281555 0.222229
0.810760 0.290680 0.213715
0.876434 0.302612 0.202637
0.532928 0.240021 0.260834
0.592865 0.250854 0.250854
0.651184 0.261475 0.240997
0.707672 0.271790 0.231354
0.760956 0.281555 0.222229
0.810760 0.290680 0.213715
0.855804 0.298859 0.206085
0.895660 0.306091 0.199463
