testdata/filters/DU04.cube
#Created by: Adobe Photoshop Export Color Lookup Plugin
#Copyright: (C) Copyright 2017 @ 2017 Joseph Angelo Todaro
TITLE "DU04 - Orange Blue"
#LUT size
LUT_3D_SIZE 32
#data domain
DOMAIN_MIN 0.0 0.0 0.0
DOMAIN_MAX 1.0 1.0 1.0
#LUT data points
0.028992 0.159760 0.321564
0.034485 0.160156 0.321564
0.040527 0.160645 0.321564
0.046997 0.161224 0.321564
0.053802 0.161926 0.321564
0.061188 0.162720 0.321564
0.069031 0.163635 0.321564
0.077271 0.164642 0.321564
0.085968 0.165741 0.321289
0.095001 0.166931 0.320740
0.104279 0.168182 0.320099
0.114105 0.169556 0.319336
0.124268 0.170990 0.318451
0.134796 0.172546 0.317505
0.145660 0.174133 0.316437
0.156830 0.175842 0.315277
0.168335 0.177582 0.314056
0.179901 0.179382 0.312744
0.191956 0.181305 0.311340
0.204315 0.183258 0.309845
0.216919 0.185272 0.308289
0.229736 0.187378 0.306671
0.242828 0.189514 0.304962
0.255890 0.191681 0.303223
0.269379 0.193909 0.301392
0.283112 0.196228 0.299469
0.296997 0.198578 0.297516
0.311035 0.200958 0.295502
0.325256 0.203400 0.293427
0.339355 0.205811 0.291351
0.353851 0.208313 0.289215
0.368469 0.210846 0.286987
0.034485 0.160156 0.321564
0.037384 0.160370 0.321564
0.043640 0.160919 0.321564
0.050354 0.161560 0.321564
0.057526 0.162323 0.321564
0.065125 0.163177 0.321564
0.073181 0.164124 0.321564
0.081482 0.165161 0.321533
0.090363 0.166290 0.321045
0.099609 0.167542 0.320435
0.109222 0.168884 0.319702
0.119232 0.170288 0.318909
0.129608 0.171753 0.317993
0.140076 0.173309 0.316986
0.151093 0.174957 0.315887
0.162445 0.176697 0.314697
0.174072 0.178467 0.313416
0.186005 0.180359 0.312042
0.198212 0.182281 0.310608
0.210449 0.184235 0.309113
0.223175 0.186310 0.307495
0.236145 0.188416 0.305847
0.249329 0.190582 0.304077
0.262756 0.192810 0.302277
0.276337 0.195068 0.300415
0.289886 0.197357 0.298523
0.303864 0.199738 0.296539
0.317993 0.202148 0.294495
0.332306 0.204590 0.292389
0.346710 0.207092 0.290253
0.361267 0.209595 0.288086
0.375671 0.212097 0.285889
0.040527 0.160645 0.321564
0.043640 0.160919 0.321564
0.046997 0.161224 0.321564
0.053802 0.161926 0.321564
0.061188 0.162720 0.321564
0.069031 0.163635 0.321564
0.077271 0.164642 0.321564
0.085968 0.165741 0.321289
0.095001 0.166931 0.320740
0.104279 0.168182 0.320099
0.114105 0.169556 0.319336
0.124268 0.170990 0.318451
0.134796 0.172546 0.317505
0.145660 0.174133 0.316437
0.156830 0.175842 0.315277
0.168121 0.177551 0.314087
0.179901 0.179382 0.312744
0.191956 0.181305 0.311340
0.204315 0.183258 0.309845
0.216919 0.185272 0.308289
0.229736 0.187378 0.306671
0.242828 0.189514 0.304962
0.255890 0.191681 0.303223
0.269379 0.193909 0.301392
0.283112 0.196228 0.299469
0.296997 0.198578 0.297516
0.311035 0.200958 0.295502
0.325256 0.203400 0.293427
0.339355 0.205811 0.291351
0.353851 0.208313 0.289215
0.368469 0.210846 0.286987
0.383179 0.213409 0.284729
0.046997 0.161224 0.321564
0.050354 0.161560 0.321564
0.053802 0.161926 0.321564
0.057526 0.162323 0.321564
0.065125 0.163177 0.321564
0.073181 0.164124 0.321564
0.081482 0.165161 0.321533
0.090363 0.166290 0.321045
0.099609 0.167542 0.320435
0.109222 0.168884 0.319702
0.119232 0.170288 0.318909
0.129608 0.171753 0.317993
0.140076 0.173309 0.316986
0.151093 0.174957 0.315887
0.162445 0.176697 0.314697
0.174072 0.178467 0.313416
0.186005 0.180359 0.312042
0.198212 0.182281 0.310608
0.210449 0.184235 0.309113
0.223175 0.186310 0.307495
0.236145 0.188416 0.305847
0.249329 0.190582 0.304077
0.262756 0.192810 0.302277
0.276337 0.195068 0.300415
0.289886 0.197357 0.298523
0.303864 0.199738 0.296539
0.317993 0.202148 0.294495
0.332306 0.204590 0.292389
0.346710 0.207092 0.290253
0.361267 0.209595 0.288086
0.375671 0.212097 0.285889
0.390442 0.214661 0.283630
0.053802 0.161926 0.321564
0.057526 0.162323 0.321564
0.061188 0.162720 0.321564
0.065125 0.163177 0.321564
0.069031 0.163635 0.321564
0.077271 0.164642 0.321564
0.085968 0.165741 0.321289
0.095001 0.166931 0.320740
0.104279 0.168182 0.320099
0.114105 0.169556 0.319336
0.124268 0.170990 0.318451
0.134796 0.172546 0.317505
0.145660 0.174133 0.316437
0.156830 0.175842 0.315277
0.168121 0.177551 0.314087
0.179901 0.179382 0.312744
0.191956 0.181305 0.311340
0.204315 0.183258 0.309845
0.216919 0.185272 0.308289
0.229736 0.187378 0.306671
0.242828 0.189514 0.304962
0.255890 0.191681 0.303223
0.269379 0.193909 0.301392
0.283112 0.196228 0.299469
0.296997 0.198578 0.297516
0.311035 0.200958 0.295502
0.325256 0.203400 0.293427
0.339355 0.205811 0.291351
0.353851 0.208313 0.289215
0.368469 0.210846 0.286987
0.383179 0.213409 0.284729
0.397980 0.216003 0.282471
0.061188 0.162720 0.321564
0.065125 0.163177 0.321564
0.069031 0.163635 0.321564
0.073181 0.164124 0.321564
0.077271 0.164642 0.321564
0.081482 0.165161 0.321533
0.090363 0.166290 0.321045
0.099609 0.167542 0.320435
0.109222 0.168884 0.319702
0.119232 0.170288 0.318909
0.129608 0.171753 0.317993
0.140076 0.173309 0.316986
0.151093 0.174957 0.315887
0.162445 0.176697 0.314697
0.174072 0.178467 0.313416
0.186005 0.180359 0.312042
0.198212 0.182281 0.310608
0.210449 0.184235 0.309113
0.223175 0.186310 0.307495
0.236145 0.188416 0.305847
0.249329 0.190582 0.304077
0.262756 0.192810 0.302277
0.276337 0.195068 0.300415
0.289886 0.197357 0.298523
0.303864 0.199738 0.296539
0.317993 0.202148 0.294495
0.332306 0.204590 0.292389
0.346710 0.207092 0.290253
0.361267 0.209595 0.288086
0.375671 0.212097 0.285889
0.390442 0.214661 0.283630
0.405304 0.217285 0.281342
0.069031 0.163635 0.321564
0.073181 0.164124 0.321564
0.077271 0.164642 0.321564
0.081482 0.165161 0.321533
0.085968 0.165741 0.321289
0.090363 0.166290 0.321045
0.095001 0.166931 0.320740
0.104279 0.168182 0.320099
0.114105 0.169556 0.319336
0.124268 0.170990 0.318451
0.134796 0.172546 0.317505
0.145660 0.174133 0.316437
0.156830 0.175842 0.315277
0.168121 0.177551 0.314087
0.179901 0.179382 0.312744
0.191956 0.181305 0.311340
0.204315 0.183258 0.309845
0.216919 0.185272 0.308289
0.229736 0.187378 0.306671
0.242828 0.189514 0.304962
0.255890 0.191681 0.303223
0.269379 0.193909 0.301392
0.283112 0.196228 0.299469
0.296997 0.198578 0.297516
0.311035 0.200958 0.295502
0.325256 0.203400 0.293427
0.339355 0.205811 0.291351
0.353851 0.208313 0.289215
0.368469 0.210846 0.286987
0.383179 0.213409 0.284729
0.397980 0.216003 0.282471
0.412903 0.218628 0.280151
0.077271 0.164642 0.321564
0.081482 0.165161 0.321533
0.085968 0.165741 0.321289
0.090363 0.166290 0.321045
0.095001 0.166931 0.320740
0.099609 0.167542 0.320435
0.104279 0.168182 0.320099
0.109222 0.168884 0.319702
0.119232 0.170288 0.318909
0.129608 0.171753 0.317993
0.140076 0.173309 0.316986
0.151093 0.174957 0.315887
0.162445 0.176697 0.314697
0.174072 0.178467 0.313416
0.186005 0.180359 0.312042
0.198212 0.182281 0.310608
0.210449 0.184235 0.309113
0.223175 0.186310 0.307495
0.236145 0.188416 0.305847
0.249329 0.190582 0.304077
0.262756 0.192810 0.302277
0.276337 0.195068 0.300415
0.289886 0.197357 0.298523
0.303864 0.199738 0.296539
0.317993 0.202148 0.294495
0.332306 0.204590 0.292389
0.346710 0.207092 0.290253
0.361267 0.209595 0.288086
0.375671 0.212097 0.285889
0.390442 0.214661 0.283630
0.405304 0.217285 0.281342
0.420227 0.219910 0.278992
0.085968 0.165741 0.321289
0.090363 0.166290 0.321045
0.095001 0.166931 0.320740
0.099609 0.167542 0.320435
0.104279 0.168182 0.320099
0.109222 0.168884 0.319702
0.114105 0.169556 0.319336
0.119232 0.170288 0.318909
0.124268 0.170990 0.318451
0.134796 0.172546 0.317505
0.145660 0.174133 0.316437
0.156830 0.175842 0.315277
0.168121 0.177551 0.314087
0.179901 0.179382 0.312744
0.191956 0.181305 0.311340
0.204315 0.183258 0.309845
0.216919 0.185272 0.308289
0.229736 0.187378 0.306671
0.242828 0.189514 0.304962
0.255890 0.191681 0.303223
0.269379 0.193909 0.301392
0.283112 0.196228 0.299469
0.296997 0.198578 0.297516
0.311035 0.200958 0.295502
0.325256 0.203400 0.293427
0.339355 0.205811 0.291351
0.353851 0.208313 0.289215
0.368469 0.210846 0.286987
0.383179 0.213409 0.284729
0.397980 0.216003 0.282471
0.412903 0.218628 0.280151
0.427582 0.221222 0.277863
0.095001 0.166931 0.320740
0.099609 0.167542 0.320435
0.104279 0.168182 0.320099
0.109222 0.168884 0.319702
0.114105 0.169556 0.319336
0.119232 0.170288 0.318909
0.124268 0.170990 0.318451
0.129608 0.171753 0.317993
0.134796 0.172546 0.317505
0.140076 0.173309 0.316986
0.151093 0.174957 0.315887
0.162445 0.176697 0.314697
0.174072 0.178467 0.313416
0.186005 0.180359 0.312042
0.198212 0.182281 0.310608
0.210449 0.184235 0.309113
0.223175 0.186310 0.307495
0.236145 0.188416 0.305847
0.249329 0.190582 0.304077
0.262756 0.192810 0.302277
0.276337 0.195068 0.300415
0.289886 0.197357 0.298523
0.303864 0.199738 0.296539
0.317993 0.202148 0.294495
0.332306 0.204590 0.292389
0.346710 0.207092 0.290253
0.361267 0.209595 0.288086
0.375671 0.212097 0.285889
0.390442 0.214661 0.283630
0.405304 0.217285 0.281342
0.420227 0.219910 0.278992
0.435211 0.222565 0.276642
0.104279 0.168182 0.320099
0.109222 0.168884 0.319702
0.114105 0.169556 0.319336
0.119232 0.170288 0.318909
0.124268 0.170990 0.318451
0.129608 0.171753 0.317993
0.134796 0.172546 0.317505
0.140076 0.173309 0.316986
0.145660 0.174133 0.316437
0.151093 0.174957 0.315887
0.156830 0.175842 0.315277
0.168121 0.177551 0.314087
0.179901 0.179382 0.312744
0.191956 0.181305 0.311340
0.204315 0.183258 0.309845
0.216919 0.185272 0.308289
0.229736 0.187378 0.306671
0.242828 0.189514 0.304962
0.255890 0.191681 0.303223
0.269379 0.193909 0.301392
0.283112 0.196228 0.299469
0.296997 0.198578 0.297516
0.311035 0.200958 0.295502
0.325256 0.203400 0.293427
0.339355 0.205811 0.291351
0.353851 0.208313 0.289215
0.368469 0.210846 0.286987
0.383179 0.213409 0.284729
0.397980 0.216003 0.282471
0.412903 0.218628 0.280151
0.427582 0.221222 0.277863
0.442596 0.223877 0.275452
0.114105 0.169556 0.319336
0.119232 0.170288 0.318909
0.124268 0.170990 0.318451
0.129608 0.171753 0.317993
0.134796 0.172546 0.317505
0.140076 0.173309 0.316986
0.145660 0.174133 0.316437
0.151093 0.174957 0.315887
0.156830 0.175842 0.315277
0.162445 0.176697 0.314697
0.168121 0.177551 0.314087
0.174072 0.178467 0.313416
0.186005 0.180359 0.312042
0.198212 0.182281 0.310608
0.210449 0.184235 0.309113
0.223175 0.186310 0.307495
0.236145 0.188416 0.305847
0.249329 0.190582 0.304077
0.262756 0.192810 0.302277
0.276337 0.195068 0.300415
0.289886 0.197357 0.298523
0.303864 0.199738 0.296539
0.317993 0.202148 0.294495
0.332306 0.204590 0.292389
0.346710 0.207092 0.290253
0.361267 0.209595 0.288086
0.375671 0.212097 0.285889
0.390442 0.214661 0.283630
0.405304 0.217285 0.281342
0.420227 0.219910 0.278992
0.435211 0.222565 0.276642
0.450256 0.225220 0.274261
0.124268 0.170990 0.318451
0.129608 0.171753 0.317993
0.134796 0.172546 0.317505
0.140076 0.173309 0.316986
0.145660 0.174133 0.316437
0.151093 0.174957 0.315887
0.156830 0.175842 0.315277
0.162445 0.176697 0.314697
0.168121 0.177551 0.314087
0.174072 0.178467 0.313416
0.179901 0.179382 0.312744
0.186005 0.180359 0.312042
0.191956 0.181305 0.311340
0.204315 0.183258 0.309845
0.216919 0.185272 0.308289
0.229736 0.187378 0.306671
0.242828 0.189514 0.304962
0.255890 0.191681 0.303223
0.269379 0.193909 0.301392
0.283112 0.196228 0.299469
0.296997 0.198578 0.297516
0.311035 0.200958 0.295502
0.325256 0.203400 0.293427
0.339355 0.205811 0.291351
0.353851 0.208313 0.289215
0.368469 0.210846 0.286987
0.383179 0.213409 0.284729
0.397980 0.216003 0.282471
0.412903 0.218628 0.280151
0.427582 0.221222 0.277863
0.442596 0.223877 0.275452
0.457672 0.226562 0.273071
0.134796 0.172546 0.317505
0.140076 0.173309 0.316986
0.145660 0.174133 0.316437
0.151093 0.174957 0.315887
0.156830 0.175842 0.315277
0.162445 0.176697 0.314697
0.168121 0.177551 0.314087
0.174072 0.178467 0.313416
0.179901 0.179382 0.312744
0.186005 0.180359 0.312042
0.191956 0.181305 0.311340
0.198212 0.182281 0.310608
0.204315 0.183258 0.309845
0.210449 0.184235 0.309113
0.223175 0.186310 0.307495
0.236145 0.188416 0.305847
0.249329 0.190582 0.304077
0.262756 0.192810 0.302277
0.276337 0.195068 0.300415
0.289886 0.197357 0.298523
0.303864 0.199738 0.296539
0.317993 0.202148 0.294495
0.332306 0.204590 0.292389
0.346710 0.207092 0.290253
0.361267 0.209595 0.288086
0.375671 0.212097 0.285889
0.390442 0.214661 0.283630
0.405304 0.217285 0.281342
0.420227 0.219910 0.278992
0.435211 0.222565 0.276642
0.450256 0.225220 0.274261
0.465363 0.227905 0.271820
0.145660 0.174133 0.316437
0.151093 0.174957 0.315887
0.156830 0.175842 0.315277
0.162445 0.176697 0.314697
0.168121 0.177551 0.314087
0.174072 0.178467 0.313416
0.179901 0.179382 0.312744
0.186005 0.180359 0.312042
0.191956 0.181305 0.311340
0.198212 0.182281 0.310608
0.204315 0.183258 0.309845
0.210449 0.184235 0.309113
0.216919 0.185272 0.308289
0.223175 0.186310 0.307495
0.229736 0.187378 0.306671
0.242584 0.189484 0.304993
0.255890 0.191681 0.303223
0.269379 0.193909 0.301392
0.283112 0.196228 0.299469
0.296997 0.198578 0.297516
0.311035 0.200958 0.295502
0.325256 0.203400 0.293427
0.339355 0.205811 0.291351
0.353851 0.208313 0.289215
0.368469 0.210846 0.286987
0.383179 0.213409 0.284729
0.397980 0.216003 0.282471
0.412903 0.218628 0.280151
0.427582 0.221222 0.277863
0.442596 0.223877 0.275452
0.457672 0.226562 0.273071
0.472778 0.229218 0.270630
0.156830 0.175842 0.315277
0.162445 0.176697 0.314697
0.168121 0.177551 0.314087
0.174072 0.178467 0.313416
0.179901 0.179382 0.312744
0.186005 0.180359 0.312042
0.191956 0.181305 0.311340
0.198212 0.182281 0.310608
0.204315 0.183258 0.309845
0.210449 0.184235 0.309113
0.216919 0.185272 0.308289
0.223175 0.186310 0.307495
0.229736 0.187378 0.306671
0.236145 0.188416 0.305847
0.242584 0.189484 0.304993
0.249329 0.190582 0.304077
0.262756 0.192810 0.302277
0.276337 0.195068 0.300415
0.289886 0.197357 0.298523
0.303864 0.199738 0.296539
0.317993 0.202148 0.294495
0.332306 0.204590 0.292389
0.346710 0.207092 0.290253
0.361267 0.209595 0.288086
0.375671 0.212097 0.285889
0.390442 0.214661 0.283630
0.405304 0.217285 0.281342
0.420227 0.219910 0.278992
0.435211 0.222565 0.276642
0.450256 0.225220 0.274261
0.465363 0.227905 0.271820
0.480164 0.230560 0.269440
0.168335 0.177582 0.314056
0.174072 0.178467 0.313416
0.179901 0.179382 0.312744
0.186005 0.180359 0.312042
0.191956 0.181305 0.311340
0.198212 0.182281 0.310608
0.204315 0.183258 0.309845
0.210449 0.184235 0.309113
0.216919 0.185272 0.308289
0.223175 0.186310 0.307495
0.229736 0.187378 0.306671
0.236145 0.188416 0.305847
0.242828 0.189514 0.304962
0.249329 0.190582 0.304077
0.255890 0.191681 0.303223
0.262756 0.192810 0.302277
0.269379 0.193909 0.301392
0.283112 0.196228 0.299469
0.296997 0.198578 0.297516
0.311035 0.200958 0.295502
0.325256 0.203400 0.293427
0.339355 0.205811 0.291351
0.353851 0.208313 0.289215
0.368469 0.210846 0.286987
0.383179 0.213409 0.284729
0.397980 0.216003 0.282471
0.412903 0.218628 0.280151
0.427582 0.221222 0.277863
0.442596 0.223877 0.275452
0.457672 0.226562 0.273071
0.472778 0.229218 0.270630
0.487854 0.231934 0.268188
0.179901 0.179382 0.312744
0.186005 0.180359 0.312042
0.191956 0.181305 0.311340
0.198212 0.182281 0.310608
0.204315 0.183258 0.309845
0.210449 0.184235 0.309113
0.216919 0.185272 0.308289
0.223175 0.186310 0.307495
0.229736 0.187378 0.306671
0.236145 0.188416 0.305847
0.242828 0.189514 0.304962
0.249329 0.190582 0.304077
0.255890 0.191681 0.303223
0.262756 0.192810 0.302277
0.269379 0.193909 0.301392
0.276337 0.195068 0.300415
0.283112 0.196228 0.299469
0.289886 0.197357 0.298523
0.303864 0.199738 0.296539
0.317993 0.202148 0.294495
0.332306 0.204590 0.292389
0.346710 0.207092 0.290253
0.361267 0.209595 0.288086
0.375946 0.212158 0.285858
0.390442 0.214661 0.283630
0.405304 0.217285 0.281342
0.420227 0.219910 0.278992
0.435211 0.222565 0.276642
0.450256 0.225220 0.274261
0.465363 0.227905 0.271820
0.480164 0.230560 0.269440
0.495300 0.233246 0.266998
0.191956 0.181305 0.311340
0.198212 0.182281 0.310608
0.204315 0.183258 0.309845
0.210449 0.184235 0.309113
0.216919 0.185272 0.308289
0.223175 0.186310 0.307495
0.229736 0.187378 0.306671
0.236145 0.188416 0.305847
0.242828 0.189514 0.304962
0.249329 0.190582 0.304077
0.255890 0.191681 0.303223
0.262756 0.192810 0.302277
0.269379 0.193909 0.301392
0.276337 0.195068 0.300415
0.283112 0.196228 0.299469
0.289886 0.197357 0.298523
0.296997 0.198578 0.297516
0.303864 0.199738 0.296539
0.311035 0.200958 0.295502
0.325256 0.203400 0.293427
0.339355 0.205811 0.291351
0.353851 0.208313 0.289215
0.368469 0.210846 0.286987
0.383179 0.213409 0.284729
0.397980 0.216003 0.282471
0.412903 0.218628 0.280151
0.427582 0.221222 0.277863
0.442596 0.223877 0.275452
0.457672 0.226562 0.273071
0.472778 0.229218 0.270630
0.487854 0.231934 0.268188
0.502991 0.234650 0.265747
0.204315 0.183258 0.309845
0.210449 0.184235 0.309113
0.216919 0.185272 0.308289
0.223175 0.186310 0.307495
0.229736 0.187378 0.306671
0.236145 0.188416 0.305847
0.242828 0.189514 0.304962
0.249329 0.190582 0.304077
0.255890 0.191681 0.303223
0.262756 0.192810 0.302277
0.269379 0.193909 0.301392
0.276337 0.195068 0.300415
0.283112 0.196228 0.299469
0.289886 0.197357 0.298523
0.296997 0.198578 0.297516
0.303864 0.199738 0.296539
0.311035 0.200958 0.295502
0.317993 0.202148 0.294495
0.325256 0.203400 0.293427
0.332306 0.204590 0.292389
0.346710 0.207092 0.290253
0.361267 0.209595 0.288086
0.375946 0.212158 0.285858
0.390442 0.214661 0.283630
0.405304 0.217285 0.281342
0.420227 0.219910 0.278992
0.435211 0.222565 0.276642
0.450256 0.225220 0.274261
0.465363 0.227905 0.271820
0.480164 0.230560 0.269440
0.495300 0.233246 0.266998
0.510406 0.235962 0.264526
0.216919 0.185272 0.308289
0.223175 0.186310 0.307495
0.229736 0.187378 0.306671
0.236145 0.188416 0.305847
0.242828 0.189514 0.304962
0.249329 0.190582 0.304077
0.255890 0.191681 0.303223
0.262756 0.192810 0.302277
0.269379 0.193909 0.301392
0.276337 0.195068 0.300415
0.283112 0.196228 0.299469
0.289886 0.197357 0.298523
0.296997 0.198578 0.297516
0.303864 0.199738 0.296539
0.311035 0.200958 0.295502
0.317993 0.202148 0.294495
0.325256 0.203400 0.293427
0.332306 0.204590 0.292389
0.339355 0.205811 0.291351
0.346710 0.207092 0.290253
0.353851 0.208313 0.289215
0.368469 0.210846 0.286987
0.383179 0.213409 0.284729
0.397980 0.216003 0.282471
0.412903 0.218628 0.280151
0.427582 0.221222 0.277863
0.442596 0.223877 0.275452
0.457672 0.226562 0.273071
0.472778 0.229218 0.270630
0.487854 0.231934 0.268188
0.502991 0.234650 0.265747
0.517822 0.237305 0.263306
0.229736 0.187378 0.306671
0.236145 0.188416 0.305847
0.242828 0.189514 0.304962
0.249329 0.190582 0.304077
0.255890 0.191681 0.303223
0.262756 0.192810 0.302277
0.269379 0.193909 0.301392
0.276337 0.195068 0.300415
0.283112 0.196228 0.299469
0.289886 0.197357 0.298523
0.296997 0.198578 0.297516
0.303864 0.199738 0.296539
0.311035 0.200958 0.295502
0.317993 0.202148 0.294495
0.325256 0.203400 0.293427
0.332306 0.204590 0.292389
0.339355 0.205811 0.291351
0.346710 0.207092 0.290253
0.353851 0.208313 0.289215
0.361267 0.209595 0.288086
0.368469 0.210846 0.286987
0.375946 0.212158 0.285858
0.390442 0.214661 0.283630
0.405304 0.217285 0.281342
0.420227 0.219910 0.278992
0.435211 0.222565 0.276642
0.450256 0.225220 0.274261
0.465363 0.227905 0.271820
0.480164 0.230560 0.269440
0.495300 0.233246 0.266998
0.510406 0.235962 0.264526
0.525513 0.238708 0.262054
0.242828 0.189514 0.304962
0.249329 0.190582 0.304077
0.255890 0.191681 0.303223
0.262756 0.192810 0.302277
0.269379 0.193909 0.301392
0.276337 0.195068 0.300415
0.283112 0.196228 0.299469
0.289886 0.197357 0.298523
0.296997 0.198578 0.297516
0.303864 0.199738 0.296539
0.311035 0.200958 0.295502
0.317993 0.202148 0.294495
0.325256 0.203400 0.293427
0.332306 0.204590 0.292389
0.339355 0.205811 0.291351
0.346710 0.207092 0.290253
0.353851 0.208313 0.289215
0.361267 0.209595 0.288086
0.368469 0.210846 0.286987
0.375946 0.212158 0.285858
0.383179 0.213409 0.284729
0.390442 0.214661 0.283630
0.397980 0.216003 0.282471
0.412903 0.218628 0.280151
0.427582 0.221222 0.277863
0.442596 0.223877 0.275452
0.457672 0.226562 0.273071
0.472778 0.229218 0.270630
0.487854 0.231934 0.268188
0.502991 0.234650 0.265747
0.517822 0.237305 0.263306
0.532928 0.240021 0.260834
0.255890 0.191681 0.303223
0.262756 0.192810 0.302277
0.269379 0.193909 0.301392
0.276337 0.195068 0.300415
0.283112 0.196228 0.299469
0.289886 0.197357 0.298523
0.296997 0.198578 0.297516
0.303864 0.199738 0.296539
0.311035 0.200958 0.295502
0.317993 0.202148 0.294495
0.325256 0.203400 0.293427
0.332306 0.204590 0.292389
0.339355 0.205811 0.291351
0.346710 0.207092 0.290253
0.353851 0.208313 0.289215
0.361267 0.209595 0.288086
0.368469 0.210846 0.286987
0.375946 0.212158 0.285858
0.383179 0.213409 0.284729
0.390442 0.214661 0.283630
0.397980 0.216003 0.282471
0.405304 0.217285 0.281342
0.412903 0.218628 0.280151
0.420227 0.219910 0.278992
0.435211 0.222565 0.276642
0.450256 0.225220 0.274261
0.465363 0.227905 0.271820
0.480164 0.230560 0.269440
0.495300 0.233246 0.266998
0.510406 0.235962 0.264526
0.525513 0.238708 0.262054
0.540588 0.241394 0.259552
0.269379 0.193909 0.301392
0.276337 0.195068 0.300415
0.283112 0.196228 0.299469
0.289886 0.197357 0.298523
0.296997 0.198578 0.297516
0.303864 0.199738 0.296539
0.311035 0.200958 0.295502
0.317993 0.202148 0.294495
0.325256 0.203400 0.293427
0.332306 0.204590 0.292389
0.339355 0.205811 0.291351
0.346710 0.207092 0.290253
0.353851 0.208313 0.289215
0.361267 0.209595 0.288086
0.368469 0.210846 0.286987
0.375671 0.212097 0.285889
0.383179 0.213409 0.284729
0.390442 0.214661 0.283630
0.397980 0.216003 0.282471
0.405304 0.217285 0.281342
0.412903 0.218628 0.280151
0.420227 0.219910 0.278992
0.427582 0.221222 0.277863
0.435211 0.222565 0.276642
0.442596 0.223877 0.275452
0.457672 0.226562 0.273071
0.472778 0.229218 0.270630
0.487854 0.231934 0.268188
0.502991 0.234650 0.265747
0.517822 0.237305 0.263306
0.532928 0.240021 0.260834
0.547974 0.242737 0.258331
0.283112 0.196228 0.299469
0.289886 0.197357 0.298523
0.296997 0.198578 0.297516
0.303864 0.199738 0.296539
0.311035 0.200958 0.295502
0.317993 0.202148 0.294495
0.325256 0.203400 0.293427
0.332306 0.204590 0.292389
0.339355 0.205811 0.291351
0.346710 0.207092 0.290253
0.353851 0.208313 0.289215
0.361267 0.209595 0.288086
0.368469 0.210846 0.286987
0.375671 0.212097 0.285889
0.383179 0.213409 0.284729
0.390442 0.214661 0.283630
0.397980 0.216003 0.282471
0.405304 0.217285 0.281342
0.412903 0.218628 0.280151
0.420227 0.219910 0.278992
0.427582 0.221222 0.277863
0.435211 0.222565 0.276642
0.442596 0.223877 0.275452
0.450256 0.225220 0.274261
0.457672 0.226562 0.273071
0.465363 0.227905 0.271820
0.480164 0.230560 0.269440
0.495300 0.233246 0.266998
0.510406 0.235962 0.264526
0.525513 0.238708 0.262054
0.540588 0.241394 0.259552
0.555634 0.244110 0.257050
0.296997 0.198578 0.297516
0.303864 0.199738 0.296539
0.311035 0.200958 0.295502
0.317993 0.202148 0.294495
0.325256 0.203400 0.293427
0.332306 0.204590 0.292389
0.339355 0.205811 0.291351
0.346710 0.207092 0.290253
0.353851 0.208313 0.289215
0.361267 0.209595 0.288086
0.368469 0.210846 0.286987
0.375671 0.212097 0.285889
0.383179 0.213409 0.284729
0.390442 0.214661 0.283630
0.397980 0.216003 0.282471
0.405304 0.217285 0.281342
0.412903 0.218628 0.280151
0.420227 0.219910 0.278992
0.427582 0.221222 0.277863
0.435211 0.222565 0.276642
0.442596 0.223877 0.275452
0.450256 0.225220 0.274261
0.457672 0.226562 0.273071
0.465363 0.227905 0.271820
0.472778 0.229218 0.270630
0.480164 0.230560 0.269440
0.487854 0.231934 0.268188
0.502991 0.234650 0.265747
0.517822 0.237305 0.263306
0.532928 0.240021 0.260834
0.547974 0.242737 0.258331
0.563019 0.245453 0.255829
0.311035 0.200958 0.295502
0.317993 0.202148 0.294495
0.325256 0.203400 0.293427
0.332306 0.204590 0.292389
0.339355 0.205811 0.291351
0.346710 0.207092 0.290253
0.353851 0.208313 0.289215
0.361267 0.209595 0.288086
0.368469 0.210846 0.286987
0.375671 0.212097 0.285889
0.383179 0.213409 0.284729
0.390442 0.214661 0.283630
0.397980 0.216003 0.282471
0.405304 0.217285 0.281342
0.412903 0.218628 0.280151
