testdata/filters/luthouse/BW03 - Astaire.CUBE
#Created by: Adobe Photoshop Export Color Lookup Plugin
#Copyright: (C) Copyright 2017 @ 2017 Joseph Angelo Todaro
TITLE "BW03 - Astaire"
#LUT size
LUT_3D_SIZE 5
#data domain
#LUT data points
DOMAIN_MIN 0.000000 0.000000 0.000000
DOMAIN_MAX 0.903226 0.903226 0.903226
0.135590 0.135590 0.135773
0.185028 0.185028 0.185211
0.241180 0.241180 0.241333
0.302490 0.302490 0.302643
0.366302 0.366302 0.366425
0.239349 0.239349 0.239502
0.300262 0.300262 0.300385
0.364288 0.364288 0.364441
0.426788 0.426788 0.426941
0.485779 0.485779 0.485870
0.362091 0.362091 0.362183
0.424835 0.424835 0.424927
0.483734 0.483734 0.483856
0.543793 0.543793 0.543854
0.604370 0.604370 0.604462
0.481781 0.481781 0.481903
0.541779 0.541779 0.541840
0.602325 0.602325 0.602417
0.665039 0.665039 0.665100
0.729431 0.729431 0.729492
0.600342 0.600342 0.600403
0.662933 0.662933 0.662994
0.727325 0.727325 0.727356
0.790100 0.790100 0.790131
0.848999 0.848999 0.848999
0.152802 0.152802 0.152985
0.204987 0.204987 0.205170
0.263214 0.263214 0.263367
0.325806 0.325806 0.325958
0.389984 0.389984 0.390076
0.261078 0.261078 0.261261
0.323578 0.323578 0.323700
0.387726 0.387726 0.387848
0.448364 0.448364 0.448456
0.507660 0.507660 0.507721
0.385498 0.385498 0.385590
0.446411 0.446411 0.446503
0.505646 0.505646 0.505737
0.565735 0.565735 0.565857
0.627258 0.627258 0.627319
0.503632 0.503632 0.503754
0.563751 0.563751 0.563812
0.625183 0.625183 0.625214
0.688660 0.688660 0.688751
0.752686 0.752686 0.752716
0.623108 0.623108 0.623169
0.686554 0.686554 0.686615
0.750610 0.750610 0.750641
0.812256 0.812256 0.812286
0.868958 0.868958 0.868958
0.171112 0.171112 0.171295
0.225586 0.225586 0.225739
0.285706 0.285706 0.285858
0.349365 0.349365 0.349487
0.413055 0.413055 0.413177
0.283813 0.283813 0.283905
0.347137 0.347137 0.347260
0.411072 0.411072 0.411194
0.469940 0.469940 0.470032
0.529541 0.529541 0.529602
0.408875 0.408875 0.408997
0.467987 0.467987 0.468079
0.527557 0.527557 0.527618
0.588135 0.588135 0.588226
0.650330 0.650330 0.650452
0.525574 0.525574 0.525635
0.586121 0.586121 0.586212
0.648224 0.648224 0.648285
0.712097 0.712097 0.712158
0.775696 0.775696 0.775726
0.646149 0.646149 0.646240
0.709991 0.709991 0.710052
0.773560 0.773560 0.773651
0.833771 0.833771 0.833801
0.888062 0.888062 0.888062
0.190369 0.190369 0.190521
0.247284 0.247284 0.247406
0.308807 0.308807 0.308960
0.372772 0.372772 0.372894
0.434631 0.434631 0.434784
0.306580 0.306580 0.306763
0.370514 0.370514 0.370636
0.432678 0.432678 0.432800
0.491699 0.491699 0.491791
0.551758 0.551758 0.551819
0.430725 0.430725 0.430817
0.489716 0.489716 0.489777
0.549744 0.549744 0.549835
0.610535 0.610535 0.610565
0.673492 0.673492 0.673553
0.547760 0.547760 0.547821
0.608429 0.608429 0.608551
0.671387 0.671387 0.671448
0.735840 0.735840 0.735870
0.798218 0.798218 0.798218
0.669281 0.669281 0.669342
0.733673 0.733673 0.733765
0.796143 0.796143 0.796234
0.854584 0.854584 0.854614
0.906219 0.906219 0.906219
0.210541 0.210541 0.210663
0.269409 0.269409 0.269562
0.332214 0.332214 0.332397
0.396179 0.396179 0.396301
0.456207 0.456207 0.456329
0.330017 0.330017 0.330139
0.394165 0.394165 0.394318
0.454254 0.454254 0.454346
0.513611 0.513611 0.513702
0.573792 0.573792 0.573853
0.452301 0.452301 0.452393
0.511597 0.511597 0.511688
0.571747 0.571747 0.571808
0.633423 0.633423 0.633484
0.697205 0.697205 0.697266
0.569733 0.569733 0.569855
0.631317 0.631317 0.631439
0.695068 0.695068 0.695129
0.759003 0.759003 0.759033
0.820129 0.820129 0.820190
0.692932 0.692932 0.692993
0.756897 0.756897 0.756927
0.818146 0.818146 0.818176
0.874359 0.874359 0.874359
0.923401 0.923401 0.923431
