testdata/filters/luthouse/BW03 - Astaire.CUBE
#Created by: Adobe Photoshop Export Color Lookup Plugin
#Copyright: (C) Copyright 2017 @ 2017 Joseph Angelo Todaro
TITLE "BW03 - Astaire"
#LUT size
LUT_3D_SIZE 32
#data domain
DOMAIN_MIN 0.0 0.0 0.0
DOMAIN_MAX 1.0 1.0 1.0
#LUT data points
0.135590 0.135590 0.135773
0.142212 0.142212 0.142395
0.148956 0.148956 0.149109
0.155762 0.155762 0.155945
0.162903 0.162903 0.163086
0.170166 0.170166 0.170349
0.177551 0.177551 0.177704
0.185028 0.185028 0.185211
0.192596 0.192596 0.192749
0.200470 0.200470 0.200653
0.208252 0.208252 0.208405
0.216339 0.216339 0.216492
0.224548 0.224548 0.224701
0.232849 0.232849 0.233002
0.241180 0.241180 0.241333
0.249603 0.249603 0.249786
0.258392 0.258392 0.258514
0.266998 0.266998 0.267120
0.275635 0.275635 0.275757
0.284637 0.284637 0.284760
0.293671 0.293671 0.293793
0.302490 0.302490 0.302643
0.311615 0.311615 0.311737
0.320557 0.320557 0.320679
0.329742 0.329742 0.329865
0.338959 0.338959 0.339081
0.347961 0.347961 0.348083
0.357269 0.357269 0.357361
0.366302 0.366302 0.366425
0.375580 0.375580 0.375702
0.384613 0.384613 0.384735
0.393921 0.393921 0.394012
0.148712 0.148712 0.148895
0.155548 0.155548 0.155701
0.162720 0.162720 0.162872
0.169952 0.169952 0.170105
0.177307 0.177307 0.177490
0.184753 0.184753 0.184937
0.192352 0.192352 0.192505
0.200256 0.200256 0.200409
0.207977 0.207977 0.208160
0.216095 0.216095 0.216248
0.224274 0.224274 0.224426
0.232574 0.232574 0.232727
0.240936 0.240936 0.241089
0.249359 0.249359 0.249481
0.257874 0.257874 0.258026
0.266754 0.266754 0.266876
0.275360 0.275360 0.275513
0.284332 0.284332 0.284485
0.293121 0.293121 0.293243
0.302185 0.302185 0.302338
0.311340 0.311340 0.311493
0.320221 0.320221 0.320374
0.329437 0.329437 0.329559
0.338715 0.338715 0.338837
0.347687 0.347687 0.347839
0.356964 0.356964 0.357056
0.365997 0.365997 0.366089
0.375275 0.375275 0.375427
0.384338 0.384338 0.384430
0.393646 0.393646 0.393738
0.402679 0.402679 0.402802
0.411682 0.411682 0.411804
0.162476 0.162476 0.162659
0.169739 0.169739 0.169891
0.177063 0.177063 0.177246
0.184540 0.184540 0.184692
0.192108 0.192108 0.192261
0.199768 0.199768 0.199921
0.207764 0.207764 0.207886
0.215820 0.215820 0.216003
0.224030 0.224030 0.224182
0.232300 0.232300 0.232452
0.240631 0.240631 0.240814
0.249084 0.249084 0.249237
0.257599 0.257599 0.257751
0.266449 0.266449 0.266602
0.275085 0.275085 0.275238
0.284088 0.284088 0.284241
0.292816 0.292816 0.292969
0.301910 0.301910 0.302063
0.310791 0.310791 0.310913
0.319977 0.319977 0.320068
0.329193 0.329193 0.329315
0.338104 0.338104 0.338257
0.347382 0.347382 0.347565
0.356659 0.356659 0.356842
0.365723 0.365723 0.365845
0.375031 0.375031 0.375153
0.384033 0.384033 0.384155
0.393372 0.393372 0.393494
0.402374 0.402374 0.402496
0.411407 0.411407 0.411499
0.419800 0.419800 0.419952
0.428192 0.428192 0.428314
0.176849 0.176849 0.177002
0.184296 0.184296 0.184448
0.191833 0.191833 0.192017
0.199768 0.199768 0.199921
0.207520 0.207520 0.207642
0.215576 0.215576 0.215729
0.223755 0.223755 0.223907
0.232056 0.232056 0.232208
0.240387 0.240387 0.240570
0.248810 0.248810 0.248962
0.257324 0.257324 0.257507
0.266174 0.266174 0.266357
0.274811 0.274811 0.274963
0.283813 0.283813 0.283905
0.292572 0.292572 0.292694
0.301605 0.301605 0.301758
0.310791 0.310791 0.310913
0.319672 0.319672 0.319824
0.328888 0.328888 0.329041
0.337860 0.337860 0.337952
0.347137 0.347137 0.347260
0.356415 0.356415 0.356537
0.365387 0.365387 0.365570
0.374756 0.374756 0.374878
0.383759 0.383759 0.383911
0.392822 0.392822 0.392914
0.402100 0.402100 0.402191
0.411072 0.411072 0.411194
0.419525 0.419525 0.419647
0.427917 0.427917 0.428040
0.436310 0.436310 0.436401
0.444702 0.444702 0.444824
0.191620 0.191620 0.191742
0.199249 0.199249 0.199432
0.207275 0.207275 0.207428
0.215332 0.215332 0.215485
0.223511 0.223511 0.223663
0.231812 0.231812 0.231934
0.240143 0.240143 0.240295
0.248566 0.248566 0.248718
0.257080 0.257080 0.257202
0.265930 0.265930 0.266052
0.274536 0.274536 0.274689
0.283539 0.283539 0.283661
0.292297 0.292297 0.292419
0.301361 0.301361 0.301483
0.310211 0.310211 0.310333
0.319397 0.319397 0.319550
0.328644 0.328644 0.328735
0.337585 0.337585 0.337677
0.346832 0.346832 0.346924
0.355865 0.355865 0.355988
0.365143 0.365143 0.365265
0.374481 0.374481 0.374573
0.383514 0.383514 0.383636
0.392517 0.392517 0.392609
0.401825 0.401825 0.401917
0.410828 0.410828 0.410919
0.419220 0.419220 0.419312
0.427643 0.427643 0.427734
0.436035 0.436035 0.436157
0.444427 0.444427 0.444550
0.452820 0.452820 0.452942
0.461212 0.461212 0.461334
0.207001 0.207001 0.207184
0.215118 0.215118 0.215240
0.223267 0.223267 0.223389
0.231537 0.231537 0.231720
0.239868 0.239868 0.240051
0.248291 0.248291 0.248444
0.256805 0.256805 0.256958
0.265381 0.265381 0.265503
0.274292 0.274292 0.274445
0.283234 0.283234 0.283386
0.291992 0.291992 0.292145
0.301086 0.301086 0.301208
0.309967 0.309967 0.310089
0.319122 0.319122 0.319244
0.328339 0.328339 0.328461
0.337280 0.337280 0.337463
0.346558 0.346558 0.346680
0.355560 0.355560 0.355682
0.364838 0.364838 0.364990
0.373871 0.373871 0.373993
0.383209 0.383209 0.383362
0.392212 0.392212 0.392365
0.401550 0.401550 0.401642
0.410522 0.410522 0.410675
0.418945 0.418945 0.419037
0.427368 0.427368 0.427490
0.435730 0.435730 0.435883
0.444153 0.444153 0.444275
0.452545 0.452545 0.452698
0.460938 0.460938 0.461060
0.469391 0.469391 0.469482
0.477844 0.477844 0.477936
0.223022 0.223022 0.223175
0.231293 0.231293 0.231415
0.239594 0.239594 0.239777
0.248047 0.248047 0.248199
0.256561 0.256561 0.256683
0.265381 0.265381 0.265503
0.274048 0.274048 0.274139
0.282684 0.282684 0.282837
0.291748 0.291748 0.291870
0.300537 0.300537 0.300659
0.309662 0.309662 0.309845
0.318848 0.318848 0.318970
0.327728 0.327728 0.327911
0.337036 0.337036 0.337158
0.346252 0.346252 0.346405
0.355286 0.355286 0.355408
0.364594 0.364594 0.364685
0.373627 0.373627 0.373749
0.382935 0.382935 0.383057
0.391907 0.391907 0.392059
0.400970 0.400970 0.401062
0.410248 0.410248 0.410370
0.418640 0.418640 0.418762
0.427094 0.427094 0.427216
0.435455 0.435455 0.435577
0.443848 0.443848 0.444000
0.452301 0.452301 0.452393
0.460663 0.460663 0.460785
0.469116 0.469116 0.469208
0.477570 0.477570 0.477661
0.486053 0.486053 0.486145
0.494507 0.494507 0.494629
0.239349 0.239349 0.239502
0.247803 0.247803 0.247925
0.256256 0.256256 0.256439
0.264832 0.264832 0.265015
0.273712 0.273712 0.273865
0.282440 0.282440 0.282562
0.291443 0.291443 0.291626
0.300262 0.300262 0.300385
0.309387 0.309387 0.309509
0.318573 0.318573 0.318695
0.327484 0.327484 0.327606
0.336731 0.336731 0.336853
0.346008 0.346008 0.346130
0.354980 0.354980 0.355103
0.364288 0.364288 0.364441
0.373352 0.373352 0.373444
0.382660 0.382660 0.382782
0.391663 0.391663 0.391754
0.400665 0.400665 0.400787
0.409943 0.409943 0.410065
0.418427 0.418427 0.418488
0.426788 0.426788 0.426941
0.435211 0.435211 0.435303
0.443573 0.443573 0.443695
0.452026 0.452026 0.452118
0.460388 0.460388 0.460510
0.468811 0.468811 0.468903
0.477264 0.477264 0.477386
0.485779 0.485779 0.485870
0.494232 0.494232 0.494354
0.502777 0.502777 0.502930
0.511322 0.511322 0.511414
0.255981 0.255981 0.256134
0.264557 0.264557 0.264709
0.273468 0.273468 0.273590
0.282166 0.282166 0.282318
0.291199 0.291199 0.291321
0.300018 0.300018 0.300110
0.309143 0.309143 0.309235
0.318268 0.318268 0.318451
0.327240 0.327240 0.327332
0.336456 0.336456 0.336578
0.345734 0.345734 0.345825
0.354706 0.354706 0.354858
0.364014 0.364014 0.364136
0.373077 0.373077 0.373169
0.382355 0.382355 0.382507
0.391388 0.391388 0.391541
0.400360 0.400360 0.400513
0.409698 0.409698 0.409790
0.418152 0.418152 0.418243
0.426514 0.426514 0.426605
0.434906 0.434906 0.435059
0.443298 0.443298 0.443420
0.451691 0.451691 0.451843
0.460144 0.460144 0.460236
0.468536 0.468536 0.468628
0.476990 0.476990 0.477081
0.485443 0.485443 0.485596
0.493958 0.493958 0.494080
0.502502 0.502502 0.502655
0.511047 0.511047 0.511139
0.519592 0.519592 0.519653
0.528107 0.528107 0.528229
0.273224 0.273224 0.273376
0.281921 0.281921 0.282043
0.290894 0.290894 0.291046
0.299683 0.299683 0.299835
0.308807 0.308807 0.308960
0.318024 0.318024 0.318146
0.326904 0.326904 0.327057
0.336182 0.336182 0.336273
0.345123 0.345123 0.345276
0.354431 0.354431 0.354553
0.363739 0.363739 0.363892
0.372772 0.372772 0.372894
0.381805 0.381805 0.381897
0.391113 0.391113 0.391235
0.400116 0.400116 0.400238
0.409393 0.409393 0.409546
0.417847 0.417847 0.417969
0.426208 0.426208 0.426300
0.434631 0.434631 0.434784
0.443024 0.443024 0.443115
0.451416 0.451416 0.451569
0.459839 0.459839 0.459930
0.468262 0.468262 0.468353
0.476715 0.476715 0.476807
0.485138 0.485138 0.485291
0.493683 0.493683 0.493805
0.502228 0.502228 0.502289
0.510803 0.510803 0.510864
0.519318 0.519318 0.519379
0.527832 0.527832 0.527893
0.536346 0.536346 0.536438
0.545166 0.545166 0.545288
0.290649 0.290649 0.290771
0.299438 0.299438 0.299591
0.308563 0.308563 0.308685
0.317444 0.317444 0.317566
0.326660 0.326660 0.326782
0.335907 0.335907 0.336060
0.344849 0.344849 0.345001
0.354156 0.354156 0.354309
0.363495 0.363495 0.363586
0.372467 0.372467 0.372589
0.381805 0.381805 0.381897
0.390839 0.390839 0.390961
0.399872 0.399872 0.399994
0.408875 0.408875 0.408997
0.417542 0.417542 0.417664
0.425995 0.425995 0.426056
0.434357 0.434357 0.434479
0.442780 0.442780 0.442841
0.451141 0.451141 0.451263
0.459564 0.459564 0.459656
0.467987 0.467987 0.468079
0.476440 0.476440 0.476532
0.484863 0.484863 0.484985
0.493378 0.493378 0.493500
0.501953 0.501953 0.502014
0.510498 0.510498 0.510590
0.519012 0.519012 0.519104
0.527557 0.527557 0.527618
0.536072 0.536072 0.536133
0.544861 0.544861 0.544983
0.553436 0.553436 0.553528
0.561981 0.561981 0.562103
0.308289 0.308289 0.308441
0.317200 0.317200 0.317291
0.326355 0.326355 0.326508
0.335571 0.335571 0.335724
0.344604 0.344604 0.344696
0.353882 0.353882 0.354004
0.362885 0.362885 0.363007
0.372192 0.372192 0.372345
0.381256 0.381256 0.381378
0.390533 0.390533 0.390686
0.399567 0.399567 0.399689
0.408569 0.408569 0.408691
0.417267 0.417267 0.417358
0.425690 0.425690 0.425781
0.434082 0.434082 0.434204
0.442505 0.442505 0.442596
0.450867 0.450867 0.450989
0.459290 0.459290 0.459381
0.467712 0.467712 0.467804
0.476166 0.476166 0.476257
0.484589 0.484589 0.484711
0.493103 0.493103 0.493225
0.501648 0.501648 0.501740
0.510223 0.510223 0.510284
0.518738 0.518738 0.518829
0.527252 0.527252 0.527344
0.535797 0.535797 0.535858
0.544586 0.544586 0.544708
0.553131 0.553131 0.553223
0.561707 0.561707 0.561829
0.570312 0.570312 0.570404
0.578949 0.578949 0.579010
0.326111 0.326111 0.326233
0.335052 0.335052 0.335175
0.344330 0.344330 0.344452
0.353607 0.353607 0.353729
0.362610 0.362610 0.362762
0.371918 0.371918 0.372009
0.380951 0.380951 0.381073
0.390259 0.390259 0.390350
0.399292 0.399292 0.399414
0.408264 0.408264 0.408386
0.417023 0.417023 0.417114
0.425415 0.425415 0.425476
0.433777 0.433777 0.433929
0.442230 0.442230 0.442322
0.450562 0.450562 0.450714
0.459015 0.459015 0.459106
0.467407 0.467407 0.467529
0.475891 0.475891 0.475983
0.484314 0.484314 0.484436
0.492828 0.492828 0.492950
0.501343 0.501343 0.501465
0.509949 0.509949 0.510010
0.518463 0.518463 0.518524
0.526978 0.526978 0.527069
0.535522 0.535522 0.535614
0.544312 0.544312 0.544403
0.552887 0.552887 0.552917
0.561493 0.561493 0.561523
0.570038 0.570038 0.570129
0.578644 0.578644 0.578735
0.587555 0.587555 0.587646
0.596222 0.596222 0.596344
0.344055 0.344055 0.344177
0.353333 0.353333 0.353424
0.362366 0.362366 0.362457
0.371613 0.371613 0.371796
0.380676 0.380676 0.380768
0.389984 0.389984 0.390076
0.398987 0.398987 0.399109
0.407990 0.407990 0.408081
0.416687 0.416687 0.416840
0.425140 0.425140 0.425232
0.433533 0.433533 0.433655
0.441925 0.441925 0.441986
0.450287 0.450287 0.450439
0.458710 0.458710 0.458801
0.467133 0.467133 0.467224
0.475586 0.475586 0.475677
0.484009 0.484009 0.484131
0.492554 0.492554 0.492676
0.501068 0.501068 0.501160
0.509613 0.509613 0.509705
0.518188 0.518188 0.518280
0.526703 0.526703 0.526794
0.535217 0.535217 0.535278
0.544037 0.544037 0.544128
0.552612 0.552612 0.552673
0.561127 0.561127 0.561249
0.569733 0.569733 0.569855
0.578644 0.578644 0.578735
0.587280 0.587280 0.587341
0.595947 0.595947 0.596039
0.604675 0.604675 0.604736
0.613434 0.613434 0.613464
0.362091 0.362091 0.362183
0.371368 0.371368 0.371490
0.380402 0.380402 0.380493
0.389679 0.389679 0.389801
0.398712 0.398712 0.398804
0.407745 0.407745 0.407806
0.416412 0.416412 0.416565
0.424835 0.424835 0.424927
0.433258 0.433258 0.433350
0.441650 0.441650 0.441711
0.450043 0.450043 0.450134
0.458435 0.458435 0.458527
0.466858 0.466858 0.466949
0.475311 0.475311 0.475403
0.483734 0.483734 0.483856
0.492279 0.492279 0.492401
0.500793 0.500793 0.500885
0.509338 0.509338 0.509460
0.517914 0.517914 0.518005
0.526428 0.526428 0.526489
0.534943 0.534943 0.535004
0.543793 0.543793 0.543854
0.552338 0.552338 0.552429
0.560852 0.560852 0.560944
0.569489 0.569489 0.569550
0.578064 0.578064 0.578125
0.587006 0.587006 0.587036
0.595673 0.595673 0.595734
0.604370 0.604370 0.604462
0.613434 0.613434 0.613464
0.622192 0.622192 0.622253
0.631073 0.631073 0.631104
0.380066 0.380066 0.380219
0.389160 0.389160 0.389252
0.398438 0.398438 0.398529
0.407471 0.407471 0.407593
0.416168 0.416168 0.416260
0.424561 0.424561 0.424683
0.432983 0.432983 0.433075
0.441345 0.441345 0.441498
0.449768 0.449768 0.449860
0.458160 0.458160 0.458252
0.466583 0.466583 0.466675
0.475037 0.475037 0.475128
0.483459 0.483459 0.483582
0.491974 0.491974 0.492065
0.500488 0.500488 0.500610
0.509033 0.509033 0.509155
0.517609 0.517609 0.517700
0.526154 0.526154 0.526215
0.534637 0.534637 0.534698
0.543488 0.543488 0.543610
0.552032 0.552032 0.552124
0.560577 0.560577 0.560638
0.569183 0.569183 0.569275
0.577820 0.577820 0.577850
0.586700 0.586700 0.586823
0.595367 0.595367 0.595459
0.604095 0.604095 0.604156
0.613129 0.613129 0.613190
0.621918 0.621918 0.621979
0.630737 0.630737 0.630829
0.639618 0.639618 0.639679
0.648834 0.648834 0.648926
0.398163 0.398163 0.398285
0.407166 0.407166 0.407288
0.415863 0.415863 0.415985
0.424286 0.424286 0.424408
0.432678 0.432678 0.432800
0.441040 0.441040 0.441162
0.449463 0.449463 0.449585
0.457886 0.457886 0.457977
0.466309 0.466309 0.466400
0.474762 0.474762 0.474854
0.483185 0.483185 0.483307
0.491699 0.491699 0.491791
0.500214 0.500214 0.500336
0.508789 0.508789 0.508850
0.517334 0.517334 0.517426
0.525848 0.525848 0.525940
0.534363 0.534363 0.534454
0.543213 0.543213 0.543274
0.551758 0.551758 0.551819
0.560303 0.560303 0.560364
0.568909 0.568909 0.568970
0.577820 0.577820 0.577850
0.586395 0.586395 0.586517
0.595093 0.595093 0.595184
0.603821 0.603821 0.603882
0.612823 0.612823 0.612885
0.621613 0.621613 0.621674
0.630493 0.630493 0.630554
0.639343 0.639343 0.639404
0.648560 0.648560 0.648621
0.657562 0.657562 0.657623
0.666534 0.666534 0.666595
0.415588 0.415588 0.415710
0.424011 0.424011 0.424103
0.432404 0.432404 0.432495
0.440796 0.440796 0.440887
0.449188 0.449188 0.449310
0.457611 0.457611 0.457703
0.466003 0.466003 0.466125
0.474487 0.474487 0.474579
0.482910 0.482910 0.483002
0.491425 0.491425 0.491516
0.499969 0.499969 0.500031
0.508484 0.508484 0.508575
0.517029 0.517029 0.517090
0.525574 0.525574 0.525635
0.534363 0.534363 0.534454
0.542938 0.542938 0.542999
0.551483 0.551483 0.551544
0.560028 0.560028 0.560089
0.568604 0.568604 0.568695
0.577209 0.577209 0.577301
0.586121 0.586121 0.586212
0.594788 0.594788 0.594879
0.603516 0.603516 0.603577
0.612549 0.612549 0.612640
0.621338 0.621338 0.621429
0.630157 0.630157 0.630249
0.639038 0.639038 0.639130
0.648224 0.648224 0.648285
0.657227 0.657227 0.657288
0.666229 0.666229 0.666290
0.675293 0.675293 0.675354
0.684723 0.684723 0.684784
0.432129 0.432129 0.432220
0.440521 0.440521 0.440613
0.448944 0.448944 0.449005
0.457306 0.457306 0.457428
0.465759 0.465759 0.465851
0.474152 0.474152 0.474304
0.482635 0.482635 0.482758
0.491150 0.491150 0.491241
0.499695 0.499695 0.499756
0.508209 0.508209 0.508301
0.516754 0.516754 0.516815
0.525299 0.525299 0.525360
0.533813 0.533813 0.533905
0.542633 0.542633 0.542725
0.551208 0.551208 0.551270
0.559723 0.559723 0.559814
0.568298 0.568298 0.568390
0.577209 0.577209 0.577301
0.585846 0.585846 0.585938
0.594513 0.594513 0.594574
0.603241 0.603241 0.603271
0.611969 0.611969 0.612000
0.621033 0.621033 0.621094
0.629852 0.629852 0.629944
0.638733 0.638733 0.638794
0.647980 0.647980 0.648041
0.656952 0.656952 0.657013
0.665955 0.665955 0.666016
0.675018 0.675018 0.675079
0.684448 0.684448 0.684509
0.693542 0.693542 0.693604
0.702667 0.702667 0.702728
0.448669 0.448669 0.448730
0.457031 0.457031 0.457123
0.465485 0.465485 0.465576
0.473877 0.473877 0.473999
0.482330 0.482330 0.482452
0.490845 0.490845 0.490936
0.499420 0.499420 0.499481
0.507935 0.507935 0.507996
0.516479 0.516479 0.516571
0.524994 0.524994 0.525085
0.533539 0.533539 0.533630
0.542328 0.542328 0.542419
0.550873 0.550873 0.550995
0.559418 0.559418 0.559509
0.567993 0.567993 0.568085
0.576904 0.576904 0.576996
0.585541 0.585541 0.585602
0.594208 0.594208 0.594299
0.602936 0.602936 0.603058
0.611969 0.611969 0.612000
0.620728 0.620728 0.620789
0.629547 0.629547 0.629639
0.638428 0.638428 0.638550
0.647675 0.647675 0.647736
0.656647 0.656647 0.656708
0.665649 0.665649 0.665710
0.674713 0.674713 0.674774
0.684113 0.684113 0.684174
0.693207 0.693207 0.693298
0.702362 0.702362 0.702423
0.711548 0.711548 0.711578
0.720612 0.720612 0.720703
0.465179 0.465179 0.465302
0.473602 0.473602 0.473724
0.482056 0.482056 0.482178
0.490570 0.490570 0.490631
0.499115 0.499115 0.499207
0.507660 0.507660 0.507721
0.516205 0.516205 0.516296
0.524719 0.524719 0.524811
0.533264 0.533264 0.533356
0.542053 0.542053 0.542114
0.550568 0.550568 0.550690
0.559143 0.559143 0.559204
0.567749 0.567749 0.567810
0.576385 0.576385 0.576447
0.585236 0.585236 0.585327
0.593964 0.593964 0.594025
0.602600 0.602600 0.602661
0.611389 0.611389 0.611450
0.620483 0.620483 0.620514
0.629272 0.629272 0.629364
0.638153 0.638153 0.638214
0.647064 0.647064 0.647125
0.656311 0.656311 0.656403
0.665344 0.665344 0.665436
0.674408 0.674408 0.674469
0.683807 0.683807 0.683868
0.692932 0.692932 0.692993
0.702087 0.702087 0.702148
0.711212 0.711212 0.711243
0.720306 0.720306 0.720398
0.729736 0.729736 0.729797
0.738831 0.738831 0.738892
0.481781 0.481781 0.481903
0.490265 0.490265 0.490356
0.498810 0.498810 0.498901
0.507355 0.507355 0.507446
0.515930 0.515930 0.515991
0.524384 0.524384 0.524506
0.533264 0.533264 0.533356
0.541779 0.541779 0.541840
0.550293 0.550293 0.550415
0.558899 0.558899 0.558960
0.567474 0.567474 0.567535
0.576080 0.576080 0.576141
0.584961 0.584961 0.585022
0.593628 0.593628 0.593719
0.602325 0.602325 0.602417
0.611084 0.611084 0.611206
0.620148 0.620148 0.620209
0.628967 0.628967 0.629028
0.637817 0.637817 0.637878
0.647064 0.647064 0.647125
0.656036 0.656036 0.656097
0.665039 0.665039 0.665100
0.674103 0.674103 0.674194
0.683502 0.683502 0.683563
0.692657 0.692657 0.692719
0.701752 0.701752 0.701813
0.710907 0.710907 0.710938
0.720001 0.720001 0.720062
0.729431 0.729431 0.729492
0.738525 0.738525 0.738586
0.747589 0.747589 0.747620
0.756592 0.756592 0.756653
0.498505 0.498505 0.498627
0.507080 0.507080 0.507172
0.515656 0.515656 0.515717
0.524109 0.524109 0.524231
0.532959 0.532959 0.533051
0.541473 0.541473 0.541565
0.550018 0.550018 0.550140
0.558594 0.558594 0.558685
0.567169 0.567169 0.567261
0.576080 0.576080 0.576141
0.584686 0.584686 0.584778
0.593353 0.593353 0.593414
0.602081 0.602081 0.602112
0.610779 0.610779 0.610840
0.619843 0.619843 0.619965
0.628662 0.628662 0.628754
0.637573 0.637573 0.637634
0.646484 0.646484 0.646545
0.655701 0.655701 0.655792
0.664734 0.664734 0.664795
0.673798 0.673798 0.673889
0.683197 0.683197 0.683258
0.692322 0.692322 0.692383
0.701477 0.701477 0.701538
0.710632 0.710632 0.710663
0.719727 0.719727 0.719788
0.729156 0.729156 0.729187
0.738251 0.738251 0.738281
0.747284 0.747284 0.747345
0.756287 0.756287 0.756348
0.765259 0.765259 0.765320
0.774170 0.774170 0.774261
0.515320 0.515320 0.515442
0.523834 0.523834 0.523956
0.532410 0.532410 0.532471
0.541199 0.541199 0.541260
0.549744 0.549744 0.549835
0.558319 0.558319 0.558411
0.566895 0.566895 0.566956
0.575500 0.575500 0.575562
0.584412 0.584412 0.584473
0.593048 0.593048 0.593170
0.601746 0.601746 0.601837
0.610535 0.610535 0.610565
0.619537 0.619537 0.619629
0.628387 0.628387 0.628448
0.637238 0.637238 0.637299
0.646484 0.646484 0.646545
0.655426 0.655426 0.655487
0.664459 0.664459 0.664520
0.673492 0.673492 0.673553
0.682922 0.682922 0.682953
0.692017 0.692017 0.692108
0.701172 0.701172 0.701233
0.710266 0.710266 0.710358
0.719391 0.719391 0.719452
0.728821 0.728821 0.728882
0.737915 0.737915 0.737976
0.747009 0.747009 0.747040
0.756012 0.756012 0.756042
0.764984 0.764984 0.765015
0.773895 0.773895 0.773926
0.782715 0.782715 0.782776
0.791504 0.791504 0.791534
0.532135 0.532135 0.532196
0.540924 0.540924 0.541016
0.549438 0.549438 0.549530
0.558014 0.558014 0.558105
0.566620 0.566620 0.566681
0.575195 0.575195 0.575256
0.584137 0.584137 0.584198
0.592773 0.592773 0.592834
0.601471 0.601471 0.601562
0.610535 0.610535 0.610565
0.619293 0.619293 0.619354
0.628082 0.628082 0.628174
0.636993 0.636993 0.637054
0.645874 0.645874 0.645935
0.655151 0.655151 0.655212
0.664154 0.664154 0.664215
0.673187 0.673187 0.673248
0.682587 0.682587 0.682648
0.691681 0.691681 0.691772
0.700836 0.700836 0.700958
0.709991 0.709991 0.710052
0.719116 0.719116 0.719147
0.728516 0.728516 0.728607
0.737610 0.737610 0.737701
0.746704 0.746704 0.746765
0.755676 0.755676 0.755768
0.764679 0.764679 0.764740
0.773560 0.773560 0.773651
0.782440 0.782440 0.782471
0.791229 0.791229 0.791260
0.799927 0.799927 0.799957
0.808563 0.808563 0.808594
0.549164 0.549164 0.549255
0.557770 0.557770 0.557800
0.566345 0.566345 0.566376
0.575195 0.575195 0.575256
0.583832 0.583832 0.583923
0.592499 0.592499 0.592529
0.601196 0.601196 0.601257
0.609894 0.609894 0.609985
0.618988 0.618988 0.619049
0.627838 0.627838 0.627899
0.636658 0.636658 0.636749
0.645874 0.645874 0.645935
0.654846 0.654846 0.654938
0.663849 0.663849 0.663910
0.672913 0.672913 0.672974
0.682281 0.682281 0.682343
0.691406 0.691406 0.691467
0.700562 0.700562 0.700623
0.709686 0.709686 0.709747
0.718811 0.718811 0.718842
0.728210 0.728210 0.728271
0.737305 0.737305 0.737366
0.746399 0.746399 0.746460
0.755402 0.755402 0.755463
0.764404 0.764404 0.764435
0.773285 0.773285 0.773315
0.782166 0.782166 0.782196
0.790924 0.790924 0.790985
0.799622 0.799622 0.799713
0.808258 0.808258 0.808289
0.816803 0.816803 0.816833
0.825165 0.825165 0.825195
0.566040 0.566040 0.566162
0.574921 0.574921 0.575012
0.583557 0.583557 0.583618
0.592224 0.592224 0.592285
0.600891 0.600891 0.600983
0.609650 0.609650 0.609711
0.618683 0.618683 0.618774
0.627502 0.627502 0.627594
0.636353 0.636353 0.636444
0.645569 0.645569 0.645630
0.654541 0.654541 0.654633
0.663544 0.663544 0.663635
0.672607 0.672607 0.672668
0.681702 0.681702 0.681763
0.691101 0.691101 0.691162
0.700226 0.700226 0.700287
0.709381 0.709381 0.709473
0.718536 0.718536 0.718597
0.727905 0.727905 0.727966
0.737030 0.737030 0.737061
0.746094 0.746094 0.746124
0.755096 0.755096 0.755188
0.764069 0.764069 0.764130
0.773010 0.773010 0.773041
0.781830 0.781830 0.781921
0.790619 0.790619 0.790649
0.799347 0.799347 0.799408
0.807983 0.807983 0.808014
0.816498 0.816498 0.816528
0.824890 0.824890 0.824890
0.833221 0.833221 0.833252
0.841431 0.841431 0.841492
0.583282 0.583282 0.583344
0.591919 0.591919 0.591980
0.600586 0.600586 0.600647
0.609283 0.609283 0.609406
0.618408 0.618408 0.618469
0.627258 0.627258 0.627319
0.636047 0.636047 0.636169
0.645294 0.645294 0.645355
0.654236 0.654236 0.654297
0.663239 0.663239 0.663330
0.672302 0.672302 0.672363
0.681702 0.681702 0.681763
0.690796 0.690796 0.690857
0.699921 0.699921 0.699982
0.709045 0.709045 0.709137
0.718201 0.718201 0.718292
