testdata/filters/luthouse/BW03 - Astaire.CUBE
#Created by: Adobe Photoshop Export Color Lookup Plugin
#Copyright: (C) Copyright 2017 @ 2017 Joseph Angelo Todaro
TITLE "BW03 - Astaire"
#LUT size
LUT_3D_SIZE 8
#data domain
#LUT data points
DOMAIN_MIN 0.000000 0.000000 0.000000
DOMAIN_MAX 0.903226 0.903226 0.903226
0.135590 0.135590 0.135773
0.162903 0.162903 0.163086
0.192596 0.192596 0.192749
0.224548 0.224548 0.224701
0.258392 0.258392 0.258514
0.293671 0.293671 0.293793
0.329742 0.329742 0.329865
0.366302 0.366302 0.366425
0.191620 0.191620 0.191742
0.223511 0.223511 0.223663
0.257080 0.257080 0.257202
0.292297 0.292297 0.292419
0.328644 0.328644 0.328735
0.365143 0.365143 0.365265
0.401825 0.401825 0.401917
0.436035 0.436035 0.436157
0.255981 0.255981 0.256134
0.291199 0.291199 0.291321
0.327240 0.327240 0.327332
0.364014 0.364014 0.364136
0.400360 0.400360 0.400513
0.434906 0.434906 0.435059
0.468536 0.468536 0.468628
0.502502 0.502502 0.502655
0.326111 0.326111 0.326233
0.362610 0.362610 0.362762
0.399292 0.399292 0.399414
0.433777 0.433777 0.433929
0.467407 0.467407 0.467529
0.501343 0.501343 0.501465
0.535522 0.535522 0.535614
0.570038 0.570038 0.570129
0.398163 0.398163 0.398285
0.432678 0.432678 0.432800
0.466309 0.466309 0.466400
0.500214 0.500214 0.500336
0.534363 0.534363 0.534454
0.568909 0.568909 0.568970
0.603821 0.603821 0.603882
0.639343 0.639343 0.639404
0.465179 0.465179 0.465302
0.499115 0.499115 0.499207
0.533264 0.533264 0.533356
0.567749 0.567749 0.567810
0.602600 0.602600 0.602661
0.638153 0.638153 0.638214
0.674408 0.674408 0.674469
0.711212 0.711212 0.711243
0.532135 0.532135 0.532196
0.566620 0.566620 0.566681
0.601471 0.601471 0.601562
0.636993 0.636993 0.637054
0.673187 0.673187 0.673248
0.709991 0.709991 0.710052
0.746704 0.746704 0.746765
0.782440 0.782440 0.782471
0.600342 0.600342 0.600403
0.635773 0.635773 0.635834
0.671967 0.671967 0.672058
0.708740 0.708740 0.708801
0.745483 0.745483 0.745544
0.781311 0.781311 0.781342
0.815887 0.815887 0.815918
0.848999 0.848999 0.848999
0.145325 0.145325 0.145508
0.173492 0.173492 0.173645
0.203979 0.203979 0.204132
0.236755 0.236755 0.236908
0.271057 0.271057 0.271179
0.306580 0.306580 0.306763
0.343231 0.343231 0.343323
0.379791 0.379791 0.379944
0.203003 0.203003 0.203186
0.235718 0.235718 0.235840
0.269958 0.269958 0.270111
0.305511 0.305511 0.305634
0.341797 0.341797 0.341888
0.378693 0.378693 0.378845
0.414764 0.414764 0.414886
0.448364 0.448364 0.448456
0.268890 0.268890 0.269012
0.304413 0.304413 0.304535
0.340668 0.340668 0.340759
0.377289 0.377289 0.377411
0.413635 0.413635 0.413727
0.447235 0.447235 0.447357
0.480927 0.480927 0.481079
0.515045 0.515045 0.515137
0.339539 0.339539 0.339691
0.376129 0.376129 0.376282
0.412537 0.412537 0.412628
0.446106 0.446106 0.446228
0.479797 0.479797 0.479889
0.513885 0.513885 0.513977
0.548309 0.548309 0.548401
0.582947 0.582947 0.583038
0.411407 0.411407 0.411499
0.445007 0.445007 0.445099
0.478668 0.478668 0.478790
0.512756 0.512756 0.512817
0.547150 0.547150 0.547241
0.581787 0.581787 0.581848
0.616913 0.616913 0.617035
0.652710 0.652710 0.652802
0.477570 0.477570 0.477661
0.511597 0.511597 0.511688
0.546051 0.546051 0.546112
0.580658 0.580658 0.580719
0.615784 0.615784 0.615875
0.651550 0.651550 0.651611
0.688080 0.688080 0.688141
0.724915 0.724915 0.724945
0.544861 0.544861 0.544983
0.579468 0.579468 0.579590
0.614624 0.614624 0.614655
0.650330 0.650330 0.650452
0.686859 0.686859 0.686920
0.723694 0.723694 0.723755
0.759918 0.759918 0.759949
0.795288 0.795288 0.795319
0.613434 0.613434 0.613464
0.649139 0.649139 0.649231
0.685608 0.685608 0.685699
0.722473 0.722473 0.722504
0.758698 0.758698 0.758759
0.794128 0.794128 0.794159
0.828247 0.828247 0.828278
0.860657 0.860657 0.860657
0.155304 0.155304 0.155487
0.184540 0.184540 0.184692
0.215820 0.215820 0.216003
0.249084 0.249084 0.249237
0.284088 0.284088 0.284241
0.319977 0.319977 0.320068
0.356659 0.356659 0.356842
0.393372 0.393372 0.393494
0.214844 0.214844 0.215027
0.248047 0.248047 0.248199
0.282684 0.282684 0.282837
0.318848 0.318848 0.318970
0.355286 0.355286 0.355408
0.391907 0.391907 0.392059
0.427094 0.427094 0.427216
0.460663 0.460663 0.460785
0.281586 0.281586 0.281769
0.317444 0.317444 0.317566
0.354156 0.354156 0.354309
0.390839 0.390839 0.390961
0.425995 0.425995 0.426056
0.459564 0.459564 0.459656
0.493378 0.493378 0.493500
0.527557 0.527557 0.527618
0.353027 0.353027 0.353149
0.389679 0.389679 0.389801
0.424835 0.424835 0.424927
0.458435 0.458435 0.458527
0.492279 0.492279 0.492401
0.526428 0.526428 0.526489
0.560852 0.560852 0.560944
0.595673 0.595673 0.595734
0.423737 0.423737 0.423828
0.457306 0.457306 0.457428
0.491150 0.491150 0.491241
0.525299 0.525299 0.525360
0.559723 0.559723 0.559814
0.594513 0.594513 0.594574
0.629852 0.629852 0.629944
0.665955 0.665955 0.666016
0.489990 0.489990 0.490082
0.524109 0.524109 0.524231
0.558594 0.558594 0.558685
0.593353 0.593353 0.593414
0.628662 0.628662 0.628754
0.664734 0.664734 0.664795
0.701477 0.701477 0.701538
0.738251 0.738251 0.738281
0.557434 0.557434 0.557526
0.592224 0.592224 0.592285
0.627502 0.627502 0.627594
0.663544 0.663544 0.663635
0.700226 0.700226 0.700287
0.737030 0.737030 0.737061
0.773010 0.773010 0.773041
0.807983 0.807983 0.808014
0.626312 0.626312 0.626404
0.662323 0.662323 0.662384
0.699005 0.699005 0.699066
0.735840 0.735840 0.735870
0.771820 0.771820 0.771851
0.806824 0.806824 0.806854
0.840363 0.840363 0.840393
0.871765 0.871765 0.871796
0.165741 0.165741 0.165894
0.195801 0.195801 0.195953
0.227905 0.227905 0.228058
0.261871 0.261871 0.262024
0.297241 0.297241 0.297363
0.333405 0.333405 0.333527
0.369965 0.369965 0.370087
0.406616 0.406616 0.406708
0.226624 0.226624 0.226746
0.260529 0.260529 0.260681
0.295868 0.295868 0.295990
0.332214 0.332214 0.332397
0.368805 0.368805 0.368958
0.405487 0.405487 0.405609
0.439392 0.439392 0.439484
0.473022 0.473022 0.473175
0.294769 0.294769 0.294922
0.330841 0.330841 0.330933
0.367676 0.367676 0.367828
0.404053 0.404053 0.404144
0.438293 0.438293 0.438416
0.471893 0.471893 0.472046
0.505920 0.505920 0.506042
0.540344 0.540344 0.540436
0.366302 0.366302 0.366425
0.402954 0.402954 0.403046
0.437164 0.437164 0.437256
0.470795 0.470795 0.470917
0.504791 0.504791 0.504883
0.538910 0.538910 0.539032
0.573486 0.573486 0.573578
0.608429 0.608429 0.608551
0.436035 0.436035 0.436157
0.469666 0.469666 0.469757
0.503632 0.503632 0.503754
0.538055 0.538055 0.538177
0.572296 0.572296 0.572388
0.607330 0.607330 0.607391
0.642853 0.642853 0.642975
0.679230 0.679230 0.679291
0.502502 0.502502 0.502655
0.536926 0.536926 0.536987
0.571136 0.571136 0.571259
0.606110 0.606110 0.606171
0.641693 0.641693 0.641785
0.678070 0.678070 0.678131
0.714844 0.714844 0.714905
0.751495 0.751495 0.751556
0.570038 0.570038 0.570129
0.604980 0.604980 0.605042
0.640533 0.640533 0.640594
0.676849 0.676849 0.676910
0.713654 0.713654 0.713684
0.750305 0.750305 0.750366
0.785950 0.785950 0.785980
0.820404 0.820404 0.820435
0.639343 0.639343 0.639404
0.675629 0.675629 0.675690
0.712372 0.712372 0.712433
0.749115 0.749115 0.749146
0.784790 0.784790 0.784821
0.819305 0.819305 0.819336
0.852173 0.852173 0.852203
0.882843 0.882843 0.882874
0.176605 0.176605 0.176758
0.207275 0.207275 0.207428
0.240143 0.240143 0.240295
0.274536 0.274536 0.274689
0.310211 0.310211 0.310333
0.346832 0.346832 0.346924
0.383514 0.383514 0.383636
0.419220 0.419220 0.419312
0.238831 0.238831 0.239014
0.273468 0.273468 0.273590
0.309143 0.309143 0.309235
0.345428 0.345428 0.345551
0.382355 0.382355 0.382507
0.418152 0.418152 0.418243
0.451691 0.451691 0.451843
0.485443 0.485443 0.485596
0.307983 0.307983 0.308105
0.344330 0.344330 0.344452
0.380951 0.380951 0.381073
0.417023 0.417023 0.417114
0.450562 0.450562 0.450714
0.484314 0.484314 0.484436
0.518463 0.518463 0.518524
0.552887 0.552887 0.552917
0.379791 0.379791 0.379944
0.415863 0.415863 0.415985
0.449463 0.449463 0.449585
0.483185 0.483185 0.483307
0.517334 0.517334 0.517426
0.551758 0.551758 0.551819
0.586395 0.586395 0.586517
0.621613 0.621613 0.621674
0.448364 0.448364 0.448456
0.482056 0.482056 0.482178
0.516205 0.516205 0.516296
0.550568 0.550568 0.550690
0.585236 0.585236 0.585327
0.620483 0.620483 0.620514
0.656311 0.656311 0.656403
0.692932 0.692932 0.692993
0.515045 0.515045 0.515137
0.549438 0.549438 0.549530
0.584137 0.584137 0.584198
0.619293 0.619293 0.619354
0.655151 0.655151 0.655212
0.691681 0.691681 0.691772
0.728516 0.728516 0.728607
0.764679 0.764679 0.764740
0.582947 0.582947 0.583038
0.618103 0.618103 0.618164
0.653931 0.653931 0.653992
0.690491 0.690491 0.690552
0.727325 0.727325 0.727356
0.763458 0.763458 0.763550
0.798767 0.798767 0.798798
0.832672 0.832672 0.832703
0.652710 0.652710 0.652802
0.689270 0.689270 0.689331
0.726105 0.726105 0.726196
0.762299 0.762299 0.762360
0.797607 0.797607 0.797638
0.831573 0.831573 0.831604
0.863525 0.863525 0.863556
0.893402 0.893402 0.893402
0.187469 0.187469 0.187653
0.219147 0.219147 0.219330
0.252533 0.252533 0.252686
0.287628 0.287628 0.287781
0.323578 0.323578 0.323700
0.360352 0.360352 0.360474
0.396729 0.396729 0.396851
0.431580 0.431580 0.431671
0.251495 0.251495 0.251648
0.286285 0.286285 0.286407
0.322449 0.322449 0.322632
0.358948 0.358948 0.359070
0.395599 0.395599 0.395752
0.430420 0.430420 0.430542
0.464020 0.464020 0.464172
0.497925 0.497925 0.498047
0.321045 0.321045 0.321198
0.357819 0.357819 0.357941
0.394470 0.394470 0.394653
0.429291 0.429291 0.429443
0.462921 0.462921 0.463043
0.496826 0.496826 0.496918
0.530945 0.530945 0.531067
0.565430 0.565430 0.565552
0.393097 0.393097 0.393219
0.428192 0.428192 0.428314
0.461792 0.461792 0.461914
0.495667 0.495667 0.495789
0.529816 0.529816 0.529877
0.564331 0.564331 0.564362
0.599152 0.599152 0.599213
0.634613 0.634613 0.634674
0.460663 0.460663 0.460785
0.494507 0.494507 0.494629
0.528687 0.528687 0.528748
0.563141 0.563141 0.563232
0.597992 0.597992 0.598053
0.633423 0.633423 0.633484
0.669556 0.669556 0.669617
0.706329 0.706329 0.706360
0.527557 0.527557 0.527618
0.561981 0.561981 0.562103
0.596802 0.596802 0.596924
0.632263 0.632263 0.632324
0.668365 0.668365 0.668427
0.705109 0.705109 0.705139
0.741882 0.741882 0.741913
0.777710 0.777710 0.777740
0.595673 0.595673 0.595734
0.631073 0.631073 0.631104
0.667175 0.667175 0.667267
0.703888 0.703888 0.703949
0.740631 0.740631 0.740662
0.776581 0.776581 0.776611
0.811371 0.811371 0.811401
0.844696 0.844696 0.844757
0.665955 0.665955 0.666016
0.702667 0.702667 0.702728
0.739471 0.739471 0.739502
0.775391 0.775391 0.775421
0.810242 0.810242 0.810272
0.843628 0.843628 0.843658
0.874817 0.874817 0.874847
0.903656 0.903656 0.903687
0.198761 0.198761 0.198944
0.231018 0.231018 0.231171
0.265106 0.265106 0.265259
0.300537 0.300537 0.300659
0.337036 0.337036 0.337158
0.373627 0.373627 0.373749
0.410248 0.410248 0.410370
0.443848 0.443848 0.444000
0.264038 0.264038 0.264160
0.299438 0.299438 0.299591
0.335907 0.335907 0.336060
0.372467 0.372467 0.372589
0.408875 0.408875 0.408997
0.442780 0.442780 0.442841
0.476440 0.476440 0.476532
0.510498 0.510498 0.510590
0.334473 0.334473 0.334656
0.371368 0.371368 0.371490
0.407745 0.407745 0.407806
0.441650 0.441650 0.441711
0.475311 0.475311 0.475403
0.509338 0.509338 0.509460
0.543793 0.543793 0.543854
0.578064 0.578064 0.578125
0.406616 0.406616 0.406708
0.440521 0.440521 0.440613
0.474152 0.474152 0.474304
0.508209 0.508209 0.508301
0.542633 0.542633 0.542725
0.576904 0.576904 0.576996
0.611969 0.611969 0.612000
0.647980 0.647980 0.648041
0.473022 0.473022 0.473175
0.507080 0.507080 0.507172
0.541473 0.541473 0.541565
0.575775 0.575775 0.575867
0.610779 0.610779 0.610840
0.646484 0.646484 0.646545
0.682922 0.682922 0.682953
0.719727 0.719727 0.719788
0.540344 0.540344 0.540436
0.574615 0.574615 0.574738
0.609650 0.609650 0.609711
0.645294 0.645294 0.645355
0.681702 0.681702 0.681763
0.718536 0.718536 0.718597
0.755096 0.755096 0.755188
0.790619 0.790619 0.790649
0.608429 0.608429 0.608551
0.644073 0.644073 0.644135
0.680481 0.680481 0.680542
0.717285 0.717285 0.717316
0.753906 0.753906 0.753937
0.789459 0.789459 0.789551
0.823792 0.823792 0.823853
0.856445 0.856445 0.856445
0.679596 0.679596 0.679657
0.716095 0.716095 0.716156
0.752686 0.752686 0.752716
0.788300 0.788300 0.788330
0.822693 0.822693 0.822723
0.855377 0.855377 0.855438
0.885834 0.885834 0.885864
0.913818 0.913818 0.913849
0.210541 0.210541 0.210663
0.243561 0.243561 0.243713
0.278107 0.278107 0.278229
0.313843 0.313843 0.313965
0.350494 0.350494 0.350616
0.387146 0.387146 0.387268
0.422577 0.422577 0.422699
0.456207 0.456207 0.456329
0.277008 0.277008 0.277130
0.312683 0.312683 0.312866
0.349365 0.349365 0.349487
0.386017 0.386017 0.386139
0.421478 0.421478 0.421600
0.455078 0.455078 0.455200
0.488861 0.488861 0.488953
0.522980 0.522980 0.523071
0.347961 0.347961 0.348083
0.384613 0.384613 0.384735
0.420380 0.420380 0.420441
0.453918 0.453918 0.454071
0.487732 0.487732 0.487823
0.521881 0.521881 0.521973
0.556305 0.556305 0.556396
0.591064 0.591064 0.591125
0.419220 0.419220 0.419312
0.452820 0.452820 0.452942
0.486603 0.486603 0.486694
0.520721 0.520721 0.520782
0.555176 0.555176 0.555267
0.589874 0.589874 0.589966
0.625183 0.625183 0.625214
0.661133 0.661133 0.661194
0.485443 0.485443 0.485596
0.519592 0.519592 0.519653
0.554016 0.554016 0.554108
0.588715 0.588715 0.588806
0.623993 0.623993 0.624054
0.659943 0.659943 0.660004
0.696625 0.696625 0.696686
0.733368 0.733368 0.733429
0.552887 0.552887 0.552917
0.587555 0.587555 0.587646
0.622772 0.622772 0.622864
0.658722 0.658722 0.658783
0.695374 0.695374 0.695435
0.732208 0.732208 0.732269
0.768219 0.768219 0.768311
0.803375 0.803375 0.803406
0.621613 0.621613 0.621674
0.657562 0.657562 0.657623
0.694153 0.694153 0.694183
0.730957 0.730957 0.731018
0.767029 0.767029 0.767120
0.802185 0.802185 0.802277
0.835968 0.835968 0.835999
0.867676 0.867676 0.867676
0.692932 0.692932 0.692993
0.729736 0.729736 0.729797
0.765869 0.765869 0.765900
0.801056 0.801056 0.801117
0.834900 0.834900 0.834930
0.866669 0.866669 0.866669
0.896301 0.896301 0.896332
0.923401 0.923401 0.923431
