testdata/filters/luthouse/BW05 - Cagney.CUBE
#Created by: Adobe Photoshop Export Color Lookup Plugin
#Copyright: (C) Copyright 2017 @ 2017 Joseph Angelo Todaro
TITLE "BW05 - Cagney"
#LUT size
LUT_3D_SIZE 5
#data domain
#LUT data points
DOMAIN_MIN 0.000000 0.000000 0.000000
DOMAIN_MAX 0.903226 0.903226 0.903226
0.017914 0.017914 0.018127
0.065948 0.065948 0.066132
0.167206 0.167206 0.167389
0.224670 0.224670 0.224823
0.266357 0.266357 0.266510
0.079346 0.079346 0.079559
0.141754 0.141754 0.141937
0.260529 0.260529 0.260681
0.323761 0.323761 0.323914
0.369019 0.369019 0.369141
0.294189 0.294189 0.294342
0.377930 0.377930 0.378082
0.517975 0.517975 0.518066
0.585693 0.585693 0.585785
0.631531 0.631531 0.631592
0.449707 0.449707 0.449799
0.537170 0.537170 0.537292
0.675293 0.675293 0.675354
0.738617 0.738617 0.738678
0.780060 0.780060 0.780121
0.565735 0.565735 0.565826
0.651337 0.651337 0.651398
0.781128 0.781128 0.781158
0.838135 0.838135 0.838165
0.874115 0.874115 0.874146
0.039337 0.039337 0.039551
0.093384 0.093384 0.093597
0.202057 0.202057 0.202240
0.261902 0.261902 0.262054
0.305054 0.305054 0.305176
0.108063 0.108063 0.108276
0.175110 0.175110 0.175293
0.299042 0.299042 0.299164
0.364288 0.364288 0.364410
0.410004 0.410004 0.410156
0.333954 0.333954 0.334106
0.419067 0.419067 0.419189
0.559692 0.559692 0.559784
0.627075 0.627075 0.627167
0.672119 0.672119 0.672180
0.491425 0.491425 0.491547
0.578766 0.578766 0.578857
0.714539 0.714539 0.714600
0.775818 0.775818 0.775879
0.815552 0.815552 0.815582
0.607056 0.607056 0.607147
0.691467 0.691467 0.691559
0.816559 0.816559 0.816589
0.870483 0.870483 0.870514
0.904053 0.904053 0.904053
0.060516 0.060516 0.060699
0.119293 0.119293 0.119507
0.233765 0.233765 0.233917
0.295593 0.295593 0.295746
0.339813 0.339813 0.339966
0.134979 0.134979 0.135162
0.205688 0.205688 0.205872
0.333954 0.333954 0.334106
0.400085 0.400085 0.400208
0.446350 0.446350 0.446472
0.369324 0.369324 0.369446
0.455780 0.455780 0.455872
0.595947 0.595947 0.596039
0.662476 0.662476 0.662537
0.706604 0.706604 0.706665
0.528046 0.528046 0.528137
0.614838 0.614838 0.614929
0.747986 0.747986 0.748016
0.807159 0.807159 0.807190
0.845398 0.845398 0.845428
0.642792 0.642792 0.642853
0.725525 0.725525 0.725586
0.846344 0.846344 0.846375
0.897034 0.897034 0.897064
0.928253 0.928253 0.928284
0.074432 0.074432 0.074615
0.135895 0.135895 0.136108
0.253632 0.253632 0.253784
0.316559 0.316559 0.316711
0.361603 0.361603 0.361725
0.152161 0.152161 0.152344
0.224945 0.224945 0.225098
0.355377 0.355377 0.355530
0.422089 0.422089 0.422241
0.468567 0.468567 0.468658
0.391083 0.391083 0.391235
0.477997 0.477997 0.478119
0.618134 0.618134 0.618225
0.683716 0.683716 0.683777
0.727203 0.727203 0.727264
0.550568 0.550568 0.550659
0.636871 0.636871 0.636963
0.767792 0.767792 0.767853
0.825836 0.825836 0.825867
0.862640 0.862640 0.862671
0.664246 0.664246 0.664307
0.745758 0.745758 0.745819
0.863586 0.863586 0.863617
0.912323 0.912323 0.912354
0.942047 0.942047 0.942047
0.087219 0.087219 0.087402
0.150970 0.150970 0.151154
0.271088 0.271088 0.271240
0.335144 0.335144 0.335266
0.380341 0.380341 0.380463
0.167694 0.167694 0.167877
0.241882 0.241882 0.242035
0.374054 0.374054 0.374207
0.441498 0.441498 0.441620
0.488068 0.488068 0.488190
0.410004 0.410004 0.410156
0.497223 0.497223 0.497345
0.636871 0.636871 0.636963
0.701782 0.701782 0.701843
0.744934 0.744934 0.744995
0.569672 0.569672 0.569763
0.655457 0.655457 0.655518
0.784821 0.784821 0.784851
0.841278 0.841278 0.841309
0.877075 0.877075 0.877075
0.682831 0.682831 0.682892
0.762939 0.762939 0.763000
0.877960 0.877960 0.877991
0.925140 0.925140 0.925171
0.953461 0.953461 0.953461
