testdata/filters/luthouse/BW05 - Cagney.CUBE
#Created by: Adobe Photoshop Export Color Lookup Plugin
#Copyright: (C) Copyright 2017 @ 2017 Joseph Angelo Todaro
TITLE "BW05 - Cagney"
#LUT size
LUT_3D_SIZE 32
#data domain
DOMAIN_MIN 0.0 0.0 0.0
DOMAIN_MAX 1.0 1.0 1.0
#LUT data points
0.017914 0.017914 0.018127
0.017914 0.017914 0.018127
0.017914 0.017914 0.018127
0.017914 0.017914 0.018127
0.025665 0.025665 0.025879
0.037842 0.037842 0.038025
0.051422 0.051422 0.051636
0.065948 0.065948 0.066132
0.081543 0.081543 0.081726
0.097809 0.097809 0.097992
0.113983 0.113983 0.114166
0.129486 0.129486 0.129669
0.143616 0.143616 0.143799
0.156006 0.156006 0.156189
0.167206 0.167206 0.167389
0.177124 0.177124 0.177307
0.186188 0.186188 0.186340
0.194580 0.194580 0.194763
0.202576 0.202576 0.202759
0.210144 0.210144 0.210297
0.217499 0.217499 0.217651
0.224670 0.224670 0.224823
0.231628 0.231628 0.231781
0.238068 0.238068 0.238251
0.244598 0.244598 0.244751
0.250610 0.250610 0.250763
0.256104 0.256104 0.256256
0.261353 0.261353 0.261505
0.266357 0.266357 0.266510
0.271088 0.271088 0.271240
0.275818 0.275818 0.275970
0.281158 0.281158 0.281342
0.017914 0.017914 0.018127
0.017914 0.017914 0.018127
0.017914 0.017914 0.018127
0.017914 0.017914 0.018127
0.025665 0.025665 0.025879
0.037842 0.037842 0.038025
0.051422 0.051422 0.051636
0.065948 0.065948 0.066132
0.081543 0.081543 0.081726
0.097809 0.097809 0.097992
0.113983 0.113983 0.114166
0.129486 0.129486 0.129669
0.143616 0.143616 0.143799
0.156006 0.156006 0.156189
0.167206 0.167206 0.167389
0.177124 0.177124 0.177307
0.186188 0.186188 0.186340
0.194580 0.194580 0.194763
0.202576 0.202576 0.202759
0.210144 0.210144 0.210297
0.217499 0.217499 0.217651
0.224670 0.224670 0.224823
0.231628 0.231628 0.231781
0.238068 0.238068 0.238251
0.244598 0.244598 0.244751
0.250610 0.250610 0.250763
0.256104 0.256104 0.256256
0.261353 0.261353 0.261505
0.266357 0.266357 0.266510
0.271088 0.271088 0.271240
0.275818 0.275818 0.275970
0.281158 0.281158 0.281342
0.017914 0.017914 0.018127
0.017914 0.017914 0.018127
0.017914 0.017914 0.018127
0.017914 0.017914 0.018127
0.025665 0.025665 0.025879
0.037842 0.037842 0.038025
0.051422 0.051422 0.051636
0.065948 0.065948 0.066132
0.081543 0.081543 0.081726
0.097809 0.097809 0.097992
0.113983 0.113983 0.114166
0.129486 0.129486 0.129669
0.143616 0.143616 0.143799
0.156006 0.156006 0.156189
0.167206 0.167206 0.167389
0.177124 0.177124 0.177307
0.186188 0.186188 0.186340
0.194580 0.194580 0.194763
0.202576 0.202576 0.202759
0.210144 0.210144 0.210297
0.217499 0.217499 0.217651
0.224670 0.224670 0.224823
0.231628 0.231628 0.231781
0.238068 0.238068 0.238251
0.244598 0.244598 0.244751
0.250610 0.250610 0.250763
0.256104 0.256104 0.256256
0.261353 0.261353 0.261505
0.266357 0.266357 0.266510
0.271088 0.271088 0.271240
0.275818 0.275818 0.275970
0.281158 0.281158 0.281342
0.017914 0.017914 0.018127
0.017914 0.017914 0.018127
0.017914 0.017914 0.018127
0.017914 0.017914 0.018127
0.025665 0.025665 0.025879
0.037842 0.037842 0.038025
0.051422 0.051422 0.051636
0.065948 0.065948 0.066132
0.081543 0.081543 0.081726
0.097809 0.097809 0.097992
0.113983 0.113983 0.114166
0.129486 0.129486 0.129669
0.143616 0.143616 0.143799
0.156006 0.156006 0.156189
0.167206 0.167206 0.167389
0.177124 0.177124 0.177307
0.186188 0.186188 0.186340
0.194580 0.194580 0.194763
0.202576 0.202576 0.202759
0.210144 0.210144 0.210297
0.217499 0.217499 0.217651
0.224670 0.224670 0.224823
0.231628 0.231628 0.231781
0.238068 0.238068 0.238251
0.244598 0.244598 0.244751
0.250610 0.250610 0.250763
0.256104 0.256104 0.256256
0.261353 0.261353 0.261505
0.266357 0.266357 0.266510
0.271088 0.271088 0.271240
0.275818 0.275818 0.275970
0.281158 0.281158 0.281342
0.017914 0.017914 0.018127
0.017914 0.017914 0.018127
0.017914 0.017914 0.018127
0.017914 0.017914 0.018127
0.025665 0.025665 0.025879
0.037842 0.037842 0.038025
0.051422 0.051422 0.051636
0.065948 0.065948 0.066132
0.081543 0.081543 0.081726
0.097809 0.097809 0.097992
0.113983 0.113983 0.114166
0.129486 0.129486 0.129669
0.143616 0.143616 0.143799
0.156006 0.156006 0.156189
0.167206 0.167206 0.167389
0.177124 0.177124 0.177307
0.186188 0.186188 0.186340
0.194580 0.194580 0.194763
0.202576 0.202576 0.202759
0.210144 0.210144 0.210297
0.217499 0.217499 0.217651
0.224670 0.224670 0.224823
0.231628 0.231628 0.231781
0.238068 0.238068 0.238251
0.244598 0.244598 0.244751
0.250610 0.250610 0.250763
0.256104 0.256104 0.256256
0.261353 0.261353 0.261505
0.266357 0.266357 0.266510
0.271088 0.271088 0.271240
0.275818 0.275818 0.275970
0.281158 0.281158 0.281342
0.034698 0.034698 0.034912
0.034698 0.034698 0.034912
0.034698 0.034698 0.034912
0.034698 0.034698 0.034912
0.043579 0.043579 0.043762
0.057007 0.057007 0.057220
0.071686 0.071686 0.071899
0.087616 0.087616 0.087830
0.104401 0.104401 0.104584
0.121552 0.121552 0.121735
0.138702 0.138702 0.138885
0.155060 0.155060 0.155212
0.169922 0.169922 0.170105
0.183136 0.183136 0.183319
0.194855 0.194855 0.195007
0.205170 0.205170 0.205353
0.214600 0.214600 0.214752
0.223083 0.223083 0.223236
0.231354 0.231354 0.231506
0.239166 0.239166 0.239349
0.246796 0.246796 0.246948
0.254181 0.254181 0.254333
0.261353 0.261353 0.261505
0.268280 0.268280 0.268433
0.274719 0.274719 0.274872
0.280884 0.280884 0.281036
0.286530 0.286530 0.286682
0.291901 0.291901 0.292053
0.297028 0.297028 0.297180
0.301880 0.301880 0.302032
0.306763 0.306763 0.306915
0.312500 0.312500 0.312653
0.055725 0.055725 0.055939
0.055725 0.055725 0.055939
0.055725 0.055725 0.055939
0.055725 0.055725 0.055939
0.065369 0.065369 0.065582
0.080353 0.080353 0.080536
0.096313 0.096313 0.096527
0.113556 0.113556 0.113739
0.131287 0.131287 0.131500
0.149780 0.149780 0.149963
0.167969 0.167969 0.168121
0.185181 0.185181 0.185333
0.200775 0.200775 0.200958
0.214600 0.214600 0.214752
0.226532 0.226532 0.226715
0.237549 0.237549 0.237701
0.247345 0.247345 0.247498
0.256104 0.256104 0.256256
0.264679 0.264679 0.264832
0.272736 0.272736 0.272888
0.280609 0.280609 0.280762
0.288208 0.288208 0.288361
0.295593 0.295593 0.295746
0.302734 0.302734 0.302887
0.309357 0.309357 0.309479
0.315674 0.315674 0.315826
0.321472 0.321472 0.321625
0.326965 0.326965 0.327118
0.332214 0.332214 0.332367
0.337189 0.337189 0.337311
0.342163 0.342163 0.342285
0.347748 0.347748 0.347870
0.079346 0.079346 0.079559
0.079346 0.079346 0.079559
0.079346 0.079346 0.079559
0.079346 0.079346 0.079559
0.090088 0.090088 0.090302
0.106140 0.106140 0.106323
0.123566 0.123566 0.123749
0.141754 0.141754 0.141937
0.160858 0.160858 0.161041
0.180145 0.180145 0.180298
0.199219 0.199219 0.199402
0.217499 0.217499 0.217651
0.233765 0.233765 0.233917
0.247864 0.247864 0.248047
0.260529 0.260529 0.260681
0.271637 0.271637 0.271790
0.281738 0.281738 0.281891
0.291046 0.291046 0.291199
0.299591 0.299591 0.299744
0.307892 0.307892 0.308044
0.315948 0.315948 0.316101
0.323761 0.323761 0.323914
0.331329 0.331329 0.331482
0.338654 0.338654 0.338776
0.345398 0.345398 0.345520
0.352173 0.352173 0.352295
0.358063 0.358063 0.358185
0.363678 0.363678 0.363831
0.369019 0.369019 0.369141
0.374054 0.374054 0.374207
0.379150 0.379150 0.379272
0.384796 0.384796 0.384949
0.105927 0.105927 0.106110
0.105927 0.105927 0.106110
0.105927 0.105927 0.106110
0.105927 0.105927 0.106110
0.117310 0.117310 0.117493
0.134521 0.134521 0.134705
0.153137 0.153137 0.153320
0.172394 0.172394 0.172577
0.192535 0.192535 0.192719
0.213013 0.213013 0.213196
0.232971 0.232971 0.233124
0.251709 0.251709 0.251862
0.268555 0.268555 0.268707
0.283142 0.283142 0.283295
0.296173 0.296173 0.296326
0.307617 0.307617 0.307770
0.317993 0.317993 0.318146
0.327545 0.327545 0.327698
0.336609 0.336609 0.336731
0.345093 0.345093 0.345245
0.353333 0.353333 0.353485
0.361298 0.361298 0.361450
0.369019 0.369019 0.369141
0.376160 0.376160 0.376282
0.383331 0.383331 0.383453
0.389893 0.389893 0.390015
0.395905 0.395905 0.396027
0.401581 0.401581 0.401703
0.407013 0.407013 0.407135
0.412140 0.412140 0.412262
0.417267 0.417267 0.417389
0.423004 0.423004 0.423126
0.134766 0.134766 0.134949
0.134766 0.134766 0.134949
0.134766 0.134766 0.134949
0.134766 0.134766 0.134949
0.147156 0.147156 0.147339
0.165497 0.165497 0.165680
0.184906 0.184906 0.185089
0.205444 0.205444 0.205597
0.226532 0.226532 0.226715
0.247589 0.247589 0.247772
0.268280 0.268280 0.268433
0.287659 0.287659 0.287811
0.305054 0.305054 0.305176
0.320312 0.320312 0.320465
0.333679 0.333679 0.333832
0.345398 0.345398 0.345520
0.355988 0.355988 0.356140
0.365448 0.365448 0.365601
0.374664 0.374664 0.374786
0.383331 0.383331 0.383453
0.391693 0.391693 0.391815
0.399780 0.399780 0.399933
0.407623 0.407623 0.407745
0.415161 0.415161 0.415283
0.422089 0.422089 0.422241
0.428741 0.428741 0.428864
0.435120 0.435120 0.435242
0.440887 0.440887 0.440979
0.446045 0.446045 0.446167
0.451202 0.451202 0.451324
0.456360 0.456360 0.456482
0.462463 0.462463 0.462585
0.165741 0.165741 0.165924
0.165741 0.165741 0.165924
0.165741 0.165741 0.165924
0.165741 0.165741 0.165924
0.178864 0.178864 0.179047
0.198181 0.198181 0.198364
0.218567 0.218567 0.218719
0.239990 0.239990 0.240143
0.261902 0.261902 0.262054
0.283691 0.283691 0.283844
0.305054 0.305054 0.305176
0.324951 0.324951 0.325104
0.342743 0.342743 0.342896
0.358337 0.358337 0.358490
0.371979 0.371979 0.372131
0.383911 0.383911 0.384033
0.394684 0.394684 0.394836
0.404297 0.404297 0.404419
0.413635 0.413635 0.413757
0.422394 0.422394 0.422516
0.430878 0.430878 0.431000
0.439056 0.439056 0.439178
0.446960 0.446960 0.447083
0.454559 0.454559 0.454681
0.461548 0.461548 0.461670
0.468262 0.468262 0.468353
0.474365 0.474365 0.474457
0.480133 0.480133 0.480255
0.485626 0.485626 0.485748
0.490814 0.490814 0.490936
0.496002 0.496002 0.496124
0.502106 0.502106 0.502228
0.197937 0.197937 0.198090
0.197937 0.197937 0.198090
0.197937 0.197937 0.198090
0.197937 0.197937 0.198090
0.211700 0.211700 0.211884
0.231903 0.231903 0.232056
0.253082 0.253082 0.253235
0.275269 0.275269 0.275421
0.297882 0.297882 0.298035
0.320312 0.320312 0.320465
0.342163 0.342163 0.342285
0.362488 0.362488 0.362610
0.380615 0.380615 0.380768
0.396484 0.396484 0.396606
0.410339 0.410339 0.410461
0.422394 0.422394 0.422516
0.433289 0.433289 0.433411
0.442993 0.442993 0.443115
0.452423 0.452423 0.452545
0.461243 0.461243 0.461365
0.469788 0.469788 0.469910
0.477997 0.477997 0.478119
0.485931 0.485931 0.486053
0.493561 0.493561 0.493683
0.500580 0.500580 0.500702
0.507294 0.507294 0.507416
0.513702 0.513702 0.513824
0.519196 0.519196 0.519287
0.524689 0.524689 0.524780
0.529877 0.529877 0.529968
0.535034 0.535034 0.535156
0.541138 0.541138 0.541229
0.230835 0.230835 0.230988
0.230835 0.230835 0.230988
0.230835 0.230835 0.230988
0.230835 0.230835 0.230988
0.244873 0.244873 0.245026
0.265778 0.265778 0.265961
0.287933 0.287933 0.288086
0.310486 0.310486 0.310638
0.333679 0.333679 0.333832
0.356567 0.356567 0.356720
0.379150 0.379150 0.379272
0.399780 0.399780 0.399933
0.418182 0.418182 0.418304
0.433899 0.433899 0.434021
0.447876 0.447876 0.447968
0.460022 0.460022 0.460144
0.471008 0.471008 0.471100
0.481079 0.481079 0.481171
0.490204 0.490204 0.490326
0.499359 0.499359 0.499481
0.507904 0.507904 0.508026
0.516144 0.516144 0.516266
0.524078 0.524078 0.524200
0.531403 0.531403 0.531494
0.538696 0.538696 0.538788
0.545410 0.545410 0.545502
0.551483 0.551483 0.551575
0.557251 0.557251 0.557343
0.562714 0.562714 0.562805
0.567871 0.567871 0.567963
0.573029 0.573029 0.573120
0.578766 0.578766 0.578857
0.263275 0.263275 0.263458
0.263275 0.263275 0.263458
0.263275 0.263275 0.263458
0.263275 0.263275 0.263458
0.277802 0.277802 0.277954
0.299591 0.299591 0.299744
0.322052 0.322052 0.322174
0.345398 0.345398 0.345520
0.369019 0.369019 0.369141
0.392303 0.392303 0.392426
0.414856 0.414856 0.414978
0.435730 0.435730 0.435852
0.454254 0.454254 0.454376
0.470398 0.470398 0.470490
0.484100 0.484100 0.484222
0.496613 0.496613 0.496735
0.507599 0.507599 0.507690
0.517365 0.517365 0.517487
0.526825 0.526825 0.526917
0.535675 0.535675 0.535767
0.544189 0.544189 0.544281
0.552399 0.552399 0.552490
0.560303 0.560303 0.560394
0.567871 0.567871 0.567963
0.574829 0.574829 0.574921
0.581482 0.581482 0.581573
0.587524 0.587524 0.587616
0.593231 0.593231 0.593323
0.598663 0.598663 0.598755
0.603760 0.603760 0.603851
0.608856 0.608856 0.608948
0.614563 0.614563 0.614624
0.294189 0.294189 0.294342
0.294189 0.294189 0.294342
0.294189 0.294189 0.294342
0.294189 0.294189 0.294342
0.309357 0.309357 0.309479
0.331329 0.331329 0.331482
0.354218 0.354218 0.354340
0.377930 0.377930 0.378082
0.401886 0.401886 0.402008
0.425415 0.425415 0.425537
0.448151 0.448151 0.448273
0.469482 0.469482 0.469604
0.488068 0.488068 0.488190
0.503937 0.503937 0.504059
0.517975 0.517975 0.518066
0.530182 0.530182 0.530273
0.541138 0.541138 0.541229
0.551178 0.551178 0.551270
0.560303 0.560303 0.560394
0.569092 0.569092 0.569183
0.577545 0.577545 0.577637
0.585693 0.585693 0.585785
0.593536 0.593536 0.593628
0.601044 0.601044 0.601135
0.607971 0.607971 0.608032
0.614563 0.614563 0.614624
0.620819 0.620819 0.620880
0.626465 0.626465 0.626556
0.631531 0.631531 0.631592
0.636566 0.636566 0.636658
0.641907 0.641907 0.641968
0.647491 0.647491 0.647583
0.322632 0.322632 0.322754
0.322632 0.322632 0.322754
0.322632 0.322632 0.322754
0.322632 0.322632 0.322754
0.337769 0.337769 0.337921
0.360413 0.360413 0.360565
0.383606 0.383606 0.383759
0.407623 0.407623 0.407745
0.431488 0.431488 0.431610
0.455475 0.455475 0.455566
0.478302 0.478302 0.478424
0.499359 0.499359 0.499481
0.517975 0.517975 0.518066
0.534119 0.534119 0.534241
0.547852 0.547852 0.547943
0.560303 0.560303 0.560394
0.571198 0.571198 0.571289
0.580872 0.580872 0.580963
0.590240 0.590240 0.590332
0.598969 0.598969 0.599060
0.607361 0.607361 0.607452
0.615448 0.615448 0.615540
0.623199 0.623199 0.623291
0.630646 0.630646 0.630707
0.637451 0.637451 0.637543
0.643951 0.643951 0.644043
0.649872 0.649872 0.649933
0.655457 0.655457 0.655518
0.660736 0.660736 0.660797
0.665710 0.665710 0.665771
0.670654 0.670654 0.670715
0.676178 0.676178 0.676239
0.348328 0.348328 0.348480
0.348328 0.348328 0.348480
0.348328 0.348328 0.348480
0.348328 0.348328 0.348480
0.363678 0.363678 0.363831
0.386292 0.386292 0.386414
0.410004 0.410004 0.410156
0.433899 0.433899 0.434021
0.458221 0.458221 0.458313
0.482269 0.482269 0.482391
0.505157 0.505157 0.505280
0.526215 0.526215 0.526306
0.544800 0.544800 0.544891
0.560577 0.560577 0.560699
0.574524 0.574524 0.574615
0.586609 0.586609 0.586700
0.597443 0.597443 0.597534
0.607361 0.607361 0.607452
0.616333 0.616333 0.616425
0.625305 0.625305 0.625366
0.633606 0.633606 0.633698
0.641602 0.641602 0.641693
0.649292 0.649292 0.649353
0.656342 0.656342 0.656403
0.663361 0.663361 0.663422
0.669769 0.669769 0.669861
0.675598 0.675598 0.675659
0.681091 0.681091 0.681152
0.686279 0.686279 0.686371
0.691193 0.691193 0.691254
0.696075 0.696075 0.696136
0.701508 0.701508 0.701569
0.371704 0.371704 0.371826
0.371704 0.371704 0.371826
0.371704 0.371704 0.371826
0.371704 0.371704 0.371826
0.387512 0.387512 0.387634
0.410339 0.410339 0.410461
0.433899 0.433899 0.434021
0.458221 0.458221 0.458313
0.482574 0.482574 0.482697
0.506378 0.506378 0.506500
0.529266 0.529266 0.529358
0.550568 0.550568 0.550659
0.569092 0.569092 0.569183
0.584808 0.584808 0.584900
0.598663 0.598663 0.598755
0.610657 0.610657 0.610748
0.621429 0.621429 0.621490
0.631226 0.631226 0.631317
0.640106 0.640106 0.640198
0.648682 0.648682 0.648773
0.656921 0.656921 0.656982
0.664825 0.664825 0.664886
0.672394 0.672394 0.672485
0.679657 0.679657 0.679718
0.686279 0.686279 0.686371
0.692627 0.692627 0.692688
0.698639 0.698639 0.698700
0.704071 0.704071 0.704132
0.708893 0.708893 0.708954
0.713989 0.713989 0.714050
0.718781 0.718781 0.718842
0.724121 0.724121 0.724182
0.393494 0.393494 0.393616
0.393494 0.393494 0.393616
0.393494 0.393494 0.393616
0.393494 0.393494 0.393616
0.409424 0.409424 0.409546
0.432373 0.432373 0.432495
0.456085 0.456085 0.456177
0.480469 0.480469 0.480560
0.504852 0.504852 0.504974
0.528656 0.528656 0.528748
0.551483 0.551483 0.551575
0.572418 0.572418 0.572510
0.590851 0.590851 0.590912
0.606781 0.606781 0.606842
0.620514 0.620514 0.620605
0.632416 0.632416 0.632507
0.643066 0.643066 0.643158
0.652527 0.652527 0.652588
0.661591 0.661591 0.661682
0.670074 0.670074 0.670135
0.678192 0.678192 0.678284
0.686005 0.686005 0.686066
0.693481 0.693481 0.693542
0.700653 0.700653 0.700714
0.707184 0.707184 0.707245
0.713409 0.713409 0.713470
0.719360 0.719360 0.719421
0.724670 0.724670 0.724731
0.729431 0.729431 0.729492
0.734161 0.734161 0.734222
0.738892 0.738892 0.738953
0.744415 0.744415 0.744446
0.413635 0.413635 0.413757
0.413635 0.413635 0.413757
0.413635 0.413635 0.413757
0.413635 0.413635 0.413757
0.429657 0.429657 0.429779
0.452728 0.452728 0.452850
0.476471 0.476471 0.476593
0.500885 0.500885 0.501007
0.525299 0.525299 0.525391
0.549042 0.549042 0.549133
0.571808 0.571808 0.571899
0.592651 0.592651 0.592712
0.610962 0.610962 0.611053
0.626770 0.626770 0.626862
0.640411 0.640411 0.640503
0.652222 0.652222 0.652283
0.662781 0.662781 0.662842
0.672119 0.672119 0.672180
0.681091 0.681091 0.681152
0.689453 0.689453 0.689514
0.697510 0.697510 0.697571
0.705200 0.705200 0.705261
0.712585 0.712585 0.712646
0.719635 0.719635 0.719696
0.726074 0.726074 0.726135
0.732208 0.732208 0.732269
0.737762 0.737762 0.737823
0.743042 0.743042 0.743073
0.747986 0.747986 0.748016
0.752625 0.752625 0.752686
0.757263 0.757263 0.757294
0.762695 0.762695 0.762726
0.432068 0.432068 0.432190
0.432068 0.432068 0.432190
0.432068 0.432068 0.432190
0.432068 0.432068 0.432190
0.448151 0.448151 0.448273
0.471313 0.471313 0.471405
0.495392 0.495392 0.495514
0.519501 0.519501 0.519623
0.543884 0.543884 0.543976
0.567566 0.567566 0.567657
0.590240 0.590240 0.590332
0.611267 0.611267 0.611328
0.629456 0.629456 0.629547
0.644867 0.644867 0.644928
0.658386 0.658386 0.658447
0.670074 0.670074 0.670135
0.680511 0.680511 0.680603
0.690033 0.690033 0.690094
0.698639 0.698639 0.698700
0.706909 0.706909 0.706970
0.714844 0.714844 0.714905
0.722443 0.722443 0.722504
0.729980 0.729980 0.730042
0.736664 0.736664 0.736725
0.743042 0.743042 0.743073
0.749329 0.749329 0.749390
0.754822 0.754822 0.754852
0.759979 0.759979 0.760010
0.764832 0.764832 0.764893
0.769409 0.769409 0.769440
0.773956 0.773956 0.774017
0.779022 0.779022 0.779053
0.449707 0.449707 0.449799
0.449707 0.449707 0.449799
0.449707 0.449707 0.449799
0.449707 0.449707 0.449799
0.465820 0.465820 0.465942
0.488983 0.488983 0.489105
0.512787 0.512787 0.512909
0.537170 0.537170 0.537292
0.561493 0.561493 0.561584
0.585114 0.585114 0.585205
0.607666 0.607666 0.607758
0.628265 0.628265 0.628326
0.646332 0.646332 0.646393
0.661896 0.661896 0.661957
0.675293 0.675293 0.675354
0.686859 0.686859 0.686920
0.697205 0.697205 0.697266
0.706329 0.706329 0.706390
0.715118 0.715118 0.715179
0.723297 0.723297 0.723358
0.731110 0.731110 0.731171
0.738617 0.738617 0.738678
0.745758 0.745758 0.745819
0.752625 0.752625 0.752686
0.758881 0.758881 0.758942
0.764832 0.764832 0.764893
0.770203 0.770203 0.770264
0.775299 0.775299 0.775330
0.780060 0.780060 0.780121
0.784546 0.784546 0.784607
0.789032 0.789032 0.789093
0.794250 0.794250 0.794312
0.466431 0.466431 0.466553
0.466431 0.466431 0.466553
0.466431 0.466431 0.466553
0.466431 0.466431 0.466553
0.482269 0.482269 0.482391
0.505768 0.505768 0.505890
0.529572 0.529572 0.529663
0.553894 0.553894 0.554016
0.578156 0.578156 0.578247
0.601685 0.601685 0.601746
0.624084 0.624084 0.624176
0.644562 0.644562 0.644653
0.662476 0.662476 0.662537
0.677917 0.677917 0.677979
0.690887 0.690887 0.690948
0.702637 0.702637 0.702698
0.712860 0.712860 0.712921
0.721863 0.721863 0.721924
0.730560 0.730560 0.730621
0.738617 0.738617 0.738678
0.746338 0.746338 0.746399
0.753723 0.753723 0.753754
0.760773 0.760773 0.760834
0.767517 0.767517 0.767578
0.773682 0.773682 0.773743
0.779541 0.779541 0.779602
0.784821 0.784821 0.784851
0.789825 0.789825 0.789856
0.794525 0.794525 0.794556
0.798920 0.798920 0.798981
0.803314 0.803314 0.803345
0.808167 0.808167 0.808228
0.482574 0.482574 0.482697
0.482574 0.482574 0.482697
0.482574 0.482574 0.482697
0.482574 0.482574 0.482697
0.498749 0.498749 0.498871
0.521942 0.521942 0.522034
0.545715 0.545715 0.545807
0.569977 0.569977 0.570068
0.594147 0.594147 0.594238
0.617554 0.617554 0.617615
0.639832 0.639832 0.639893
0.660431 0.660431 0.660522
0.678192 0.678192 0.678284
0.693207 0.693207 0.693268
0.706329 0.706329 0.706390
0.717651 0.717651 0.717712
0.727753 0.727753 0.727814
0.736938 0.736938 0.737000
0.745209 0.745209 0.745270
0.753174 0.753174 0.753235
0.760773 0.760773 0.760834
0.768066 0.768066 0.768127
0.775024 0.775024 0.775085
0.781677 0.781677 0.781708
0.787720 0.787720 0.787750
0.793488 0.793488 0.793518
0.798920 0.798920 0.798981
0.803833 0.803833 0.803864
0.808441 0.808441 0.808472
0.812775 0.812775 0.812805
0.817078 0.817078 0.817108
0.821838 0.821838 0.821869
0.499054 0.499054 0.499176
0.499054 0.499054 0.499176
0.499054 0.499054 0.499176
0.499054 0.499054 0.499176
0.514923 0.514923 0.515015
0.538391 0.538391 0.538483
0.562103 0.562103 0.562195
0.586334 0.586334 0.586395
0.610077 0.610077 0.610138
0.633606 0.633606 0.633698
0.655731 0.655731 0.655823
0.675903 0.675903 0.675964
0.693481 0.693481 0.693542
0.708313 0.708313 0.708405
0.721313 0.721313 0.721375
0.732788 0.732788 0.732849
0.742767 0.742767 0.742798
0.751526 0.751526 0.751587
0.759979 0.759979 0.760010
0.767792 0.767792 0.767853
0.775299 0.775299 0.775330
0.782440 0.782440 0.782501
0.789307 0.789307 0.789337
0.795807 0.795807 0.795868
0.801758 0.801758 0.801819
0.807404 0.807404 0.807465
0.812500 0.812500 0.812561
0.817322 0.817322 0.817352
0.821838 0.821838 0.821869
0.826080 0.826080 0.826111
0.830292 0.830292 0.830322
0.834961 0.834961 0.834991
0.515533 0.515533 0.515656
0.515533 0.515533 0.515656
0.515533 0.515533 0.515656
0.515533 0.515533 0.515656
0.531403 0.531403 0.531494
0.554504 0.554504 0.554596
0.578461 0.578461 0.578552
0.602264 0.602264 0.602356
0.626190 0.626190 0.626251
0.649292 0.649292 0.649353
0.671234 0.671234 0.671295
0.691467 0.691467 0.691559
0.708893 0.708893 0.708954
0.723572 0.723572 0.723633
0.736389 0.736389 0.736450
0.747437 0.747437 0.747467
0.757263 0.757263 0.757294
0.766174 0.766174 0.766235
0.774231 0.774231 0.774261
0.781921 0.781921 0.781982
0.789307 0.789307 0.789337
0.796600 0.796600 0.796631
0.803314 0.803314 0.803345
0.809448 0.809448 0.809509
0.815277 0.815277 0.815338
0.821075 0.821075 0.821136
0.826080 0.826080 0.826111
0.830780 0.830780 0.830811
0.835205 0.835205 0.835236
0.839325 0.839325 0.839386
0.843445 0.843445 0.843475
0.848022 0.848022 0.848053
0.532013 0.532013 0.532104
0.532013 0.532013 0.532104
0.532013 0.532013 0.532104
0.532013 0.532013 0.532104
0.547852 0.547852 0.547943
0.570892 0.570892 0.570984
0.594757 0.594757 0.594849
0.618744 0.618744 0.618805
0.642181 0.642181 0.642273
0.665405 0.665405 0.665466
0.687164 0.687164 0.687225
0.706909 0.706909 0.706970
0.724121 0.724121 0.724182
0.738617 0.738617 0.738678
0.751251 0.751251 0.751312
0.762421 0.762421 0.762451
0.772095 0.772095 0.772125
0.780609 0.780609 0.780640
0.788757 0.788757 0.788818
0.796326 0.796326 0.796356
0.803558 0.803558 0.803619
0.810486 0.810486 0.810516
0.817078 0.817078 0.817108
0.823090 0.823090 0.823120
0.829041 0.829041 0.829071
0.834473 0.834473 0.834503
0.839325 0.839325 0.839386
0.843964 0.843964 0.843994
0.848267 0.848267 0.848297
0.852325 0.852325 0.852356
0.856323 0.856323 0.856354
0.860779 0.860779 0.860809
0.548737 0.548737 0.548828
0.548737 0.548737 0.548828
0.548737 0.548737 0.548828
0.548737 0.548737 0.548828
0.564850 0.564850 0.564941
0.587830 0.587830 0.587921
0.611267 0.611267 0.611328
0.635101 0.635101 0.635162
0.658661 0.658661 0.658752
0.681396 0.681396 0.681458
0.702911 0.702911 0.702972
0.722443 0.722443 0.722504
0.739441 0.739441 0.739502
0.753998 0.753998 0.754059
0.766449 0.766449 0.766510
0.777130 0.777130 0.777191
