testdata/filters/luthouse/BW05 - Cagney.CUBE
#Created by: Adobe Photoshop Export Color Lookup Plugin
#Copyright: (C) Copyright 2017 @ 2017 Joseph Angelo Todaro
TITLE "BW05 - Cagney"
#LUT size
LUT_3D_SIZE 8
#data domain
#LUT data points
DOMAIN_MIN 0.000000 0.000000 0.000000
DOMAIN_MAX 0.903226 0.903226 0.903226
0.017914 0.017914 0.018127
0.025665 0.025665 0.025879
0.081543 0.081543 0.081726
0.143616 0.143616 0.143799
0.186188 0.186188 0.186340
0.217499 0.217499 0.217651
0.244598 0.244598 0.244751
0.266357 0.266357 0.266510
0.017914 0.017914 0.018127
0.025665 0.025665 0.025879
0.081543 0.081543 0.081726
0.143616 0.143616 0.143799
0.186188 0.186188 0.186340
0.217499 0.217499 0.217651
0.244598 0.244598 0.244751
0.266357 0.266357 0.266510
0.105927 0.105927 0.106110
0.117310 0.117310 0.117493
0.192535 0.192535 0.192719
0.268555 0.268555 0.268707
0.317993 0.317993 0.318146
0.353333 0.353333 0.353485
0.383331 0.383331 0.383453
0.407013 0.407013 0.407135
0.230835 0.230835 0.230988
0.244873 0.244873 0.245026
0.333679 0.333679 0.333832
0.418182 0.418182 0.418304
0.471008 0.471008 0.471100
0.507904 0.507904 0.508026
0.538696 0.538696 0.538788
0.562714 0.562714 0.562805
0.348328 0.348328 0.348480
0.363678 0.363678 0.363831
0.458221 0.458221 0.458313
0.544800 0.544800 0.544891
0.597443 0.597443 0.597534
0.633606 0.633606 0.633698
0.663361 0.663361 0.663422
0.686279 0.686279 0.686371
0.432068 0.432068 0.432190
0.448151 0.448151 0.448273
0.543884 0.543884 0.543976
0.629456 0.629456 0.629547
0.680511 0.680511 0.680603
0.714844 0.714844 0.714905
0.743042 0.743042 0.743073
0.764832 0.764832 0.764893
0.499054 0.499054 0.499176
0.514923 0.514923 0.515015
0.610077 0.610077 0.610138
0.693481 0.693481 0.693542
0.742767 0.742767 0.742798
0.775299 0.775299 0.775330
0.801758 0.801758 0.801819
0.821838 0.821838 0.821869
0.565735 0.565735 0.565826
0.581482 0.581482 0.581573
0.674713 0.674713 0.674774
0.754822 0.754822 0.754852
0.800995 0.800995 0.801025
0.831268 0.831268 0.831299
0.855621 0.855621 0.855652
0.874115 0.874115 0.874146
0.029572 0.029572 0.029785
0.037994 0.037994 0.038208
0.097382 0.097382 0.097565
0.162079 0.162079 0.162262
0.205963 0.205963 0.206116
0.238068 0.238068 0.238251
0.265778 0.265778 0.265961
0.287933 0.287933 0.288086
0.029572 0.029572 0.029785
0.037994 0.037994 0.038208
0.097382 0.097382 0.097565
0.162079 0.162079 0.162262
0.205963 0.205963 0.206116
0.238068 0.238068 0.238251
0.265778 0.265778 0.265961
0.287933 0.287933 0.288086
0.122894 0.122894 0.123077
0.134766 0.134766 0.134949
0.212494 0.212494 0.212677
0.290222 0.290222 0.290375
0.340393 0.340393 0.340546
0.376160 0.376160 0.376282
0.406403 0.406403 0.406555
0.430267 0.430267 0.430389
0.251434 0.251434 0.251587
0.266083 0.266083 0.266235
0.356293 0.356293 0.356415
0.441498 0.441498 0.441620
0.494476 0.494476 0.494598
0.531097 0.531097 0.531189
0.561798 0.561798 0.561890
0.586029 0.586029 0.586121
0.371094 0.371094 0.371246
0.386597 0.386597 0.386749
0.481659 0.481659 0.481781
0.568176 0.568176 0.568268
0.620514 0.620514 0.620605
0.656036 0.656036 0.656097
0.685730 0.685730 0.685791
0.708313 0.708313 0.708405
0.455475 0.455475 0.455566
0.471619 0.471619 0.471710
0.567261 0.567261 0.567352
0.652222 0.652222 0.652283
0.702637 0.702637 0.702698
0.736389 0.736389 0.736450
0.764038 0.764038 0.764069
0.785370 0.785370 0.785400
0.522552 0.522552 0.522644
0.538391 0.538391 0.538483
0.633026 0.633026 0.633087
0.715393 0.715393 0.715454
0.763489 0.763489 0.763550
0.795563 0.795563 0.795593
0.821320 0.821320 0.821381
0.840790 0.840790 0.840851
0.588715 0.588715 0.588806
0.604675 0.604675 0.604736
0.696930 0.696930 0.696991
0.775543 0.775543 0.775604
0.820587 0.820587 0.820618
0.849945 0.849945 0.849976
0.873444 0.873444 0.873474
0.891235 0.891235 0.891266
0.042694 0.042694 0.042908
0.051788 0.051788 0.051971
0.114868 0.114868 0.115051
0.181885 0.181885 0.182068
0.227325 0.227325 0.227509
0.259979 0.259979 0.260132
0.288208 0.288208 0.288361
0.310791 0.310791 0.310913
0.042694 0.042694 0.042908
0.051788 0.051788 0.051971
0.114868 0.114868 0.115051
0.181885 0.181885 0.182068
0.227325 0.227325 0.227509
0.259979 0.259979 0.260132
0.288208 0.288208 0.288361
0.310791 0.310791 0.310913
0.141266 0.141266 0.141449
0.153595 0.153595 0.153778
0.234039 0.234039 0.234192
0.313080 0.313080 0.313232
0.364288 0.364288 0.364410
0.400085 0.400085 0.400208
0.430573 0.430573 0.430695
0.454559 0.454559 0.454681
0.273865 0.273865 0.274048
0.288513 0.288513 0.288666
0.380035 0.380035 0.380157
0.465820 0.465820 0.465942
0.519196 0.519196 0.519287
0.555725 0.555725 0.555847
0.586334 0.586334 0.586395
0.610077 0.610077 0.610138
0.394989 0.394989 0.395111
0.410645 0.410645 0.410767
0.506378 0.506378 0.506500
0.592346 0.592346 0.592438
0.644562 0.644562 0.644653
0.679657 0.679657 0.679718
0.708618 0.708618 0.708679
0.730835 0.730835 0.730896
0.480133 0.480133 0.480255
0.496002 0.496002 0.496124
0.591431 0.591431 0.591522
0.675598 0.675598 0.675659
0.725250 0.725250 0.725311
0.758606 0.758606 0.758667
0.785614 0.785614 0.785675
0.806122 0.806122 0.806183
0.546936 0.546936 0.547028
0.563019 0.563019 0.563110
0.656921 0.656921 0.656982
0.737762 0.737762 0.737823
0.785095 0.785095 0.785156
0.816040 0.816040 0.816071
0.841034 0.841034 0.841064
0.859863 0.859863 0.859894
0.613037 0.613037 0.613129
0.628540 0.628540 0.628632
0.719635 0.719635 0.719696
0.796600 0.796600 0.796631
0.840576 0.840576 0.840607
0.868896 0.868896 0.868896
0.891449 0.891449 0.891479
0.908203 0.908203 0.908234
0.055389 0.055389 0.055573
0.065002 0.065002 0.065186
0.130829 0.130829 0.131042
0.200256 0.200256 0.200439
0.246796 0.246796 0.246948
0.280029 0.280029 0.280182
0.308777 0.308777 0.308929
0.331635 0.331635 0.331757
0.055389 0.055389 0.055573
0.065002 0.065002 0.065186
0.130829 0.130829 0.131042
0.200256 0.200256 0.200439
0.246796 0.246796 0.246948
0.280029 0.280029 0.280182
0.308777 0.308777 0.308929
0.331635 0.331635 0.331757
0.158417 0.158417 0.158600
0.171143 0.171143 0.171326
0.253357 0.253357 0.253510
0.333954 0.333954 0.334106
0.385712 0.385712 0.385834
0.421783 0.421783 0.421936
0.452423 0.452423 0.452545
0.476471 0.476471 0.476593
0.294189 0.294189 0.294342
0.309052 0.309052 0.309204
0.401581 0.401581 0.401703
0.487762 0.487762 0.487885
0.541138 0.541138 0.541229
0.577545 0.577545 0.577637
0.607971 0.607971 0.608032
0.631531 0.631531 0.631592
0.416656 0.416656 0.416779
0.432373 0.432373 0.432495
0.528046 0.528046 0.528137
0.613953 0.613953 0.614044
0.665710 0.665710 0.665771
0.700348 0.700348 0.700409
0.728882 0.728882 0.728943
0.750732 0.750732 0.750763
0.502106 0.502106 0.502228
0.517975 0.517975 0.518066
0.613037 0.613037 0.613129
0.696350 0.696350 0.696411
0.745209 0.745209 0.745270
0.777954 0.777954 0.778015
0.804321 0.804321 0.804382
0.824341 0.824341 0.824371
0.568787 0.568787 0.568878
0.584503 0.584503 0.584595
0.677917 0.677917 0.677979
0.757507 0.757507 0.757568
0.803833 0.803833 0.803864
0.833984 0.833984 0.834015
0.858215 0.858215 0.858246
0.876404 0.876404 0.876404
0.634491 0.634491 0.634583
0.649872 0.649872 0.649933
0.739716 0.739716 0.739777
0.815033 0.815033 0.815063
0.857513 0.857513 0.857544
0.885101 0.885101 0.885101
0.906769 0.906769 0.906799
0.922791 0.922791 0.922821
0.065002 0.065002 0.065186
0.075195 0.075195 0.075409
0.143158 0.143158 0.143341
0.213806 0.213806 0.213989
0.261078 0.261078 0.261230
0.294769 0.294769 0.294891
0.323761 0.323761 0.323914
0.346863 0.346863 0.346985
0.065002 0.065002 0.065186
0.075195 0.075195 0.075409
0.143158 0.143158 0.143341
0.213806 0.213806 0.213989
0.261078 0.261078 0.261230
0.294769 0.294769 0.294891
0.323761 0.323761 0.323914
0.346863 0.346863 0.346985
0.171143 0.171143 0.171326
0.184418 0.184418 0.184601
0.268005 0.268005 0.268158
0.349213 0.349213 0.349335
0.401306 0.401306 0.401428
0.437561 0.437561 0.437683
0.468262 0.468262 0.468353
0.492340 0.492340 0.492462
0.309052 0.309052 0.309204
0.324371 0.324371 0.324524
0.417572 0.417572 0.417694
0.503632 0.503632 0.503754
0.556946 0.556946 0.557037
0.593231 0.593231 0.593323
0.623505 0.623505 0.623566
0.646912 0.646912 0.647003
0.432373 0.432373 0.432495
0.448456 0.448456 0.448578
0.544189 0.544189 0.544281
0.629456 0.629456 0.629547
0.680817 0.680817 0.680878
0.715118 0.715118 0.715179
0.743317 0.743317 0.743347
0.764832 0.764832 0.764893
0.517975 0.517975 0.518066
0.534119 0.534119 0.534241
0.628845 0.628845 0.628937
0.711182 0.711182 0.711243
0.759705 0.759705 0.759766
0.791656 0.791656 0.791687
0.817566 0.817566 0.817596
0.837158 0.837158 0.837189
0.584503 0.584503 0.584595
0.600464 0.600464 0.600555
0.692902 0.692902 0.692993
0.771820 0.771820 0.771851
0.817078 0.817078 0.817108
0.846588 0.846588 0.846619
0.870239 0.870239 0.870270
0.888184 0.888184 0.888184
0.649872 0.649872 0.649933
0.665405 0.665405 0.665466
0.754272 0.754272 0.754333
0.828033 0.828033 0.828094
0.869781 0.869781 0.869812
0.896393 0.896393 0.896423
0.917389 0.917389 0.917419
0.932861 0.932861 0.932892
0.072662 0.072662 0.072845
0.083160 0.083160 0.083344
0.152649 0.152649 0.152832
0.224670 0.224670 0.224823
0.272186 0.272186 0.272339
0.306183 0.306183 0.306335
0.335419 0.335419 0.335571
0.358948 0.358948 0.359070
0.072662 0.072662 0.072845
0.083160 0.083160 0.083344
0.152649 0.152649 0.152832
0.224670 0.224670 0.224823
0.272186 0.272186 0.272339
0.306183 0.306183 0.306335
0.335419 0.335419 0.335571
0.358948 0.358948 0.359070
0.181122 0.181122 0.181305
0.194580 0.194580 0.194763
0.279205 0.279205 0.279358
0.361298 0.361298 0.361450
0.413330 0.413330 0.413452
0.449707 0.449707 0.449799
0.480469 0.480469 0.480560
0.504852 0.504852 0.504974
0.320587 0.320587 0.320740
0.336029 0.336029 0.336151
0.429657 0.429657 0.429779
0.516144 0.516144 0.516266
0.569092 0.569092 0.569183
0.605255 0.605255 0.605347
0.635376 0.635376 0.635468
0.658661 0.658661 0.658752
0.444519 0.444519 0.444641
0.460632 0.460632 0.460754
0.556335 0.556335 0.556427
0.641602 0.641602 0.641693
0.692352 0.692352 0.692413
0.726349 0.726349 0.726410
0.754272 0.754272 0.754333
0.775818 0.775818 0.775879
0.530182 0.530182 0.530273
0.546295 0.546295 0.546417
0.640717 0.640717 0.640808
0.722443 0.722443 0.722504
0.770477 0.770477 0.770538
0.802032 0.802032 0.802063
0.827545 0.827545 0.827576
0.846832 0.846832 0.846863
0.596558 0.596558 0.596649
0.612457 0.612457 0.612518
0.704346 0.704346 0.704407
0.782440 0.782440 0.782501
0.827057 0.827057 0.827087
0.856110 0.856110 0.856140
0.879303 0.879303 0.879333
0.896820 0.896820 0.896851
0.661591 0.661591 0.661682
0.677032 0.677032 0.677124
0.765106 0.765106 0.765137
0.837891 0.837891 0.837921
0.878845 0.878845 0.878906
0.904877 0.904877 0.904907
0.925354 0.925354 0.925354
0.940369 0.940369 0.940369
0.079742 0.079742 0.079956
0.090515 0.090515 0.090698
0.161346 0.161346 0.161530
0.234039 0.234039 0.234192
0.282288 0.282288 0.282440
0.316559 0.316559 0.316711
0.345978 0.345978 0.346100
0.369324 0.369324 0.369446
0.079742 0.079742 0.079956
0.090515 0.090515 0.090698
0.161346 0.161346 0.161530
0.234039 0.234039 0.234192
0.282288 0.282288 0.282440
0.316559 0.316559 0.316711
0.345978 0.345978 0.346100
0.369324 0.369324 0.369446
0.190247 0.190247 0.190430
0.203888 0.203888 0.204041
0.289368 0.289368 0.289520
0.371704 0.371704 0.371826
0.424225 0.424225 0.424347
0.460632 0.460632 0.460754
0.491425 0.491425 0.491547
0.515533 0.515533 0.515656
0.331055 0.331055 0.331177
0.346558 0.346558 0.346710
0.440582 0.440582 0.440704
0.526825 0.526825 0.526917
0.579987 0.579987 0.580078
0.616028 0.616028 0.616119
0.646027 0.646027 0.646118
0.669189 0.669189 0.669281
0.455475 0.455475 0.455566
0.471619 0.471619 0.471710
0.567261 0.567261 0.567352
0.651917 0.651917 0.651978
0.702637 0.702637 0.702698
0.736389 0.736389 0.736450
0.764038 0.764038 0.764069
0.785095 0.785095 0.785156
0.541138 0.541138 0.541229
0.557251 0.557251 0.557343
0.651337 0.651337 0.651398
0.732513 0.732513 0.732544
0.780060 0.780060 0.780121
0.811218 0.811218 0.811279
0.836426 0.836426 0.836456
0.855377 0.855377 0.855408
0.607361 0.607361 0.607452
0.623199 0.623199 0.623291
0.714539 0.714539 0.714600
0.791656 0.791656 0.791687
0.835938 0.835938 0.835968
0.864502 0.864502 0.864532
0.887299 0.887299 0.887329
0.904266 0.904266 0.904266
0.672119 0.672119 0.672180
0.687439 0.687439 0.687531
0.774750 0.774750 0.774811
0.846588 0.846588 0.846619
0.886871 0.886871 0.886871
0.912323 0.912323 0.912354
0.932312 0.932312 0.932312
0.946930 0.946930 0.946930
0.087219 0.087219 0.087402
0.098022 0.098022 0.098206
0.170166 0.170166 0.170349
0.244049 0.244049 0.244232
0.292480 0.292480 0.292633
0.327271 0.327271 0.327393
0.356873 0.356873 0.357025
0.380341 0.380341 0.380463
0.087219 0.087219 0.087402
0.098022 0.098022 0.098206
0.170166 0.170166 0.170349
0.244049 0.244049 0.244232
0.292480 0.292480 0.292633
0.327271 0.327271 0.327393
0.356873 0.356873 0.357025
0.380341 0.380341 0.380463
0.199738 0.199738 0.199921
0.213287 0.213287 0.213440
0.299591 0.299591 0.299744
0.382721 0.382721 0.382843
0.435425 0.435425 0.435547
0.471893 0.471893 0.472015
0.502716 0.502716 0.502838
0.526825 0.526825 0.526917
0.341858 0.341858 0.342010
0.357178 0.357178 0.357300
0.451508 0.451508 0.451630
0.538086 0.538086 0.538177
0.590851 0.590851 0.590912
0.627075 0.627075 0.627167
0.656921 0.656921 0.656982
0.679932 0.679932 0.680023
0.466736 0.466736 0.466858
0.482574 0.482574 0.482697
0.578156 0.578156 0.578247
0.662781 0.662781 0.662842
0.712860 0.712860 0.712921
0.746613 0.746613 0.746674
0.773956 0.773956 0.774017
0.794769 0.794769 0.794830
0.552399 0.552399 0.552490
0.568176 0.568176 0.568268
0.661896 0.661896 0.661957
0.742767 0.742767 0.742798
0.789551 0.789551 0.789612
0.820587 0.820587 0.820618
0.845398 0.845398 0.845428
0.864044 0.864044 0.864075
0.618439 0.618439 0.618530
0.633911 0.633911 0.633972
0.724670 0.724670 0.724731
0.801270 0.801270 0.801300
0.844910 0.844910 0.844940
0.872986 0.872986 0.873016
0.895325 0.895325 0.895355
0.911926 0.911926 0.911957
0.682831 0.682831 0.682892
0.697784 0.697784 0.697845
0.784302 0.784302 0.784332
0.855377 0.855377 0.855408
0.894684 0.894684 0.894714
0.919800 0.919800 0.919830
0.939270 0.939270 0.939270
0.953461 0.953461 0.953461
