testdata/filters/luthouse/CD06 - Flitwick.CUBE
#Created by: Adobe Photoshop Export Color Lookup Plugin
#Copyright: (C) Copyright 2017 @ 2017 Joseph Angelo Todaro
TITLE "CD06 - Flitwick"
#LUT size
LUT_3D_SIZE 5
#data domain
#LUT data points
DOMAIN_MIN 0.000000 0.000000 0.000000
DOMAIN_MAX 0.903226 0.903226 0.903226
0.019684 0.019684 0.092529
0.140839 0.036713 0.116913
0.304016 0.060638 0.137115
0.495636 0.083588 0.158020
0.686676 0.106293 0.180450
0.065338 0.171631 0.141846
0.200562 0.202393 0.166656
0.377014 0.227783 0.187897
0.573395 0.253357 0.211212
0.757050 0.279297 0.236359
0.111725 0.370941 0.185730
0.251221 0.410034 0.212250
0.436340 0.441071 0.234589
0.631042 0.471893 0.258820
0.804047 0.502258 0.285248
0.160004 0.595459 0.236115
0.306152 0.635773 0.265656
0.496552 0.666260 0.290192
0.687103 0.695496 0.316864
0.848389 0.723389 0.345947
0.212830 0.799072 0.295746
0.364990 0.833069 0.329895
0.556030 0.857727 0.358185
0.739777 0.880524 0.387421
0.889923 0.902283 0.417603
0.023895 0.024017 0.195648
0.149475 0.047852 0.222260
0.315582 0.070953 0.243835
0.508606 0.093781 0.266602
0.698944 0.116791 0.290833
0.074097 0.182709 0.248566
0.209290 0.214355 0.277496
0.389557 0.239441 0.301758
0.586273 0.265717 0.328033
0.768341 0.292267 0.356323
0.119110 0.386597 0.296692
0.261902 0.424988 0.327362
0.449463 0.455811 0.353516
0.644104 0.486725 0.381134
0.815033 0.517334 0.410278
0.168152 0.612610 0.349457
0.318604 0.651459 0.383392
0.510712 0.681366 0.411194
0.700684 0.710205 0.440094
0.859497 0.737854 0.469971
0.223114 0.814453 0.406616
0.379242 0.846954 0.444092
0.572235 0.870758 0.473816
0.754150 0.893127 0.503571
0.901611 0.914734 0.533600
0.027313 0.027527 0.329254
0.152313 0.058197 0.364502
0.323029 0.079803 0.389618
0.517639 0.102325 0.416565
0.707611 0.125305 0.444702
0.081940 0.191406 0.394318
0.212372 0.225922 0.431763
0.396729 0.250183 0.458527
0.595276 0.275970 0.487915
0.776306 0.302887 0.518372
0.126953 0.397552 0.450348
0.265442 0.439026 0.488373
0.457672 0.468140 0.515564
0.653076 0.498688 0.544495
0.822540 0.529205 0.574036
0.173248 0.625885 0.509094
0.323547 0.665039 0.546295
0.519287 0.693207 0.574158
0.709595 0.721375 0.602783
0.866882 0.748657 0.631653
0.222046 0.828339 0.569611
0.385040 0.857880 0.605072
0.581116 0.880249 0.633179
0.762756 0.902130 0.661224
0.908905 0.923370 0.689148
0.031555 0.034210 0.489349
0.149139 0.071228 0.533875
0.327942 0.089447 0.558044
0.525238 0.111298 0.585175
0.715271 0.134094 0.613068
0.089539 0.200195 0.560577
0.209839 0.240051 0.604492
0.401764 0.261688 0.628113
0.601868 0.287384 0.655701
0.782959 0.313995 0.684540
0.134888 0.408325 0.617828
0.263123 0.455658 0.660156
0.462646 0.481567 0.682983
0.660187 0.510986 0.709137
0.828857 0.541107 0.735474
0.181641 0.636627 0.674103
0.321014 0.680939 0.713867
0.524994 0.705536 0.736145
0.716339 0.732574 0.760681
0.872986 0.759155 0.784912
0.231140 0.836914 0.728851
0.383820 0.869995 0.764679
0.586853 0.889893 0.786316
0.769318 0.910980 0.808990
0.914886 0.931580 0.831360
0.038788 0.043793 0.655304
0.135834 0.088531 0.707947
0.329559 0.100281 0.724030
0.530823 0.120972 0.747498
0.721832 0.143250 0.771149
0.096954 0.209198 0.723236
0.196442 0.259552 0.771271
0.403229 0.274780 0.785431
0.606903 0.299500 0.807251
0.788452 0.325806 0.830200
0.142639 0.419189 0.773804
0.249481 0.478058 0.817596
0.464813 0.496216 0.830780
0.665344 0.524109 0.850708
0.834259 0.553589 0.871338
0.189972 0.647125 0.820770
0.308105 0.700989 0.860016
0.527039 0.718872 0.873108
0.721466 0.744110 0.891846
0.878082 0.769653 0.911072
0.240204 0.845215 0.864471
0.371277 0.885254 0.899750
0.589142 0.900177 0.913239
0.774170 0.919830 0.931061
0.919861 0.939972 0.949554
