testdata/filters/luthouse/CD06 - Flitwick.CUBE
#Created by: Adobe Photoshop Export Color Lookup Plugin
#Copyright: (C) Copyright 2017 @ 2017 Joseph Angelo Todaro
TITLE "CD06 - Flitwick"
#LUT size
LUT_3D_SIZE 32
#data domain
DOMAIN_MIN 0.0 0.0 0.0
DOMAIN_MAX 1.0 1.0 1.0
#LUT data points
0.019684 0.019684 0.092529
0.026276 0.022247 0.097382
0.038391 0.024628 0.102112
0.057312 0.026550 0.105621
0.078369 0.027893 0.108551
0.099182 0.029327 0.111084
0.119904 0.033173 0.114044
0.140839 0.036713 0.116913
0.162262 0.040253 0.119568
0.184082 0.043793 0.122528
0.206482 0.047272 0.125305
0.229645 0.050537 0.128357
0.253723 0.053864 0.131317
0.278687 0.057220 0.134064
0.304016 0.060638 0.137115
0.330231 0.063843 0.140015
0.356995 0.067200 0.143005
0.384338 0.070496 0.145996
0.411835 0.073761 0.149139
0.439606 0.076965 0.152069
0.467529 0.080292 0.154968
0.495636 0.083588 0.158020
0.523682 0.086853 0.161163
0.551666 0.089996 0.164276
0.579407 0.093262 0.167603
0.606903 0.096558 0.170624
0.633942 0.099823 0.173950
0.660553 0.102997 0.177094
0.686676 0.106293 0.180450
0.712036 0.109528 0.183807
0.736786 0.112823 0.187164
0.760620 0.115906 0.190643
0.024811 0.028656 0.102386
0.033875 0.034332 0.107452
0.050537 0.040161 0.112091
0.069763 0.044403 0.115448
0.090149 0.048065 0.118225
0.110718 0.051483 0.121368
0.131744 0.054657 0.123993
0.152832 0.058105 0.126923
0.174774 0.061249 0.130035
0.196869 0.064606 0.133026
0.220398 0.067535 0.136139
0.244080 0.070862 0.138947
0.268280 0.074310 0.141815
0.294586 0.076935 0.145203
0.320770 0.080139 0.148346
0.347321 0.083466 0.151184
0.375061 0.086243 0.154846
0.402832 0.089325 0.158112
0.430908 0.092407 0.161407
0.459167 0.095551 0.164673
0.487488 0.098663 0.167755
0.516113 0.101654 0.171448
0.544464 0.104767 0.174591
0.572784 0.107574 0.178436
0.601562 0.110260 0.182220
0.628784 0.113556 0.185425
0.655518 0.116852 0.188690
0.681671 0.119965 0.192169
0.707214 0.123322 0.195251
0.732025 0.126587 0.198792
0.756165 0.129913 0.202148
0.779144 0.133179 0.205627
0.029633 0.050385 0.111633
0.045410 0.056488 0.116699
0.061646 0.061951 0.121307
0.080688 0.066071 0.124664
0.100952 0.069550 0.127472
0.121643 0.072784 0.130280
0.142670 0.076111 0.133301
0.164001 0.079407 0.136261
0.186127 0.082550 0.139404
0.208771 0.085754 0.141998
0.232056 0.088959 0.145050
0.256256 0.092194 0.148132
0.281830 0.095062 0.151489
0.307953 0.098083 0.154572
0.334045 0.101440 0.157715
0.361450 0.104492 0.160858
0.388855 0.107605 0.164124
0.417267 0.110504 0.167572
0.445404 0.113617 0.170990
0.473724 0.116760 0.174194
0.502045 0.119843 0.177338
0.530457 0.122864 0.181061
0.558868 0.126038 0.184265
0.587219 0.129028 0.187805
0.615784 0.131561 0.191925
0.642670 0.134979 0.195099
0.670135 0.137756 0.199219
0.696442 0.140533 0.203186
0.722504 0.143494 0.206909
0.747498 0.146393 0.210907
0.771271 0.149353 0.214661
0.794647 0.152191 0.218964
0.037964 0.074127 0.118652
0.054077 0.079529 0.123627
0.069031 0.085358 0.128326
0.089020 0.088928 0.131683
0.109070 0.092438 0.134674
0.129822 0.095764 0.137604
0.151062 0.098877 0.140625
0.172577 0.102295 0.143463
0.194458 0.105804 0.146088
0.217804 0.108765 0.149414
0.241547 0.111877 0.152344
0.266144 0.115112 0.155243
0.291412 0.118408 0.158356
0.318207 0.121185 0.162018
0.344452 0.124542 0.164825
0.371643 0.127777 0.168030
0.399658 0.130859 0.171173
0.427734 0.134064 0.174377
0.456116 0.137024 0.177856
0.484436 0.140228 0.181183
0.512634 0.143463 0.184601
0.541687 0.146240 0.188324
0.569916 0.149261 0.191925
0.598083 0.152313 0.195557
0.625946 0.155396 0.199280
0.653137 0.158569 0.202911
0.679840 0.161621 0.206512
0.706329 0.164490 0.210388
0.731689 0.167633 0.214264
0.756439 0.170471 0.218414
0.780640 0.173157 0.222839
0.803436 0.176270 0.226624
0.044800 0.098175 0.124298
0.060455 0.103760 0.129486
0.075684 0.109558 0.133911
0.094482 0.113617 0.137604
0.115662 0.116699 0.140350
0.136505 0.119965 0.143158
0.157776 0.123322 0.146179
0.179443 0.126648 0.149109
0.201965 0.129883 0.151917
0.224976 0.133240 0.154938
0.248901 0.136414 0.157959
0.273590 0.139771 0.161041
0.299530 0.142883 0.164215
0.325562 0.146271 0.167145
0.352905 0.149139 0.170593
0.379700 0.152771 0.173431
0.408112 0.155640 0.177124
0.435669 0.159180 0.180115
0.463989 0.162445 0.183441
0.492798 0.165375 0.187073
0.521057 0.168732 0.190216
0.549408 0.171906 0.193939
0.577484 0.175232 0.197083
0.605469 0.178284 0.200684
0.633087 0.181488 0.204346
0.660156 0.184753 0.207886
0.686615 0.188049 0.211609
0.712738 0.191010 0.215363
0.737885 0.194183 0.219208
0.762299 0.197235 0.223328
0.785797 0.200409 0.227386
0.808746 0.203186 0.231903
0.052155 0.122040 0.130096
0.066376 0.128357 0.135101
0.082733 0.133545 0.139862
0.101746 0.137695 0.143158
0.122070 0.141113 0.146027
0.142883 0.144562 0.149200
0.164337 0.147919 0.151917
0.186127 0.151398 0.154907
0.208954 0.154724 0.157837
0.232544 0.157776 0.160919
0.256195 0.161407 0.163727
0.281616 0.164642 0.166870
0.307343 0.168060 0.169830
0.333466 0.171509 0.173096
0.360565 0.174896 0.175995
0.388153 0.178070 0.179413
0.415863 0.181519 0.182373
0.443817 0.184875 0.185944
0.472137 0.188263 0.189026
0.500702 0.191589 0.192291
0.528809 0.194885 0.195709
0.557129 0.198212 0.199249
0.585358 0.201508 0.202942
0.613159 0.204834 0.206360
0.640320 0.208313 0.209900
0.667084 0.211761 0.213409
0.693542 0.214935 0.217224
0.719116 0.218353 0.220856
0.744110 0.221619 0.224731
0.768066 0.225128 0.228271
0.791107 0.228394 0.232513
0.813660 0.231476 0.236572
0.058899 0.146576 0.135895
0.072876 0.152954 0.141083
0.089447 0.158295 0.145508
0.107635 0.162842 0.149078
0.128876 0.166016 0.151764
0.149689 0.169556 0.154999
0.171204 0.173035 0.157715
0.193237 0.176636 0.160645
0.216125 0.180023 0.163849
0.239532 0.183594 0.166565
0.263885 0.186920 0.169800
0.289062 0.190460 0.172699
0.315002 0.193970 0.175781
0.341675 0.197388 0.178802
0.368774 0.200836 0.182068
0.396149 0.204468 0.185028
0.424225 0.207855 0.188385
0.452301 0.211334 0.191467
0.480438 0.214844 0.194916
0.509033 0.218201 0.198425
0.537048 0.221771 0.201691
0.565186 0.225311 0.205078
0.593048 0.228912 0.208313
0.620667 0.232391 0.212189
0.647675 0.236053 0.215240
0.674377 0.239380 0.219208
0.700653 0.242828 0.222778
0.725983 0.246399 0.226715
0.750336 0.250092 0.230347
0.774200 0.253540 0.234222
0.797058 0.257111 0.238037
0.819153 0.260559 0.242096
0.065338 0.171631 0.141846
0.080109 0.177856 0.146851
0.095795 0.183685 0.151489
0.114838 0.188049 0.154907
0.135223 0.191772 0.157867
0.156158 0.195404 0.160919
0.177887 0.198914 0.163696
0.200562 0.202393 0.166656
0.223175 0.206085 0.169617
0.247162 0.209564 0.172821
0.271759 0.213196 0.175903
0.297180 0.216827 0.178711
0.323273 0.220551 0.181793
0.349762 0.224243 0.184784
0.377014 0.227783 0.187897
0.404785 0.231354 0.191101
0.432556 0.234985 0.194366
0.460663 0.238678 0.197540
0.488831 0.242310 0.200958
0.517090 0.246094 0.204224
0.545319 0.249695 0.207764
0.573395 0.253357 0.211212
0.601288 0.257019 0.214417
0.628448 0.260803 0.218048
0.655579 0.264496 0.221497
0.681915 0.268158 0.225311
0.707611 0.271881 0.228516
0.732849 0.275482 0.232544
0.757050 0.279297 0.236359
0.780487 0.282959 0.239990
0.803070 0.286743 0.243866
0.824677 0.290497 0.247894
0.071869 0.197418 0.147614
0.085968 0.204254 0.152557
0.102264 0.209808 0.157318
0.121124 0.214355 0.161011
0.141724 0.218201 0.163971
0.162903 0.221985 0.166931
0.185120 0.225494 0.169861
0.207092 0.229492 0.172699
0.230743 0.233032 0.175812
0.254700 0.236816 0.178741
0.279480 0.240570 0.181793
0.304962 0.244324 0.185059
0.331299 0.248047 0.188049
0.357941 0.251892 0.191040
0.385223 0.255646 0.194305
0.413116 0.259430 0.197388
0.440948 0.263245 0.200684
0.469055 0.267090 0.203949
0.497437 0.270844 0.207428
0.525604 0.274719 0.210571
0.553589 0.278625 0.213745
0.581604 0.282410 0.217224
0.609283 0.286194 0.220825
0.636597 0.290070 0.224243
0.663269 0.294006 0.227844
0.689667 0.297821 0.231445
0.715149 0.301666 0.235260
0.739838 0.305664 0.238739
0.763977 0.309448 0.242584
0.786835 0.313354 0.246429
0.809143 0.317261 0.250275
0.830811 0.321045 0.254150
0.078400 0.224030 0.153687
0.092957 0.230652 0.159058
0.108765 0.236877 0.163483
0.127258 0.241852 0.167145
0.148346 0.245605 0.170044
0.169525 0.249542 0.173340
0.192078 0.253235 0.176025
0.214569 0.257233 0.179016
0.237823 0.261230 0.181793
0.262268 0.265045 0.185059
0.287323 0.268951 0.188019
0.312988 0.272919 0.191223
0.339417 0.276825 0.194366
0.366211 0.280884 0.197296
0.393646 0.284760 0.200562
0.421539 0.288635 0.203735
0.449432 0.292694 0.207092
0.477844 0.296539 0.210266
0.505951 0.300507 0.213776
0.534058 0.304535 0.217041
0.562012 0.308563 0.220154
0.589844 0.312500 0.223572
0.617432 0.316406 0.227264
0.644348 0.320526 0.230560
0.671021 0.324432 0.234344
0.697113 0.328400 0.237946
0.722382 0.332458 0.241547
0.746918 0.336487 0.245209
0.770660 0.340454 0.249084
0.793396 0.344513 0.253082
0.815430 0.348511 0.256897
0.836578 0.352509 0.260895
0.084595 0.251709 0.159943
0.099945 0.258331 0.164764
0.115051 0.265198 0.169769
0.134674 0.269684 0.173309
0.155365 0.273956 0.176361
0.176758 0.278076 0.179260
0.198700 0.282104 0.182343
0.221527 0.286255 0.185455
0.245331 0.290222 0.188263
0.269745 0.294342 0.191406
0.294983 0.298401 0.194489
0.320984 0.302521 0.197357
0.347504 0.306549 0.200806
0.374939 0.310425 0.203979
0.402191 0.314606 0.207275
0.429901 0.318756 0.210205
0.458038 0.322693 0.213684
0.486176 0.326843 0.216858
0.514374 0.330994 0.219971
0.542358 0.335083 0.223572
0.570465 0.339142 0.226929
0.598175 0.343231 0.230347
0.625488 0.347321 0.233978
0.652466 0.351440 0.237396
0.678864 0.355499 0.241058
0.704559 0.359650 0.244690
0.729828 0.363678 0.248566
0.753876 0.368042 0.252045
0.777496 0.371948 0.256104
0.800049 0.375977 0.260071
0.821594 0.380188 0.263794
0.842865 0.384308 0.267578
0.091583 0.279999 0.166321
0.106567 0.287109 0.171204
0.121552 0.294220 0.176239
0.140869 0.299286 0.179535
0.161713 0.303680 0.182617
0.183685 0.307617 0.185852
0.205933 0.311829 0.188568
0.228851 0.316101 0.191986
0.252747 0.320312 0.194977
0.277435 0.324585 0.197693
0.303040 0.328766 0.200775
0.329041 0.332947 0.204041
0.356049 0.336975 0.207397
0.383270 0.341095 0.210327
0.410614 0.345398 0.213593
0.438690 0.349548 0.216858
0.466675 0.353790 0.220215
0.494751 0.357971 0.223358
0.522858 0.362183 0.226837
0.551025 0.366302 0.230347
0.578766 0.370483 0.233887
0.606415 0.374725 0.237244
0.633606 0.378906 0.240540
0.660431 0.383148 0.244141
0.686523 0.387390 0.247833
0.712158 0.391632 0.251465
0.737122 0.395721 0.255280
0.761047 0.399933 0.259277
0.784241 0.404083 0.263153
0.806519 0.408264 0.266846
0.827972 0.412476 0.270721
0.848724 0.416595 0.274780
0.098358 0.309631 0.172516
0.112488 0.317413 0.177582
0.128876 0.323883 0.182404
0.147522 0.329498 0.186188
0.168823 0.333801 0.189331
0.190460 0.338196 0.192261
0.213074 0.342499 0.195312
0.236176 0.346863 0.198486
0.260406 0.351105 0.201385
0.285217 0.355438 0.204498
0.311005 0.359741 0.207672
0.337250 0.364166 0.210541
0.364258 0.368225 0.214172
0.391449 0.372620 0.217255
0.419098 0.376862 0.220642
0.447144 0.381073 0.223755
0.475159 0.385406 0.227234
0.503265 0.389679 0.230560
0.531616 0.393890 0.233795
0.559479 0.398132 0.237427
0.587219 0.402466 0.240662
0.614746 0.406769 0.244202
0.641693 0.410980 0.247864
0.668274 0.415375 0.251465
0.694366 0.419556 0.255127
0.719757 0.423798 0.258820
0.744324 0.428070 0.262573
0.768036 0.432373 0.266296
0.790863 0.436584 0.270233
0.812805 0.440857 0.274261
0.834137 0.445099 0.278168
0.854706 0.449402 0.281830
0.105011 0.339966 0.178802
0.119812 0.347626 0.183868
0.135773 0.354675 0.188782
0.154510 0.360413 0.192596
0.175934 0.364838 0.195770
0.197662 0.369385 0.198853
0.220703 0.373566 0.201874
0.243927 0.378082 0.205048
0.268127 0.382599 0.208038
0.293396 0.386810 0.211243
0.319305 0.391205 0.214355
0.345703 0.395691 0.217773
0.372650 0.400055 0.221039
0.400024 0.404541 0.224030
0.427673 0.408813 0.227417
0.455750 0.413055 0.230713
0.483704 0.417450 0.234192
0.511871 0.421783 0.237457
0.539886 0.426147 0.241028
0.567993 0.430450 0.244507
0.595520 0.434875 0.248138
0.622986 0.439240 0.251404
0.649872 0.443451 0.255035
0.676239 0.447906 0.258514
0.702057 0.452118 0.262360
0.727112 0.456512 0.266022
0.751465 0.460693 0.269836
0.774872 0.465057 0.273590
0.797455 0.469208 0.277863
0.819244 0.473572 0.281464
0.840240 0.477966 0.285461
0.860626 0.482269 0.289612
0.111725 0.370941 0.185730
0.125977 0.379059 0.190887
0.142517 0.385925 0.195801
0.161560 0.391785 0.199280
0.183044 0.396362 0.202545
0.204987 0.400909 0.205719
0.227753 0.405518 0.208710
0.251221 0.410034 0.212250
0.275909 0.414459 0.215210
0.301117 0.419006 0.218475
0.327209 0.423462 0.221680
0.353821 0.427917 0.224701
0.381104 0.432220 0.228027
0.408447 0.436676 0.231506
0.436340 0.441071 0.234589
0.464142 0.445526 0.238159
0.492523 0.449860 0.241333
0.520752 0.454132 0.244751
0.548645 0.458618 0.248291
0.576447 0.463013 0.251770
0.603882 0.467407 0.255341
0.631042 0.471893 0.258820
0.657776 0.476166 0.262573
0.684082 0.480499 0.266266
0.709808 0.484833 0.269836
0.734528 0.489197 0.273743
0.758606 0.493561 0.277710
0.781738 0.497864 0.281403
0.804047 0.502258 0.285248
0.825562 0.506500 0.289154
0.846466 0.510803 0.293152
0.866730 0.515015 0.297333
0.118439 0.402618 0.192291
0.132843 0.410828 0.197449
0.149475 0.417847 0.202515
0.168335 0.423737 0.206268
0.189880 0.428406 0.209595
0.212250 0.433075 0.212616
0.235321 0.437500 0.216034
0.259064 0.442139 0.219177
0.283783 0.446869 0.222229
0.309448 0.451294 0.225616
0.335602 0.455780 0.228729
0.362213 0.460236 0.232178
0.389465 0.464722 0.235504
0.416962 0.469238 0.238678
0.444794 0.473602 0.242004
0.472961 0.478149 0.245331
0.500977 0.482574 0.248840
0.529022 0.487030 0.252380
0.557068 0.491302 0.255981
0.584808 0.495697 0.259338
0.612213 0.500183 0.262695
0.639343 0.504547 0.266235
0.665985 0.508820 0.270203
0.691864 0.513367 0.273712
0.717285 0.517670 0.277649
0.741943 0.521973 0.281342
0.765656 0.526337 0.285217
0.788574 0.530701 0.289062
0.810699 0.534943 0.293091
0.831879 0.539307 0.297241
0.852478 0.543549 0.301300
0.872559 0.547974 0.305115
0.125458 0.434357 0.199249
0.140015 0.442810 0.204498
0.156158 0.450043 0.209473
0.175720 0.455750 0.213409
0.196930 0.460754 0.216766
0.219147 0.465576 0.220001
0.242310 0.470337 0.223297
0.266724 0.474762 0.226532
0.291840 0.479309 0.229614
0.317413 0.483887 0.232880
0.343781 0.488434 0.236145
0.370605 0.492950 0.239319
0.397797 0.497437 0.242981
0.425568 0.501892 0.246185
0.453491 0.506317 0.249695
0.481598 0.510742 0.253082
0.509613 0.515198 0.256653
0.537476 0.519745 0.260040
0.565521 0.524078 0.263275
0.593231 0.528412 0.267212
0.620544 0.532867 0.270630
0.647369 0.537354 0.274200
0.673859 0.541626 0.278076
0.699615 0.545959 0.281677
0.724731 0.550354 0.285583
0.749176 0.554688 0.289398
0.772614 0.558990 0.293427
0.795319 0.563324 0.297302
0.817047 0.567688 0.301270
0.838196 0.571899 0.305603
0.858612 0.576202 0.309692
0.878448 0.580444 0.313599
0.132568 0.466614 0.206207
0.147064 0.474915 0.211578
0.163116 0.482483 0.216827
0.183105 0.488007 0.220612
0.204346 0.493103 0.223969
0.226654 0.498047 0.227234
0.250031 0.502747 0.230713
0.274597 0.507233 0.233948
0.299561 0.511963 0.237122
0.325317 0.516571 0.240448
0.352142 0.521057 0.243774
0.378967 0.525574 0.247314
0.406616 0.529968 0.250305
0.434174 0.534454 0.253937
0.462097 0.538910 0.257446
0.490051 0.543396 0.260803
0.518250 0.547821 0.264008
0.545990 0.552399 0.267822
0.573822 0.556793 0.271210
0.601532 0.561157 0.274872
0.628784 0.565399 0.278687
0.655426 0.569794 0.282349
0.681580 0.574158 0.286072
0.707336 0.578400 0.289886
0.732117 0.582855 0.293762
0.756256 0.587189 0.297607
0.779541 0.591431 0.301758
0.801910 0.595612 0.305664
0.823517 0.599976 0.309692
0.844330 0.604156 0.314087
0.864594 0.608398 0.318237
0.884369 0.612640 0.322205
0.139038 0.499084 0.213348
0.153778 0.507477 0.218658
0.170746 0.514587 0.223724
0.189972 0.520599 0.227814
0.211823 0.525574 0.231354
0.234314 0.530457 0.234711
0.257965 0.535126 0.238037
0.282379 0.539917 0.241364
0.307831 0.544525 0.244568
0.333893 0.548950 0.248077
0.360291 0.553619 0.251373
0.387482 0.557983 0.254883
0.414886 0.562439 0.258331
0.442596 0.567047 0.261688
0.470581 0.571503 0.265259
0.498657 0.575867 0.268616
0.526611 0.580261 0.272247
0.554504 0.584656 0.275848
0.582184 0.588989 0.279602
0.609772 0.593292 0.283264
0.636871 0.597687 0.286713
0.663635 0.602081 0.290466
0.689606 0.606354 0.294373
0.714996 0.610626 0.298187
0.739532 0.614929 0.302216
0.763275 0.619202 0.306061
0.786285 0.623352 0.310120
0.808441 0.627625 0.314056
0.829803 0.631775 0.318237
0.850433 0.635986 0.322571
0.870514 0.640137 0.326782
0.890106 0.644287 0.331238
0.145630 0.531586 0.221008
0.161072 0.539490 0.226135
0.178223 0.546570 0.231232
0.197754 0.552673 0.235016
0.219147 0.557861 0.238647
0.241760 0.562805 0.242462
0.265472 0.567657 0.245911
0.290466 0.572174 0.249268
0.316071 0.576691 0.252563
0.342072 0.581238 0.256073
0.368744 0.585785 0.259338
0.395966 0.590332 0.262604
0.423523 0.594696 0.266571
0.451202 0.599182 0.269928
0.479248 0.603577 0.273132
0.507233 0.607849 0.276947
0.535217 0.612244 0.280640
0.563019 0.616577 0.284302
0.590668 0.620911 0.287750
0.617920 0.625275 0.291809
0.644989 0.629547 0.295288
0.671356 0.633850 0.298981
0.697235 0.638031 0.302979
0.722351 0.642303 0.306824
0.746826 0.646393 0.310974
0.770264 0.650726 0.314850
0.793060 0.654816 0.319092
0.814972 0.658905 0.323120
0.836060 0.663086 0.327271
0.856506 0.667145 0.331696
0.876434 0.671356 0.335938
0.895874 0.675446 0.339966
0.152924 0.563782 0.228271
0.168732 0.571350 0.233917
0.184875 0.579102 0.238983
0.204865 0.584747 0.243164
0.226440 0.589966 0.246918
0.249878 0.594727 0.250122
0.273590 0.599457 0.253754
0.298401 0.604156 0.257263
0.324127 0.608643 0.260590
0.350342 0.613220 0.264038
0.377136 0.617798 0.267548
0.404449 0.622253 0.270874
0.431976 0.626617 0.274750
0.459656 0.631012 0.278168
0.487549 0.635284 0.281738
0.515747 0.639557 0.285309
0.543640 0.643890 0.289032
0.571411 0.648224 0.292755
0.599152 0.652466 0.296265
0.626160 0.656677 0.300354
0.653076 0.660858 0.303986
0.679352 0.664978 0.307739
0.704895 0.669159 0.311768
0.729919 0.673279 0.315704
0.753906 0.677460 0.319824
0.777283 0.681488 0.323822
0.799774 0.685516 0.328064
0.821228 0.689636 0.331970
0.842255 0.693634 0.336273
0.862640 0.697601 0.340912
0.882324 0.701660 0.345154
0.901611 0.705566 0.349701
0.160004 0.595459 0.236115
0.175720 0.603302 0.241455
0.192322 0.610657 0.247009
0.212860 0.616180 0.250610
0.234467 0.621552 0.254425
0.257324 0.626465 0.258362
0.281250 0.631165 0.262085
0.306152 0.635773 0.265656
0.332184 0.640228 0.269043
0.358459 0.644806 0.272522
0.385620 0.649048 0.276001
0.412781 0.653564 0.279449
0.440826 0.657654 0.283081
0.468506 0.661987 0.286957
0.496552 0.666260 0.290192
0.524323 0.670532 0.294159
0.552307 0.674652 0.297974
0.579956 0.679077 0.301270
0.607361 0.683197 0.305176
0.634491 0.687256 0.309052
0.660950 0.691376 0.313110
0.687103 0.695496 0.316864
0.712433 0.699554 0.320953
0.737213 0.703613 0.324982
0.761108 0.707550 0.329102
0.784088 0.711578 0.333191
0.806213 0.715515 0.337463
0.827728 0.719421 0.341583
0.848389 0.723389 0.345947
0.868439 0.727203 0.350433
0.888092 0.731049 0.354797
0.907196 0.734955 0.358948
0.167542 0.626709 0.243835
0.182556 0.634857 0.249451
0.200134 0.641693 0.254700
0.219696 0.647552 0.259094
0.242554 0.652344 0.262787
0.265686 0.657318 0.266571
0.289398 0.662140 0.270325
0.314514 0.666748 0.273987
0.340576 0.671204 0.277313
0.367157 0.675476 0.281036
0.393921 0.679901 0.284576
0.421478 0.684082 0.288422
0.449158 0.688324 0.292084
0.476898 0.692535 0.295593
0.504822 0.696655 0.299255
0.532837 0.700806 0.302979
0.560638 0.704926 0.306854
0.588409 0.708954 0.310638
0.615662 0.712982 0.314667
0.642578 0.717102 0.318512
0.668915 0.721161 0.322174
0.694977 0.725037 0.326202
0.720032 0.729004 0.330353
0.744598 0.732910 0.334320
0.768127 0.736816 0.338562
0.790863 0.740723 0.342682
0.812744 0.744568 0.346954
0.833984 0.748444 0.351135
0.854523 0.752167 0.355499
0.874390 0.755951 0.360046
0.893829 0.759705 0.364410
0.912933 0.763336 0.368774
0.174896 0.657593 0.251953
0.191071 0.664917 0.257660
0.207764 0.672241 0.262939
0.227875 0.677887 0.267456
0.249847 0.683105 0.271454
0.273529 0.687653 0.275055
0.297729 0.692291 0.278931
0.322968 0.696777 0.282684
0.348846 0.701263 0.286072
0.375641 0.705505 0.289886
0.402588 0.709808 0.293549
0.429993 0.713928 0.297394
0.457703 0.718079 0.301147
0.485474 0.722260 0.304718
0.513397 0.726257 0.308594
0.541351 0.730255 0.312225
0.569000 0.734192 0.316162
0.596710 0.738129 0.320038
0.623932 0.742065 0.323730
0.650604 0.745941 0.328033
0.676788 0.749847 0.331757
0.702606 0.753632 0.335815
0.727509 0.757477 0.340088
0.751587 0.761322 0.344116
0.774933 0.765015 0.348480
0.797455 0.768707 0.352600
0.819214 0.772430 0.356964
0.840179 0.776062 0.361145
0.860474 0.779724 0.365540
0.880249 0.783356 0.370178
0.899475 0.786987 0.374573
0.918396 0.790527 0.379181
0.182800 0.687439 0.260254
0.197937 0.695221 0.265991
0.215149 0.702179 0.271667
0.235870 0.707611 0.275757
0.258118 0.712463 0.280243
0.281067 0.717499 0.284088
0.305511 0.721985 0.288086
0.331299 0.726227 0.291748
0.357086 0.730530 0.295410
0.383728 0.734711 0.299103
0.411072 0.738708 0.302856
0.438568 0.742798 0.306366
0.466400 0.746704 0.310211
0.494141 0.750732 0.314301
0.522034 0.754639 0.318268
0.549927 0.758484 0.322052
0.577484 0.762299 0.326080
0.604889 0.766144 0.329865
0.631958 0.769958 0.333557
0.658722 0.773682 0.337585
0.684540 0.777496 0.341736
0.710114 0.781189 0.345825
0.734772 0.784821 0.350098
0.758789 0.788452 0.354248
0.781860 0.792023 0.358612
0.804016 0.795654 0.362701
0.825439 0.799164 0.367157
0.846344 0.802673 0.371399
0.866516 0.806183 0.375824
0.886047 0.809662 0.380432
0.905212 0.813110 0.384857
0.924042 0.816589 0.389069
0.190216 0.716705 0.268677
0.205505 0.724335 0.274963
0.223816 0.730621 0.279999
0.243591 0.736450 0.284851
0.266144 0.741241 0.289093
0.289062 0.746033 0.293457
0.314178 0.750244 0.296997
0.339630 0.754547 0.300934
0.365875 0.758636 0.304565
0.392548 0.762756 0.308472
0.419647 0.766846 0.312195
0.447052 0.770691 0.316162
0.474945 0.774506 0.320099
0.502655 0.778381 0.323853
0.530518 0.782135 0.327820
0.558228 0.785919 0.331635
0.585907 0.789551 0.335785
0.613129 0.793182 0.339752
0.640167 0.796692 0.343903
0.666595 0.800323 0.347931
0.692383 0.803894 0.352112
0.717590 0.807495 0.356049
0.742157 0.811005 0.359985
0.765839 0.814514 0.364197
0.788635 0.817963 0.368561
0.810638 0.821442 0.372711
0.831818 0.824829 0.377167
0.852417 0.828247 0.381409
0.872314 0.831604 0.386169
0.891846 0.834839 0.390503
0.910797 0.838165 0.394928
0.929504 0.841492 0.399597
0.197388 0.745392 0.277863
0.213440 0.752472 0.283722
0.231323 0.758698 0.289307
0.251801 0.764191 0.293823
0.273987 0.769043 0.298187
0.297363 0.773560 0.302704
0.322449 0.777618 0.306702
0.347931 0.781830 0.310638
0.374298 0.785858 0.314453
0.401031 0.789764 0.318390
0.428253 0.793640 0.322266
0.455750 0.797394 0.325958
0.483429 0.801117 0.329712
0.511078 0.804779 0.333923
0.538940 0.808380 0.337616
0.566620 0.811859 0.341858
0.594147 0.815460 0.345581
0.621368 0.818909 0.349945
0.648224 0.822449 0.353821
0.674438 0.825958 0.357849
0.700104 0.829346 0.362213
0.725189 0.832764 0.366302
0.749390 0.836182 0.370667
0.772766 0.839539 0.374847
0.795258 0.842865 0.379181
0.816986 0.846100 0.383423
0.838135 0.849335 0.387939
0.858429 0.852692 0.392090
0.878265 0.855927 0.396576
0.897583 0.859253 0.400848
0.916473 0.862366 0.405731
0.935120 0.865631 0.410065
0.204987 0.772797 0.286652
0.221985 0.779297 0.292358
0.239227 0.785767 0.298340
0.259613 0.790955 0.303406
0.281952 0.795654 0.307861
0.306091 0.799866 0.311890
0.330750 0.803986 0.316132
0.356354 0.807983 0.320251
0.382721 0.811798 0.324066
0.409515 0.815582 0.328094
0.436798 0.819305 0.332001
0.464233 0.822906 0.336151
0.491882 0.826508 0.340088
0.519989 0.829926 0.343964
0.547546 0.833527 0.348145
0.575043 0.837006 0.351868
