testdata/filters/luthouse/CD06 - Flitwick.CUBE
#Created by: Adobe Photoshop Export Color Lookup Plugin
#Copyright: (C) Copyright 2017 @ 2017 Joseph Angelo Todaro
TITLE "CD06 - Flitwick"
#LUT size
LUT_3D_SIZE 8
#data domain
#LUT data points
DOMAIN_MIN 0.000000 0.000000 0.000000
DOMAIN_MAX 0.903226 0.903226 0.903226
0.019684 0.019684 0.092529
0.078369 0.027893 0.108551
0.162262 0.040253 0.119568
0.253723 0.053864 0.131317
0.356995 0.067200 0.143005
0.467529 0.080292 0.154968
0.579407 0.093262 0.167603
0.686676 0.106293 0.180450
0.044800 0.098175 0.124298
0.115662 0.116699 0.140350
0.201965 0.129883 0.151917
0.299530 0.142883 0.164215
0.408112 0.155640 0.177124
0.521057 0.168732 0.190216
0.633087 0.181488 0.204346
0.737885 0.194183 0.219208
0.071869 0.197418 0.147614
0.141724 0.218201 0.163971
0.230743 0.233032 0.175812
0.331299 0.248047 0.188049
0.440948 0.263245 0.200684
0.553589 0.278625 0.213745
0.663269 0.294006 0.227844
0.763977 0.309448 0.242584
0.098358 0.309631 0.172516
0.168823 0.333801 0.189331
0.260406 0.351105 0.201385
0.364258 0.368225 0.214172
0.475159 0.385406 0.227234
0.587219 0.402466 0.240662
0.694366 0.419556 0.255127
0.790863 0.436584 0.270233
0.125458 0.434357 0.199249
0.196930 0.460754 0.216766
0.291840 0.479309 0.229614
0.397797 0.497437 0.242981
0.509613 0.515198 0.256653
0.620544 0.532867 0.270630
0.724731 0.550354 0.285583
0.817047 0.567688 0.301270
0.152924 0.563782 0.228271
0.226440 0.589966 0.246918
0.324127 0.608643 0.260590
0.431976 0.626617 0.274750
0.543640 0.643890 0.289032
0.653076 0.660858 0.303986
0.753906 0.677460 0.319824
0.842255 0.693634 0.336273
0.182800 0.687439 0.260254
0.258118 0.712463 0.280243
0.357086 0.730530 0.295410
0.466400 0.746704 0.310211
0.577484 0.762299 0.326080
0.684540 0.777496 0.341736
0.781860 0.792023 0.358612
0.866516 0.806183 0.375824
0.212830 0.799072 0.295746
0.290802 0.820923 0.317322
0.391449 0.836792 0.333862
0.500763 0.850922 0.350189
0.610840 0.864349 0.366425
0.715332 0.877380 0.382874
0.808441 0.889954 0.399963
0.889923 0.902283 0.417603
0.022491 0.022491 0.145203
0.084106 0.033356 0.161407
0.168427 0.047363 0.172791
0.260803 0.060730 0.184723
0.365143 0.073914 0.196686
0.476196 0.086975 0.209015
0.588013 0.099976 0.221985
0.694672 0.113068 0.235229
0.051361 0.104675 0.177399
0.121155 0.123535 0.194489
0.208130 0.136841 0.206421
0.306915 0.149841 0.219086
0.415710 0.162994 0.232269
0.529236 0.175964 0.246185
0.641479 0.188629 0.261536
0.745544 0.201477 0.277283
0.077301 0.205017 0.201660
0.147369 0.226044 0.218964
0.237366 0.240906 0.231110
0.339325 0.255859 0.244293
0.449524 0.271271 0.257721
0.562225 0.286774 0.271637
0.671509 0.302338 0.286713
0.771271 0.317993 0.302185
0.103668 0.318665 0.227264
0.174500 0.343048 0.245148
0.267761 0.360107 0.258026
0.372437 0.377319 0.271606
0.484009 0.394379 0.285645
0.595947 0.411682 0.300140
0.702423 0.428894 0.315430
0.798126 0.445892 0.331543
0.130646 0.444763 0.254456
0.203430 0.470673 0.273315
0.299774 0.488892 0.287170
0.406616 0.507050 0.301178
0.518555 0.524994 0.315796
0.629364 0.542480 0.331299
0.732880 0.560089 0.347137
0.824219 0.577301 0.363525
0.158966 0.574097 0.283569
0.234222 0.599823 0.303406
0.332397 0.618622 0.318512
0.441223 0.636230 0.333740
0.553070 0.653503 0.349182
0.662048 0.670349 0.364899
0.762085 0.686951 0.381439
0.849548 0.703186 0.398315
0.188782 0.698151 0.315033
0.265778 0.722534 0.336487
0.366730 0.739838 0.352722
0.476257 0.756104 0.368469
0.587433 0.771545 0.384583
0.694122 0.786316 0.401184
0.790100 0.800781 0.418121
0.873840 0.814819 0.435303
0.220917 0.808411 0.348358
0.299561 0.830017 0.371521
0.401642 0.845367 0.389160
0.511230 0.859375 0.405762
0.621277 0.872559 0.422485
0.725037 0.885498 0.439209
0.816864 0.898010 0.456482
0.897614 0.910187 0.473846
0.024353 0.024536 0.213074
0.085449 0.039825 0.231995
0.171967 0.052521 0.243652
0.265533 0.065643 0.256165
0.370453 0.078705 0.269196
0.481873 0.091766 0.282654
0.593658 0.104858 0.296478
0.700195 0.117981 0.310883
0.055939 0.109222 0.248169
0.122528 0.129639 0.268005
0.211945 0.142059 0.280457
0.311798 0.154907 0.294342
0.421326 0.167999 0.309021
0.534973 0.181061 0.324493
0.646942 0.194000 0.341095
0.750763 0.206818 0.358459
0.081757 0.210144 0.274353
0.149811 0.232483 0.294495
0.241425 0.246765 0.307831
0.344452 0.261810 0.322266
0.455170 0.277283 0.337128
0.568146 0.292877 0.352692
0.677124 0.308563 0.368927
0.776337 0.324463 0.385620
0.107300 0.325470 0.301971
0.176910 0.350586 0.323151
0.272217 0.366943 0.337158
0.377808 0.384125 0.351837
0.489929 0.401184 0.367432
0.601868 0.418427 0.383392
0.708069 0.435852 0.399506
0.802979 0.453094 0.416412
0.133087 0.453094 0.331940
0.206451 0.478821 0.353119
0.304291 0.496521 0.368103
0.412445 0.514313 0.383606
0.524719 0.532013 0.399353
0.635193 0.549774 0.415680
0.738586 0.567322 0.432281
0.829132 0.584595 0.449341
0.161469 0.582947 0.362732
0.237091 0.608398 0.384857
0.337708 0.626221 0.400757
0.447327 0.643555 0.416626
0.559540 0.660706 0.432953
0.668274 0.677399 0.449554
0.767883 0.693848 0.466522
0.854553 0.710114 0.483643
0.191101 0.706940 0.394958
0.269958 0.730377 0.417816
0.372040 0.747223 0.434906
0.482727 0.762909 0.451233
0.594238 0.778076 0.467896
0.700317 0.792786 0.484833
0.795837 0.807159 0.501740
0.878967 0.821075 0.518982
0.223694 0.816284 0.428223
0.304291 0.837006 0.452179
0.407715 0.851959 0.470154
0.518066 0.865662 0.487122
0.628296 0.878662 0.503967
0.731445 0.891357 0.520996
0.822723 0.903839 0.538055
0.902710 0.916046 0.555237
0.026215 0.026611 0.287781
0.085175 0.046844 0.311432
0.174561 0.058014 0.323639
0.269073 0.070862 0.337524
0.375122 0.083679 0.351929
0.487091 0.096619 0.366974
0.598999 0.109680 0.382355
0.705261 0.122864 0.398102
0.060425 0.113800 0.327728
0.122284 0.136292 0.352600
0.214539 0.147675 0.365570
0.315796 0.160248 0.380707
0.426086 0.173218 0.396698
0.540192 0.186279 0.413574
0.652069 0.199280 0.431183
0.755432 0.212250 0.449646
0.086212 0.215210 0.357269
0.148285 0.240723 0.382690
0.243805 0.253479 0.396118
0.347992 0.268280 0.411133
0.459900 0.283417 0.427277
0.573059 0.299011 0.443787
0.681885 0.314880 0.460693
0.780884 0.330627 0.478302
0.111816 0.331329 0.388031
0.177002 0.359131 0.413605
0.274872 0.374420 0.427734
0.381866 0.391052 0.443085
0.494659 0.408112 0.459290
0.606964 0.425201 0.475830
0.712952 0.442535 0.492737
0.807434 0.459808 0.509918
0.137756 0.459473 0.420197
0.205933 0.488220 0.445709
0.307220 0.504303 0.460266
0.416748 0.521606 0.476105
0.529602 0.539124 0.492401
0.640442 0.556671 0.508942
0.743286 0.573975 0.525879
0.833435 0.591309 0.542908
0.164185 0.590637 0.453491
0.237244 0.617554 0.478119
0.340851 0.633972 0.493652
0.451843 0.650665 0.509705
0.564758 0.667480 0.526184
0.673309 0.684082 0.542908
0.772614 0.700256 0.559570
0.858765 0.716370 0.576599
0.191345 0.715515 0.487793
0.270172 0.738739 0.511353
0.375763 0.754120 0.527527
0.487396 0.769287 0.543915
0.599304 0.784210 0.560516
0.705566 0.798706 0.577057
0.800507 0.812866 0.593719
0.883209 0.826538 0.610474
0.222626 0.824432 0.521362
0.305084 0.844208 0.544891
0.411530 0.858093 0.561890
0.523193 0.871124 0.578491
0.633514 0.883972 0.595062
0.736694 0.896545 0.611694
0.827271 0.908875 0.628113
0.906982 0.920959 0.644592
0.028076 0.028656 0.372589
0.080963 0.055389 0.403534
0.175446 0.064178 0.414642
0.272125 0.076233 0.428955
0.379242 0.088806 0.444244
0.491669 0.101654 0.459961
0.603851 0.114655 0.476135
0.709930 0.127716 0.492493
0.064606 0.118591 0.416748
0.118134 0.144806 0.448486
0.215149 0.154266 0.459534
0.318237 0.166138 0.474915
0.430054 0.178864 0.491486
0.544617 0.191864 0.508698
0.656525 0.204803 0.526764
0.759369 0.217987 0.545258
0.090607 0.220459 0.448975
0.144196 0.250336 0.480591
0.245117 0.260651 0.491943
0.351105 0.274841 0.506866
0.463684 0.289978 0.523041
0.577637 0.305359 0.539734
0.686432 0.321289 0.556763
0.785034 0.337006 0.574249
0.116241 0.337280 0.481415
0.172211 0.370392 0.512970
0.276245 0.382385 0.524445
0.385223 0.398376 0.539581
0.498657 0.415161 0.555725
0.611511 0.432068 0.572083
0.717438 0.449249 0.588745
0.811493 0.466553 0.605621
0.142365 0.465729 0.514709
0.202026 0.499298 0.545135
0.308716 0.512604 0.557343
0.420135 0.529114 0.572601
0.533844 0.546265 0.588593
0.644897 0.563568 0.604736
0.747620 0.580811 0.621246
0.837372 0.597900 0.637756
0.168945 0.596832 0.548340
0.233734 0.628052 0.577301
0.342590 0.641907 0.590393
0.455109 0.657959 0.605652
0.568878 0.674255 0.621552
0.677887 0.690613 0.637512
0.776703 0.706696 0.653564
0.862610 0.722565 0.669708
0.196350 0.721436 0.582245
0.267029 0.748230 0.609528
0.377716 0.761353 0.623138
0.491119 0.775787 0.638519
0.603668 0.790222 0.654205
0.709961 0.804352 0.669922
0.804565 0.818268 0.685699
0.886932 0.831940 0.701385
0.224701 0.830750 0.616211
0.302612 0.852173 0.641449
0.413666 0.864197 0.655914
0.526947 0.876678 0.671234
0.637909 0.889282 0.686584
0.740967 0.901581 0.702057
0.831299 0.913696 0.717255
0.910736 0.925690 0.732483
0.030273 0.032990 0.465454
0.072571 0.065826 0.504456
0.174347 0.071381 0.511719
0.274231 0.082001 0.526093
0.382477 0.094177 0.541229
0.495728 0.106750 0.556976
0.608307 0.119659 0.573029
0.714264 0.132721 0.589081
0.068634 0.123474 0.511383
0.110138 0.155273 0.550385
0.214569 0.161224 0.558167
0.319794 0.172577 0.572113
0.432526 0.185120 0.588043
0.548218 0.197693 0.605316
0.660217 0.210724 0.622650
0.763245 0.223602 0.640808
0.094757 0.225739 0.544525
0.136932 0.261688 0.583008
0.244202 0.268799 0.590576
0.353271 0.281952 0.604523
0.467102 0.296692 0.619873
0.581421 0.312012 0.635834
0.690521 0.327667 0.652191
0.788513 0.343628 0.668671
0.120758 0.343109 0.577637
0.164673 0.383026 0.614960
0.275543 0.391388 0.622803
0.387451 0.406097 0.636505
0.502136 0.422394 0.651581
0.615356 0.439301 0.667175
0.721466 0.456177 0.682770
0.815155 0.473267 0.698669
0.146942 0.472015 0.610382
0.193756 0.512787 0.646545
0.308350 0.521729 0.654633
0.422180 0.537079 0.668152
0.537415 0.553619 0.682922
0.648865 0.570557 0.698090
0.751556 0.587677 0.713165
0.840881 0.604675 0.728424
0.173615 0.603088 0.643036
0.224792 0.641266 0.677307
0.342316 0.650635 0.685883
0.457642 0.665497 0.699310
0.572449 0.681244 0.713776
0.681793 0.697144 0.728333
0.780426 0.713043 0.742950
0.866028 0.728851 0.757507
0.201263 0.727081 0.675385
0.258820 0.759613 0.706970
0.377625 0.769043 0.716370
0.493652 0.782440 0.729645
0.607239 0.796265 0.743713
0.713867 0.810120 0.757812
0.808258 0.823761 0.771820
0.890381 0.837158 0.785767
0.229889 0.835754 0.707123
0.294556 0.861755 0.735962
0.413818 0.870789 0.746033
0.529388 0.882477 0.759155
0.641449 0.894501 0.772614
0.744781 0.906555 0.786224
0.834900 0.918640 0.799683
0.914093 0.930450 0.812836
0.035156 0.038177 0.561554
0.069824 0.073730 0.603668
0.171661 0.079041 0.611450
0.274506 0.088470 0.623596
0.385071 0.099854 0.638306
0.499298 0.112274 0.653137
0.612213 0.125000 0.668335
0.718201 0.138000 0.683502
0.072937 0.128113 0.607605
0.106934 0.163574 0.649292
0.211304 0.169434 0.656433
0.320526 0.179291 0.668640
0.434875 0.191315 0.683136
0.550964 0.203979 0.698700
0.663574 0.216797 0.714966
0.766418 0.229797 0.731506
0.099152 0.230927 0.640045
0.133240 0.271332 0.681000
0.241608 0.277863 0.687653
0.353851 0.289703 0.699188
0.469757 0.303680 0.713104
0.584808 0.318848 0.727692
0.693970 0.334564 0.742401
0.792023 0.350250 0.757385
0.125061 0.349243 0.671783
0.159851 0.394379 0.711700
0.272858 0.401398 0.717957
0.388214 0.414520 0.729095
0.504669 0.430115 0.742371
0.618713 0.446503 0.756348
0.724915 0.463440 0.770264
0.818298 0.480438 0.784180
0.151428 0.478333 0.702911
0.187256 0.525360 0.741608
0.305450 0.531952 0.747040
0.423279 0.545532 0.758057
0.539917 0.561401 0.770782
0.651978 0.578033 0.783966
0.754913 0.594757 0.797272
0.844086 0.611603 0.810394
0.178497 0.609161 0.733154
0.215240 0.654572 0.770386
0.339600 0.660400 0.775146
0.458740 0.673462 0.785889
0.574860 0.688507 0.798065
0.684937 0.704010 0.810577
0.783783 0.719543 0.823212
0.869263 0.734924 0.835785
0.206177 0.732727 0.762482
0.245880 0.772736 0.797546
0.374725 0.777649 0.802032
0.494690 0.789398 0.812439
0.609772 0.802551 0.824219
0.716858 0.816010 0.836243
0.811432 0.829285 0.848297
0.893463 0.842438 0.860352
0.234985 0.840546 0.790680
0.280945 0.873016 0.822632
0.411224 0.878052 0.827576
0.530426 0.888580 0.838013
0.644073 0.900024 0.849396
0.747681 0.911743 0.860901
0.837952 0.923492 0.872620
0.917145 0.935181 0.884216
0.038788 0.043793 0.655304
0.073700 0.078644 0.696136
0.165192 0.088379 0.708130
0.273315 0.095520 0.717316
0.386780 0.105774 0.730804
0.502106 0.117798 0.744049
0.615723 0.130371 0.757629
0.721832 0.143250 0.771149
0.076843 0.133240 0.699860
0.110962 0.168610 0.739014
0.205292 0.179016 0.750000
0.319550 0.186584 0.758850
0.436066 0.197998 0.771210
0.553314 0.210358 0.784637
0.666382 0.223083 0.798859
0.768982 0.236298 0.813019
0.103424 0.236359 0.730713
0.137665 0.276978 0.768097
0.235138 0.288818 0.778412
0.353149 0.298004 0.786652
0.470917 0.311432 0.798065
0.587219 0.326233 0.810425
0.696960 0.341583 0.823151
0.795013 0.357239 0.835999
0.129425 0.355194 0.759644
0.164337 0.400665 0.795502
0.266357 0.413269 0.805054
0.387268 0.423767 0.812866
0.506226 0.438232 0.823883
0.621185 0.454224 0.835510
0.727844 0.470825 0.847504
0.821198 0.487640 0.859589
0.155945 0.484619 0.787598
0.191986 0.531525 0.821747
0.298950 0.544037 0.830444
0.422485 0.554688 0.838104
0.541412 0.569550 0.848511
0.654694 0.585541 0.859741
0.757751 0.602112 0.871307
0.847015 0.618591 0.882874
0.183136 0.615326 0.814178
0.220367 0.660553 0.846893
0.333008 0.671722 0.854828
0.458344 0.681915 0.862305
0.576691 0.696045 0.872406
0.687500 0.711060 0.883301
0.786560 0.726196 0.894318
0.871948 0.741364 0.905487
0.211060 0.738251 0.839783
0.249878 0.778564 0.871185
0.368927 0.787262 0.877991
0.494141 0.796875 0.885681
0.611481 0.809143 0.895660
0.719513 0.821960 0.906128
0.814026 0.834961 0.916931
0.896271 0.847870 0.927643
0.240204 0.845215 0.864471
0.280518 0.879486 0.894623
0.405487 0.886230 0.900757
0.530182 0.894897 0.908539
0.645752 0.905640 0.918213
0.750275 0.916931 0.928406
0.840485 0.928467 0.938995
0.919861 0.939972 0.949554
