testdata/filters/luthouse/CD07 - Houghton.CUBE
#Created by: Adobe Photoshop Export Color Lookup Plugin
#Copyright: (C) Copyright 2017 @ 2017 Joseph Angelo Todaro
TITLE "CD07 - Houghton"
#LUT size
LUT_3D_SIZE 5
#data domain
#LUT data points
DOMAIN_MIN 0.000000 0.000000 0.000000
DOMAIN_MAX 0.903226 0.903226 0.903226
0.019623 0.019623 0.019623
0.194061 0.019623 0.019623
0.430420 0.019623 0.019623
0.689240 0.019623 0.019623
0.916901 0.019623 0.019623
0.019623 0.248596 0.019623
0.194061 0.248596 0.019623
0.430420 0.248596 0.019623
0.689240 0.248596 0.019623
0.916901 0.248596 0.019623
0.019623 0.507660 0.019623
0.194061 0.507660 0.019623
0.430420 0.507660 0.019623
0.689240 0.507660 0.019623
0.916901 0.507660 0.019623
0.019623 0.744049 0.019623
0.194061 0.744049 0.019623
0.430420 0.744049 0.019623
0.689240 0.744049 0.019623
0.916901 0.744049 0.019623
0.019623 0.931335 0.019623
0.194061 0.931335 0.019623
0.430420 0.931335 0.019623
0.689240 0.931335 0.019623
0.916901 0.931335 0.019623
0.019623 0.019623 0.325134
0.194061 0.019623 0.325134
0.430420 0.019623 0.325134
0.689240 0.019623 0.325134
0.916901 0.019623 0.325134
0.019623 0.248596 0.325134
0.194061 0.248596 0.325134
0.430420 0.248596 0.325134
0.689240 0.248596 0.325134
0.916901 0.248596 0.325134
0.019623 0.507660 0.325134
0.194061 0.507660 0.325134
0.430420 0.507660 0.325134
0.689240 0.507660 0.325134
0.916901 0.507660 0.325134
0.019623 0.744049 0.325134
0.194061 0.744049 0.325134
0.430420 0.744049 0.325134
0.689240 0.744049 0.325134
0.916901 0.744049 0.325134
0.019623 0.931335 0.325134
0.194061 0.931335 0.325134
0.430420 0.931335 0.325134
0.689240 0.931335 0.325134
0.916901 0.931335 0.325134
0.019623 0.019623 0.558014
0.194061 0.019623 0.558014
0.430420 0.019623 0.558014
0.689240 0.019623 0.558014
0.916901 0.019623 0.558014
0.019623 0.248596 0.558014
0.194061 0.248596 0.558014
0.430420 0.248596 0.558014
0.689240 0.248596 0.558014
0.916901 0.248596 0.558014
0.019623 0.507660 0.558014
0.194061 0.507660 0.558014
0.430420 0.507660 0.558014
0.689240 0.507660 0.558014
0.916901 0.507660 0.558014
0.019623 0.744049 0.558014
0.194061 0.744049 0.558014
0.430420 0.744049 0.558014
0.689240 0.744049 0.558014
0.916901 0.744049 0.558014
0.019623 0.931335 0.558014
0.194061 0.931335 0.558014
0.430420 0.931335 0.558014
0.689240 0.931335 0.558014
0.916901 0.931335 0.558014
0.019623 0.019623 0.767181
0.194061 0.019623 0.767181
0.430420 0.019623 0.767181
0.689240 0.019623 0.767181
0.916901 0.019623 0.767181
0.019623 0.248596 0.767181
0.194061 0.248596 0.767181
0.430420 0.248596 0.767181
0.689240 0.248596 0.767181
0.916901 0.248596 0.767181
0.019623 0.507660 0.767181
0.194061 0.507660 0.767181
0.430420 0.507660 0.767181
0.689240 0.507660 0.767181
0.916901 0.507660 0.767181
0.019623 0.744049 0.767181
0.194061 0.744049 0.767181
0.430420 0.744049 0.767181
0.689240 0.744049 0.767181
0.916901 0.744049 0.767181
0.019623 0.931335 0.767181
0.194061 0.931335 0.767181
0.430420 0.931335 0.767181
0.689240 0.931335 0.767181
0.916901 0.931335 0.767181
0.019623 0.019623 0.936646
0.194061 0.019623 0.936646
0.430420 0.019623 0.936646
0.689240 0.019623 0.936646
0.916901 0.019623 0.936646
0.019623 0.248596 0.936646
0.194061 0.248596 0.936646
0.430420 0.248596 0.936646
0.689240 0.248596 0.936646
0.916901 0.248596 0.936646
0.019623 0.507660 0.936646
0.194061 0.507660 0.936646
0.430420 0.507660 0.936646
0.689240 0.507660 0.936646
0.916901 0.507660 0.936646
0.019623 0.744049 0.936646
0.194061 0.744049 0.936646
0.430420 0.744049 0.936646
0.689240 0.744049 0.936646
0.916901 0.744049 0.936646
0.019623 0.931335 0.936646
0.194061 0.931335 0.936646
0.430420 0.931335 0.936646
0.689240 0.931335 0.936646
0.916901 0.931335 0.936646
