testdata/filters/luthouse/CD07 - Houghton.CUBE
#Created by: Adobe Photoshop Export Color Lookup Plugin
#Copyright: (C) Copyright 2017 @ 2017 Joseph Angelo Todaro
TITLE "CD07 - Houghton"
#LUT size
LUT_3D_SIZE 32
#data domain
DOMAIN_MIN 0.0 0.0 0.0
DOMAIN_MAX 1.0 1.0 1.0
#LUT data points
0.019623 0.019623 0.019623
0.041504 0.019623 0.019623
0.063751 0.019623 0.019623
0.086853 0.019623 0.019623
0.111237 0.019623 0.019623
0.137207 0.019623 0.019623
0.164856 0.019623 0.019623
0.194061 0.019623 0.019623
0.224670 0.019623 0.019623
0.256561 0.019623 0.019623
0.289581 0.019623 0.019623
0.323608 0.019623 0.019623
0.358521 0.019623 0.019623
0.394165 0.019623 0.019623
0.430420 0.019623 0.019623
0.467133 0.019623 0.019623
0.504242 0.019623 0.019623
0.541504 0.019623 0.019623
0.578796 0.019623 0.019623
0.615997 0.019623 0.019623
0.652863 0.019623 0.019623
0.689240 0.019623 0.019623
0.724976 0.019623 0.019623
0.759857 0.019623 0.019623
0.793762 0.019623 0.019623
0.826508 0.019623 0.019623
0.857910 0.019623 0.019623
0.887970 0.019623 0.019623
0.916901 0.019623 0.019623
0.945068 0.019623 0.019623
0.972656 0.019623 0.019623
1.000000 0.019623 0.019623
0.019623 0.048676 0.019623
0.041504 0.048676 0.019623
0.063751 0.048676 0.019623
0.086853 0.048676 0.019623
0.111237 0.048676 0.019623
0.137207 0.048676 0.019623
0.164856 0.048676 0.019623
0.194061 0.048676 0.019623
0.224670 0.048676 0.019623
0.256561 0.048676 0.019623
0.289581 0.048676 0.019623
0.323608 0.048676 0.019623
0.358521 0.048676 0.019623
0.394165 0.048676 0.019623
0.430420 0.048676 0.019623
0.467133 0.048676 0.019623
0.504242 0.048676 0.019623
0.541504 0.048676 0.019623
0.578796 0.048676 0.019623
0.615997 0.048676 0.019623
0.652863 0.048676 0.019623
0.689240 0.048676 0.019623
0.724976 0.048676 0.019623
0.759857 0.048676 0.019623
0.793762 0.048676 0.019623
0.826508 0.048676 0.019623
0.857910 0.048676 0.019623
0.887970 0.048676 0.019623
0.916901 0.048676 0.019623
0.945068 0.048676 0.019623
0.972656 0.048676 0.019623
1.000000 0.048676 0.019623
0.019623 0.078430 0.019623
0.041504 0.078430 0.019623
0.063751 0.078430 0.019623
0.086853 0.078430 0.019623
0.111237 0.078430 0.019623
0.137207 0.078430 0.019623
0.164856 0.078430 0.019623
0.194061 0.078430 0.019623
0.224670 0.078430 0.019623
0.256561 0.078430 0.019623
0.289581 0.078430 0.019623
0.323608 0.078430 0.019623
0.358521 0.078430 0.019623
0.394165 0.078430 0.019623
0.430420 0.078430 0.019623
0.467133 0.078430 0.019623
0.504242 0.078430 0.019623
0.541504 0.078430 0.019623
0.578796 0.078430 0.019623
0.615997 0.078430 0.019623
0.652863 0.078430 0.019623
0.689240 0.078430 0.019623
0.724976 0.078430 0.019623
0.759857 0.078430 0.019623
0.793762 0.078430 0.019623
0.826508 0.078430 0.019623
0.857910 0.078430 0.019623
0.887970 0.078430 0.019623
0.916901 0.078430 0.019623
0.945068 0.078430 0.019623
0.972656 0.078430 0.019623
1.000000 0.078430 0.019623
0.019623 0.109497 0.019623
0.041504 0.109497 0.019623
0.063751 0.109497 0.019623
0.086853 0.109497 0.019623
0.111237 0.109497 0.019623
0.137207 0.109497 0.019623
0.164856 0.109497 0.019623
0.194061 0.109497 0.019623
0.224670 0.109497 0.019623
0.256561 0.109497 0.019623
0.289581 0.109497 0.019623
0.323608 0.109497 0.019623
0.358521 0.109497 0.019623
0.394165 0.109497 0.019623
0.430420 0.109497 0.019623
0.467133 0.109497 0.019623
0.504242 0.109497 0.019623
0.541504 0.109497 0.019623
0.578796 0.109497 0.019623
0.615997 0.109497 0.019623
0.652863 0.109497 0.019623
0.689240 0.109497 0.019623
0.724976 0.109497 0.019623
0.759857 0.109497 0.019623
0.793762 0.109497 0.019623
0.826508 0.109497 0.019623
0.857910 0.109497 0.019623
0.887970 0.109497 0.019623
0.916901 0.109497 0.019623
0.945068 0.109497 0.019623
0.972656 0.109497 0.019623
1.000000 0.109497 0.019623
0.019623 0.142334 0.019623
0.041504 0.142334 0.019623
0.063751 0.142334 0.019623
0.086853 0.142334 0.019623
0.111237 0.142334 0.019623
0.137207 0.142334 0.019623
0.164856 0.142334 0.019623
0.194061 0.142334 0.019623
0.224670 0.142334 0.019623
0.256561 0.142334 0.019623
0.289581 0.142334 0.019623
0.323608 0.142334 0.019623
0.358521 0.142334 0.019623
0.394165 0.142334 0.019623
0.430420 0.142334 0.019623
0.467133 0.142334 0.019623
0.504242 0.142334 0.019623
0.541504 0.142334 0.019623
0.578796 0.142334 0.019623
0.615997 0.142334 0.019623
0.652863 0.142334 0.019623
0.689240 0.142334 0.019623
0.724976 0.142334 0.019623
0.759857 0.142334 0.019623
0.793762 0.142334 0.019623
0.826508 0.142334 0.019623
0.857910 0.142334 0.019623
0.887970 0.142334 0.019623
0.916901 0.142334 0.019623
0.945068 0.142334 0.019623
0.972656 0.142334 0.019623
1.000000 0.142334 0.019623
0.019623 0.176727 0.019623
0.041504 0.176727 0.019623
0.063751 0.176727 0.019623
0.086853 0.176727 0.019623
0.111237 0.176727 0.019623
0.137207 0.176727 0.019623
0.164856 0.176727 0.019623
0.194061 0.176727 0.019623
0.224670 0.176727 0.019623
0.256561 0.176727 0.019623
0.289581 0.176727 0.019623
0.323608 0.176727 0.019623
0.358521 0.176727 0.019623
0.394165 0.176727 0.019623
0.430420 0.176727 0.019623
0.467133 0.176727 0.019623
0.504242 0.176727 0.019623
0.541504 0.176727 0.019623
0.578796 0.176727 0.019623
0.615997 0.176727 0.019623
0.652863 0.176727 0.019623
0.689240 0.176727 0.019623
0.724976 0.176727 0.019623
0.759857 0.176727 0.019623
0.793762 0.176727 0.019623
0.826508 0.176727 0.019623
0.857910 0.176727 0.019623
0.887970 0.176727 0.019623
0.916901 0.176727 0.019623
0.945068 0.176727 0.019623
0.972656 0.176727 0.019623
1.000000 0.176727 0.019623
0.019623 0.212250 0.019623
0.041504 0.212250 0.019623
0.063751 0.212250 0.019623
0.086853 0.212250 0.019623
0.111237 0.212250 0.019623
0.137207 0.212250 0.019623
0.164856 0.212250 0.019623
0.194061 0.212250 0.019623
0.224670 0.212250 0.019623
0.256561 0.212250 0.019623
0.289581 0.212250 0.019623
0.323608 0.212250 0.019623
0.358521 0.212250 0.019623
0.394165 0.212250 0.019623
0.430420 0.212250 0.019623
0.467133 0.212250 0.019623
0.504242 0.212250 0.019623
0.541504 0.212250 0.019623
0.578796 0.212250 0.019623
0.615997 0.212250 0.019623
0.652863 0.212250 0.019623
0.689240 0.212250 0.019623
0.724976 0.212250 0.019623
0.759857 0.212250 0.019623
0.793762 0.212250 0.019623
0.826508 0.212250 0.019623
0.857910 0.212250 0.019623
0.887970 0.212250 0.019623
0.916901 0.212250 0.019623
0.945068 0.212250 0.019623
0.972656 0.212250 0.019623
1.000000 0.212250 0.019623
0.019623 0.248596 0.019623
0.041504 0.248596 0.019623
0.063751 0.248596 0.019623
0.086853 0.248596 0.019623
0.111237 0.248596 0.019623
0.137207 0.248596 0.019623
0.164856 0.248596 0.019623
0.194061 0.248596 0.019623
0.224670 0.248596 0.019623
0.256561 0.248596 0.019623
0.289581 0.248596 0.019623
0.323608 0.248596 0.019623
0.358521 0.248596 0.019623
0.394165 0.248596 0.019623
0.430420 0.248596 0.019623
0.467133 0.248596 0.019623
0.504242 0.248596 0.019623
0.541504 0.248596 0.019623
0.578796 0.248596 0.019623
0.615997 0.248596 0.019623
0.652863 0.248596 0.019623
0.689240 0.248596 0.019623
0.724976 0.248596 0.019623
0.759857 0.248596 0.019623
0.793762 0.248596 0.019623
0.826508 0.248596 0.019623
0.857910 0.248596 0.019623
0.887970 0.248596 0.019623
0.916901 0.248596 0.019623
0.945068 0.248596 0.019623
0.972656 0.248596 0.019623
1.000000 0.248596 0.019623
0.019623 0.285553 0.019623
0.041504 0.285553 0.019623
0.063751 0.285553 0.019623
0.086853 0.285553 0.019623
0.111237 0.285553 0.019623
0.137207 0.285553 0.019623
0.164856 0.285553 0.019623
0.194061 0.285553 0.019623
0.224670 0.285553 0.019623
0.256561 0.285553 0.019623
0.289581 0.285553 0.019623
0.323608 0.285553 0.019623
0.358521 0.285553 0.019623
0.394165 0.285553 0.019623
0.430420 0.285553 0.019623
0.467133 0.285553 0.019623
0.504242 0.285553 0.019623
0.541504 0.285553 0.019623
0.578796 0.285553 0.019623
0.615997 0.285553 0.019623
0.652863 0.285553 0.019623
0.689240 0.285553 0.019623
0.724976 0.285553 0.019623
0.759857 0.285553 0.019623
0.793762 0.285553 0.019623
0.826508 0.285553 0.019623
0.857910 0.285553 0.019623
0.887970 0.285553 0.019623
0.916901 0.285553 0.019623
0.945068 0.285553 0.019623
0.972656 0.285553 0.019623
1.000000 0.285553 0.019623
0.019623 0.322754 0.019623
0.041504 0.322754 0.019623
0.063751 0.322754 0.019623
0.086853 0.322754 0.019623
0.111237 0.322754 0.019623
0.137207 0.322754 0.019623
0.164856 0.322754 0.019623
0.194061 0.322754 0.019623
0.224670 0.322754 0.019623
0.256561 0.322754 0.019623
0.289581 0.322754 0.019623
0.323608 0.322754 0.019623
0.358521 0.322754 0.019623
0.394165 0.322754 0.019623
0.430420 0.322754 0.019623
0.467133 0.322754 0.019623
0.504242 0.322754 0.019623
0.541504 0.322754 0.019623
0.578796 0.322754 0.019623
0.615997 0.322754 0.019623
0.652863 0.322754 0.019623
0.689240 0.322754 0.019623
0.724976 0.322754 0.019623
0.759857 0.322754 0.019623
0.793762 0.322754 0.019623
0.826508 0.322754 0.019623
0.857910 0.322754 0.019623
0.887970 0.322754 0.019623
0.916901 0.322754 0.019623
0.945068 0.322754 0.019623
0.972656 0.322754 0.019623
1.000000 0.322754 0.019623
0.019623 0.360046 0.019623
0.041504 0.360046 0.019623
0.063751 0.360046 0.019623
0.086853 0.360046 0.019623
0.111237 0.360046 0.019623
0.137207 0.360046 0.019623
0.164856 0.360046 0.019623
0.194061 0.360046 0.019623
0.224670 0.360046 0.019623
0.256561 0.360046 0.019623
0.289581 0.360046 0.019623
0.323608 0.360046 0.019623
0.358521 0.360046 0.019623
0.394165 0.360046 0.019623
0.430420 0.360046 0.019623
0.467133 0.360046 0.019623
0.504242 0.360046 0.019623
0.541504 0.360046 0.019623
0.578796 0.360046 0.019623
0.615997 0.360046 0.019623
0.652863 0.360046 0.019623
0.689240 0.360046 0.019623
0.724976 0.360046 0.019623
0.759857 0.360046 0.019623
0.793762 0.360046 0.019623
0.826508 0.360046 0.019623
0.857910 0.360046 0.019623
0.887970 0.360046 0.019623
0.916901 0.360046 0.019623
0.945068 0.360046 0.019623
0.972656 0.360046 0.019623
1.000000 0.360046 0.019623
0.019623 0.397339 0.019623
0.041504 0.397339 0.019623
0.063751 0.397339 0.019623
0.086853 0.397339 0.019623
0.111237 0.397339 0.019623
0.137207 0.397339 0.019623
0.164856 0.397339 0.019623
0.194061 0.397339 0.019623
0.224670 0.397339 0.019623
0.256561 0.397339 0.019623
0.289581 0.397339 0.019623
0.323608 0.397339 0.019623
0.358521 0.397339 0.019623
0.394165 0.397339 0.019623
0.430420 0.397339 0.019623
0.467133 0.397339 0.019623
0.504242 0.397339 0.019623
0.541504 0.397339 0.019623
0.578796 0.397339 0.019623
0.615997 0.397339 0.019623
0.652863 0.397339 0.019623
0.689240 0.397339 0.019623
0.724976 0.397339 0.019623
0.759857 0.397339 0.019623
0.793762 0.397339 0.019623
0.826508 0.397339 0.019623
0.857910 0.397339 0.019623
0.887970 0.397339 0.019623
0.916901 0.397339 0.019623
0.945068 0.397339 0.019623
0.972656 0.397339 0.019623
1.000000 0.397339 0.019623
0.019623 0.434418 0.019623
0.041504 0.434418 0.019623
0.063751 0.434418 0.019623
0.086853 0.434418 0.019623
0.111237 0.434418 0.019623
0.137207 0.434418 0.019623
0.164856 0.434418 0.019623
0.194061 0.434418 0.019623
0.224670 0.434418 0.019623
0.256561 0.434418 0.019623
0.289581 0.434418 0.019623
0.323608 0.434418 0.019623
0.358521 0.434418 0.019623
0.394165 0.434418 0.019623
0.430420 0.434418 0.019623
0.467133 0.434418 0.019623
0.504242 0.434418 0.019623
0.541504 0.434418 0.019623
0.578796 0.434418 0.019623
0.615997 0.434418 0.019623
0.652863 0.434418 0.019623
0.689240 0.434418 0.019623
0.724976 0.434418 0.019623
0.759857 0.434418 0.019623
0.793762 0.434418 0.019623
0.826508 0.434418 0.019623
0.857910 0.434418 0.019623
0.887970 0.434418 0.019623
0.916901 0.434418 0.019623
0.945068 0.434418 0.019623
0.972656 0.434418 0.019623
1.000000 0.434418 0.019623
0.019623 0.471252 0.019623
0.041504 0.471252 0.019623
0.063751 0.471252 0.019623
0.086853 0.471252 0.019623
0.111237 0.471252 0.019623
0.137207 0.471252 0.019623
0.164856 0.471252 0.019623
0.194061 0.471252 0.019623
0.224670 0.471252 0.019623
0.256561 0.471252 0.019623
0.289581 0.471252 0.019623
0.323608 0.471252 0.019623
0.358521 0.471252 0.019623
0.394165 0.471252 0.019623
0.430420 0.471252 0.019623
0.467133 0.471252 0.019623
0.504242 0.471252 0.019623
0.541504 0.471252 0.019623
0.578796 0.471252 0.019623
0.615997 0.471252 0.019623
0.652863 0.471252 0.019623
0.689240 0.471252 0.019623
0.724976 0.471252 0.019623
0.759857 0.471252 0.019623
0.793762 0.471252 0.019623
0.826508 0.471252 0.019623
0.857910 0.471252 0.019623
0.887970 0.471252 0.019623
0.916901 0.471252 0.019623
0.945068 0.471252 0.019623
0.972656 0.471252 0.019623
1.000000 0.471252 0.019623
0.019623 0.507660 0.019623
0.041504 0.507660 0.019623
0.063751 0.507660 0.019623
0.086853 0.507660 0.019623
0.111237 0.507660 0.019623
0.137207 0.507660 0.019623
0.164856 0.507660 0.019623
0.194061 0.507660 0.019623
0.224670 0.507660 0.019623
0.256561 0.507660 0.019623
0.289581 0.507660 0.019623
0.323608 0.507660 0.019623
0.358521 0.507660 0.019623
0.394165 0.507660 0.019623
0.430420 0.507660 0.019623
0.467133 0.507660 0.019623
0.504242 0.507660 0.019623
0.541504 0.507660 0.019623
0.578796 0.507660 0.019623
0.615997 0.507660 0.019623
0.652863 0.507660 0.019623
0.689240 0.507660 0.019623
0.724976 0.507660 0.019623
0.759857 0.507660 0.019623
0.793762 0.507660 0.019623
0.826508 0.507660 0.019623
0.857910 0.507660 0.019623
0.887970 0.507660 0.019623
0.916901 0.507660 0.019623
0.945068 0.507660 0.019623
0.972656 0.507660 0.019623
1.000000 0.507660 0.019623
0.019623 0.543610 0.019623
0.041504 0.543610 0.019623
0.063751 0.543610 0.019623
0.086853 0.543610 0.019623
0.111237 0.543610 0.019623
0.137207 0.543610 0.019623
0.164856 0.543610 0.019623
0.194061 0.543610 0.019623
0.224670 0.543610 0.019623
0.256561 0.543610 0.019623
0.289581 0.543610 0.019623
0.323608 0.543610 0.019623
0.358521 0.543610 0.019623
0.394165 0.543610 0.019623
0.430420 0.543610 0.019623
0.467133 0.543610 0.019623
0.504242 0.543610 0.019623
0.541504 0.543610 0.019623
0.578796 0.543610 0.019623
0.615997 0.543610 0.019623
0.652863 0.543610 0.019623
0.689240 0.543610 0.019623
0.724976 0.543610 0.019623
0.759857 0.543610 0.019623
0.793762 0.543610 0.019623
0.826508 0.543610 0.019623
0.857910 0.543610 0.019623
0.887970 0.543610 0.019623
0.916901 0.543610 0.019623
0.945068 0.543610 0.019623
0.972656 0.543610 0.019623
1.000000 0.543610 0.019623
0.019623 0.578979 0.019623
0.041504 0.578979 0.019623
0.063751 0.578979 0.019623
0.086853 0.578979 0.019623
0.111237 0.578979 0.019623
0.137207 0.578979 0.019623
0.164856 0.578979 0.019623
0.194061 0.578979 0.019623
0.224670 0.578979 0.019623
0.256561 0.578979 0.019623
0.289581 0.578979 0.019623
0.323608 0.578979 0.019623
0.358521 0.578979 0.019623
0.394165 0.578979 0.019623
0.430420 0.578979 0.019623
0.467133 0.578979 0.019623
0.504242 0.578979 0.019623
0.541504 0.578979 0.019623
0.578796 0.578979 0.019623
0.615997 0.578979 0.019623
0.652863 0.578979 0.019623
0.689240 0.578979 0.019623
0.724976 0.578979 0.019623
0.759857 0.578979 0.019623
0.793762 0.578979 0.019623
0.826508 0.578979 0.019623
0.857910 0.578979 0.019623
0.887970 0.578979 0.019623
0.916901 0.578979 0.019623
0.945068 0.578979 0.019623
0.972656 0.578979 0.019623
1.000000 0.578979 0.019623
0.019623 0.613739 0.019623
0.041504 0.613739 0.019623
0.063751 0.613739 0.019623
0.086853 0.613739 0.019623
0.111237 0.613739 0.019623
0.137207 0.613739 0.019623
0.164856 0.613739 0.019623
0.194061 0.613739 0.019623
0.224670 0.613739 0.019623
0.256561 0.613739 0.019623
0.289581 0.613739 0.019623
0.323608 0.613739 0.019623
0.358521 0.613739 0.019623
0.394165 0.613739 0.019623
0.430420 0.613739 0.019623
0.467133 0.613739 0.019623
0.504242 0.613739 0.019623
0.541504 0.613739 0.019623
0.578796 0.613739 0.019623
0.615997 0.613739 0.019623
0.652863 0.613739 0.019623
0.689240 0.613739 0.019623
0.724976 0.613739 0.019623
0.759857 0.613739 0.019623
0.793762 0.613739 0.019623
0.826508 0.613739 0.019623
0.857910 0.613739 0.019623
0.887970 0.613739 0.019623
0.916901 0.613739 0.019623
0.945068 0.613739 0.019623
0.972656 0.613739 0.019623
1.000000 0.613739 0.019623
0.019623 0.647614 0.019623
0.041504 0.647614 0.019623
0.063751 0.647614 0.019623
0.086853 0.647614 0.019623
0.111237 0.647614 0.019623
0.137207 0.647614 0.019623
0.164856 0.647614 0.019623
0.194061 0.647614 0.019623
0.224670 0.647614 0.019623
0.256561 0.647614 0.019623
0.289581 0.647614 0.019623
0.323608 0.647614 0.019623
0.358521 0.647614 0.019623
0.394165 0.647614 0.019623
0.430420 0.647614 0.019623
0.467133 0.647614 0.019623
0.504242 0.647614 0.019623
0.541504 0.647614 0.019623
0.578796 0.647614 0.019623
0.615997 0.647614 0.019623
0.652863 0.647614 0.019623
0.689240 0.647614 0.019623
0.724976 0.647614 0.019623
0.759857 0.647614 0.019623
0.793762 0.647614 0.019623
0.826508 0.647614 0.019623
0.857910 0.647614 0.019623
0.887970 0.647614 0.019623
0.916901 0.647614 0.019623
0.945068 0.647614 0.019623
0.972656 0.647614 0.019623
1.000000 0.647614 0.019623
0.019623 0.680725 0.019623
0.041504 0.680725 0.019623
0.063751 0.680725 0.019623
0.086853 0.680725 0.019623
0.111237 0.680725 0.019623
0.137207 0.680725 0.019623
0.164856 0.680725 0.019623
0.194061 0.680725 0.019623
0.224670 0.680725 0.019623
0.256561 0.680725 0.019623
0.289581 0.680725 0.019623
0.323608 0.680725 0.019623
0.358521 0.680725 0.019623
0.394165 0.680725 0.019623
0.430420 0.680725 0.019623
0.467133 0.680725 0.019623
0.504242 0.680725 0.019623
0.541504 0.680725 0.019623
0.578796 0.680725 0.019623
0.615997 0.680725 0.019623
0.652863 0.680725 0.019623
0.689240 0.680725 0.019623
0.724976 0.680725 0.019623
0.759857 0.680725 0.019623
0.793762 0.680725 0.019623
0.826508 0.680725 0.019623
0.857910 0.680725 0.019623
0.887970 0.680725 0.019623
0.916901 0.680725 0.019623
0.945068 0.680725 0.019623
0.972656 0.680725 0.019623
1.000000 0.680725 0.019623
0.019623 0.712891 0.019623
0.041504 0.712891 0.019623
0.063751 0.712891 0.019623
0.086853 0.712891 0.019623
0.111237 0.712891 0.019623
0.137207 0.712891 0.019623
0.164856 0.712891 0.019623
0.194061 0.712891 0.019623
0.224670 0.712891 0.019623
0.256561 0.712891 0.019623
0.289581 0.712891 0.019623
0.323608 0.712891 0.019623
0.358521 0.712891 0.019623
0.394165 0.712891 0.019623
0.430420 0.712891 0.019623
0.467133 0.712891 0.019623
0.504242 0.712891 0.019623
0.541504 0.712891 0.019623
0.578796 0.712891 0.019623
0.615997 0.712891 0.019623
0.652863 0.712891 0.019623
0.689240 0.712891 0.019623
0.724976 0.712891 0.019623
0.759857 0.712891 0.019623
0.793762 0.712891 0.019623
0.826508 0.712891 0.019623
0.857910 0.712891 0.019623
0.887970 0.712891 0.019623
0.916901 0.712891 0.019623
0.945068 0.712891 0.019623
0.972656 0.712891 0.019623
1.000000 0.712891 0.019623
0.019623 0.744049 0.019623
0.041504 0.744049 0.019623
0.063751 0.744049 0.019623
0.086853 0.744049 0.019623
0.111237 0.744049 0.019623
0.137207 0.744049 0.019623
0.164856 0.744049 0.019623
0.194061 0.744049 0.019623
0.224670 0.744049 0.019623
0.256561 0.744049 0.019623
0.289581 0.744049 0.019623
0.323608 0.744049 0.019623
0.358521 0.744049 0.019623
0.394165 0.744049 0.019623
0.430420 0.744049 0.019623
0.467133 0.744049 0.019623
0.504242 0.744049 0.019623
0.541504 0.744049 0.019623
0.578796 0.744049 0.019623
0.615997 0.744049 0.019623
0.652863 0.744049 0.019623
0.689240 0.744049 0.019623
0.724976 0.744049 0.019623
0.759857 0.744049 0.019623
0.793762 0.744049 0.019623
0.826508 0.744049 0.019623
0.857910 0.744049 0.019623
0.887970 0.744049 0.019623
0.916901 0.744049 0.019623
0.945068 0.744049 0.019623
0.972656 0.744049 0.019623
1.000000 0.744049 0.019623
0.019623 0.774139 0.019623
0.041504 0.774139 0.019623
0.063751 0.774139 0.019623
0.086853 0.774139 0.019623
0.111237 0.774139 0.019623
0.137207 0.774139 0.019623
0.164856 0.774139 0.019623
0.194061 0.774139 0.019623
0.224670 0.774139 0.019623
0.256561 0.774139 0.019623
0.289581 0.774139 0.019623
0.323608 0.774139 0.019623
0.358521 0.774139 0.019623
0.394165 0.774139 0.019623
0.430420 0.774139 0.019623
0.467133 0.774139 0.019623
0.504242 0.774139 0.019623
0.541504 0.774139 0.019623
0.578796 0.774139 0.019623
0.615997 0.774139 0.019623
0.652863 0.774139 0.019623
0.689240 0.774139 0.019623
0.724976 0.774139 0.019623
0.759857 0.774139 0.019623
0.793762 0.774139 0.019623
0.826508 0.774139 0.019623
0.857910 0.774139 0.019623
0.887970 0.774139 0.019623
0.916901 0.774139 0.019623
0.945068 0.774139 0.019623
0.972656 0.774139 0.019623
1.000000 0.774139 0.019623
0.019623 0.803162 0.019623
0.041504 0.803162 0.019623
0.063751 0.803162 0.019623
0.086853 0.803162 0.019623
0.111237 0.803162 0.019623
0.137207 0.803162 0.019623
0.164856 0.803162 0.019623
0.194061 0.803162 0.019623
0.224670 0.803162 0.019623
0.256561 0.803162 0.019623
0.289581 0.803162 0.019623
0.323608 0.803162 0.019623
0.358521 0.803162 0.019623
0.394165 0.803162 0.019623
0.430420 0.803162 0.019623
0.467133 0.803162 0.019623
0.504242 0.803162 0.019623
0.541504 0.803162 0.019623
0.578796 0.803162 0.019623
0.615997 0.803162 0.019623
0.652863 0.803162 0.019623
0.689240 0.803162 0.019623
0.724976 0.803162 0.019623
0.759857 0.803162 0.019623
0.793762 0.803162 0.019623
0.826508 0.803162 0.019623
0.857910 0.803162 0.019623
0.887970 0.803162 0.019623
0.916901 0.803162 0.019623
0.945068 0.803162 0.019623
0.972656 0.803162 0.019623
1.000000 0.803162 0.019623
0.019623 0.830994 0.019623
0.041504 0.830994 0.019623
0.063751 0.830994 0.019623
0.086853 0.830994 0.019623
0.111237 0.830994 0.019623
0.137207 0.830994 0.019623
0.164856 0.830994 0.019623
0.194061 0.830994 0.019623
0.224670 0.830994 0.019623
0.256561 0.830994 0.019623
0.289581 0.830994 0.019623
0.323608 0.830994 0.019623
0.358521 0.830994 0.019623
0.394165 0.830994 0.019623
0.430420 0.830994 0.019623
0.467133 0.830994 0.019623
0.504242 0.830994 0.019623
0.541504 0.830994 0.019623
0.578796 0.830994 0.019623
0.615997 0.830994 0.019623
0.652863 0.830994 0.019623
0.689240 0.830994 0.019623
0.724976 0.830994 0.019623
0.759857 0.830994 0.019623
0.793762 0.830994 0.019623
0.826508 0.830994 0.019623
0.857910 0.830994 0.019623
0.887970 0.830994 0.019623
0.916901 0.830994 0.019623
0.945068 0.830994 0.019623
0.972656 0.830994 0.019623
1.000000 0.830994 0.019623
0.019623 0.857605 0.019623
0.041504 0.857605 0.019623
0.063751 0.857605 0.019623
0.086853 0.857605 0.019623
0.111237 0.857605 0.019623
0.137207 0.857605 0.019623
0.164856 0.857605 0.019623
0.194061 0.857605 0.019623
0.224670 0.857605 0.019623
0.256561 0.857605 0.019623
0.289581 0.857605 0.019623
0.323608 0.857605 0.019623
0.358521 0.857605 0.019623
0.394165 0.857605 0.019623
0.430420 0.857605 0.019623
0.467133 0.857605 0.019623
0.504242 0.857605 0.019623
0.541504 0.857605 0.019623
0.578796 0.857605 0.019623
0.615997 0.857605 0.019623
0.652863 0.857605 0.019623
0.689240 0.857605 0.019623
0.724976 0.857605 0.019623
0.759857 0.857605 0.019623
0.793762 0.857605 0.019623
0.826508 0.857605 0.019623
0.857910 0.857605 0.019623
0.887970 0.857605 0.019623
0.916901 0.857605 0.019623
0.945068 0.857605 0.019623
0.972656 0.857605 0.019623
1.000000 0.857605 0.019623
0.019623 0.883087 0.019623
0.041504 0.883087 0.019623
0.063751 0.883087 0.019623
0.086853 0.883087 0.019623
0.111237 0.883087 0.019623
0.137207 0.883087 0.019623
0.164856 0.883087 0.019623
0.194061 0.883087 0.019623
0.224670 0.883087 0.019623
0.256561 0.883087 0.019623
0.289581 0.883087 0.019623
0.323608 0.883087 0.019623
0.358521 0.883087 0.019623
0.394165 0.883087 0.019623
0.430420 0.883087 0.019623
0.467133 0.883087 0.019623
0.504242 0.883087 0.019623
0.541504 0.883087 0.019623
0.578796 0.883087 0.019623
0.615997 0.883087 0.019623
0.652863 0.883087 0.019623
0.689240 0.883087 0.019623
0.724976 0.883087 0.019623
0.759857 0.883087 0.019623
0.793762 0.883087 0.019623
0.826508 0.883087 0.019623
0.857910 0.883087 0.019623
0.887970 0.883087 0.019623
0.916901 0.883087 0.019623
0.945068 0.883087 0.019623
0.972656 0.883087 0.019623
1.000000 0.883087 0.019623
0.019623 0.907562 0.019623
0.041504 0.907562 0.019623
0.063751 0.907562 0.019623
0.086853 0.907562 0.019623
0.111237 0.907562 0.019623
0.137207 0.907562 0.019623
0.164856 0.907562 0.019623
0.194061 0.907562 0.019623
0.224670 0.907562 0.019623
0.256561 0.907562 0.019623
0.289581 0.907562 0.019623
0.323608 0.907562 0.019623
0.358521 0.907562 0.019623
0.394165 0.907562 0.019623
0.430420 0.907562 0.019623
0.467133 0.907562 0.019623
