testdata/filters/luthouse/CD07 - Houghton.CUBE
#Created by: Adobe Photoshop Export Color Lookup Plugin
#Copyright: (C) Copyright 2017 @ 2017 Joseph Angelo Todaro
TITLE "CD07 - Houghton"
#LUT size
LUT_3D_SIZE 8
#data domain
#LUT data points
DOMAIN_MIN 0.000000 0.000000 0.000000
DOMAIN_MAX 0.903226 0.903226 0.903226
0.019623 0.019623 0.019623
0.111237 0.019623 0.019623
0.224670 0.019623 0.019623
0.358521 0.019623 0.019623
0.504242 0.019623 0.019623
0.652863 0.019623 0.019623
0.793762 0.019623 0.019623
0.916901 0.019623 0.019623
0.019623 0.142334 0.019623
0.111237 0.142334 0.019623
0.224670 0.142334 0.019623
0.358521 0.142334 0.019623
0.504242 0.142334 0.019623
0.652863 0.142334 0.019623
0.793762 0.142334 0.019623
0.916901 0.142334 0.019623
0.019623 0.285553 0.019623
0.111237 0.285553 0.019623
0.224670 0.285553 0.019623
0.358521 0.285553 0.019623
0.504242 0.285553 0.019623
0.652863 0.285553 0.019623
0.793762 0.285553 0.019623
0.916901 0.285553 0.019623
0.019623 0.434418 0.019623
0.111237 0.434418 0.019623
0.224670 0.434418 0.019623
0.358521 0.434418 0.019623
0.504242 0.434418 0.019623
0.652863 0.434418 0.019623
0.793762 0.434418 0.019623
0.916901 0.434418 0.019623
0.019623 0.578979 0.019623
0.111237 0.578979 0.019623
0.224670 0.578979 0.019623
0.358521 0.578979 0.019623
0.504242 0.578979 0.019623
0.652863 0.578979 0.019623
0.793762 0.578979 0.019623
0.916901 0.578979 0.019623
0.019623 0.712891 0.019623
0.111237 0.712891 0.019623
0.224670 0.712891 0.019623
0.358521 0.712891 0.019623
0.504242 0.712891 0.019623
0.652863 0.712891 0.019623
0.793762 0.712891 0.019623
0.916901 0.712891 0.019623
0.019623 0.830994 0.019623
0.111237 0.830994 0.019623
0.224670 0.830994 0.019623
0.358521 0.830994 0.019623
0.504242 0.830994 0.019623
0.652863 0.830994 0.019623
0.793762 0.830994 0.019623
0.916901 0.830994 0.019623
0.019623 0.931335 0.019623
0.111237 0.931335 0.019623
0.224670 0.931335 0.019623
0.358521 0.931335 0.019623
0.504242 0.931335 0.019623
0.652863 0.931335 0.019623
0.793762 0.931335 0.019623
0.916901 0.931335 0.019623
0.019623 0.019623 0.199799
0.111237 0.019623 0.199799
0.224670 0.019623 0.199799
0.358521 0.019623 0.199799
0.504242 0.019623 0.199799
0.652863 0.019623 0.199799
0.793762 0.019623 0.199799
0.916901 0.019623 0.199799
0.019623 0.142334 0.199799
0.111237 0.142334 0.199799
0.224670 0.142334 0.199799
0.358521 0.142334 0.199799
0.504242 0.142334 0.199799
0.652863 0.142334 0.199799
0.793762 0.142334 0.199799
0.916901 0.142334 0.199799
0.019623 0.285553 0.199799
0.111237 0.285553 0.199799
0.224670 0.285553 0.199799
0.358521 0.285553 0.199799
0.504242 0.285553 0.199799
0.652863 0.285553 0.199799
0.793762 0.285553 0.199799
0.916901 0.285553 0.199799
0.019623 0.434418 0.199799
0.111237 0.434418 0.199799
0.224670 0.434418 0.199799
0.358521 0.434418 0.199799
0.504242 0.434418 0.199799
0.652863 0.434418 0.199799
0.793762 0.434418 0.199799
0.916901 0.434418 0.199799
0.019623 0.578979 0.199799
0.111237 0.578979 0.199799
0.224670 0.578979 0.199799
0.358521 0.578979 0.199799
0.504242 0.578979 0.199799
0.652863 0.578979 0.199799
0.793762 0.578979 0.199799
0.916901 0.578979 0.199799
0.019623 0.712891 0.199799
0.111237 0.712891 0.199799
0.224670 0.712891 0.199799
0.358521 0.712891 0.199799
0.504242 0.712891 0.199799
0.652863 0.712891 0.199799
0.793762 0.712891 0.199799
0.916901 0.712891 0.199799
0.019623 0.830994 0.199799
0.111237 0.830994 0.199799
0.224670 0.830994 0.199799
0.358521 0.830994 0.199799
0.504242 0.830994 0.199799
0.652863 0.830994 0.199799
0.793762 0.830994 0.199799
0.916901 0.830994 0.199799
0.019623 0.931335 0.199799
0.111237 0.931335 0.199799
0.224670 0.931335 0.199799
0.358521 0.931335 0.199799
0.504242 0.931335 0.199799
0.652863 0.931335 0.199799
0.793762 0.931335 0.199799
0.916901 0.931335 0.199799
0.019623 0.019623 0.362274
0.111237 0.019623 0.362274
0.224670 0.019623 0.362274
0.358521 0.019623 0.362274
0.504242 0.019623 0.362274
0.652863 0.019623 0.362274
0.793762 0.019623 0.362274
0.916901 0.019623 0.362274
0.019623 0.142334 0.362274
0.111237 0.142334 0.362274
0.224670 0.142334 0.362274
0.358521 0.142334 0.362274
0.504242 0.142334 0.362274
0.652863 0.142334 0.362274
0.793762 0.142334 0.362274
0.916901 0.142334 0.362274
0.019623 0.285553 0.362274
0.111237 0.285553 0.362274
0.224670 0.285553 0.362274
0.358521 0.285553 0.362274
0.504242 0.285553 0.362274
0.652863 0.285553 0.362274
0.793762 0.285553 0.362274
0.916901 0.285553 0.362274
0.019623 0.434418 0.362274
0.111237 0.434418 0.362274
0.224670 0.434418 0.362274
0.358521 0.434418 0.362274
0.504242 0.434418 0.362274
0.652863 0.434418 0.362274
0.793762 0.434418 0.362274
0.916901 0.434418 0.362274
0.019623 0.578979 0.362274
0.111237 0.578979 0.362274
0.224670 0.578979 0.362274
0.358521 0.578979 0.362274
0.504242 0.578979 0.362274
0.652863 0.578979 0.362274
0.793762 0.578979 0.362274
0.916901 0.578979 0.362274
0.019623 0.712891 0.362274
0.111237 0.712891 0.362274
0.224670 0.712891 0.362274
0.358521 0.712891 0.362274
0.504242 0.712891 0.362274
0.652863 0.712891 0.362274
0.793762 0.712891 0.362274
0.916901 0.712891 0.362274
0.019623 0.830994 0.362274
0.111237 0.830994 0.362274
0.224670 0.830994 0.362274
0.358521 0.830994 0.362274
0.504242 0.830994 0.362274
0.652863 0.830994 0.362274
0.793762 0.830994 0.362274
0.916901 0.830994 0.362274
0.019623 0.931335 0.362274
0.111237 0.931335 0.362274
0.224670 0.931335 0.362274
0.358521 0.931335 0.362274
0.504242 0.931335 0.362274
0.652863 0.931335 0.362274
0.793762 0.931335 0.362274
0.916901 0.931335 0.362274
0.019623 0.019623 0.495148
0.111237 0.019623 0.495148
0.224670 0.019623 0.495148
0.358521 0.019623 0.495148
0.504242 0.019623 0.495148
0.652863 0.019623 0.495148
0.793762 0.019623 0.495148
0.916901 0.019623 0.495148
0.019623 0.142334 0.495148
0.111237 0.142334 0.495148
0.224670 0.142334 0.495148
0.358521 0.142334 0.495148
0.504242 0.142334 0.495148
0.652863 0.142334 0.495148
0.793762 0.142334 0.495148
0.916901 0.142334 0.495148
0.019623 0.285553 0.495148
0.111237 0.285553 0.495148
0.224670 0.285553 0.495148
0.358521 0.285553 0.495148
0.504242 0.285553 0.495148
0.652863 0.285553 0.495148
0.793762 0.285553 0.495148
0.916901 0.285553 0.495148
0.019623 0.434418 0.495148
0.111237 0.434418 0.495148
0.224670 0.434418 0.495148
0.358521 0.434418 0.495148
0.504242 0.434418 0.495148
0.652863 0.434418 0.495148
0.793762 0.434418 0.495148
0.916901 0.434418 0.495148
0.019623 0.578979 0.495148
0.111237 0.578979 0.495148
0.224670 0.578979 0.495148
0.358521 0.578979 0.495148
0.504242 0.578979 0.495148
0.652863 0.578979 0.495148
0.793762 0.578979 0.495148
0.916901 0.578979 0.495148
0.019623 0.712891 0.495148
0.111237 0.712891 0.495148
0.224670 0.712891 0.495148
0.358521 0.712891 0.495148
0.504242 0.712891 0.495148
0.652863 0.712891 0.495148
0.793762 0.712891 0.495148
0.916901 0.712891 0.495148
0.019623 0.830994 0.495148
0.111237 0.830994 0.495148
0.224670 0.830994 0.495148
0.358521 0.830994 0.495148
0.504242 0.830994 0.495148
0.652863 0.830994 0.495148
0.793762 0.830994 0.495148
0.916901 0.830994 0.495148
0.019623 0.931335 0.495148
0.111237 0.931335 0.495148
0.224670 0.931335 0.495148
0.358521 0.931335 0.495148
0.504242 0.931335 0.495148
0.652863 0.931335 0.495148
0.793762 0.931335 0.495148
0.916901 0.931335 0.495148
0.019623 0.019623 0.620453
0.111237 0.019623 0.620453
0.224670 0.019623 0.620453
0.358521 0.019623 0.620453
0.504242 0.019623 0.620453
0.652863 0.019623 0.620453
0.793762 0.019623 0.620453
0.916901 0.019623 0.620453
0.019623 0.142334 0.620453
0.111237 0.142334 0.620453
0.224670 0.142334 0.620453
0.358521 0.142334 0.620453
0.504242 0.142334 0.620453
0.652863 0.142334 0.620453
0.793762 0.142334 0.620453
0.916901 0.142334 0.620453
0.019623 0.285553 0.620453
0.111237 0.285553 0.620453
0.224670 0.285553 0.620453
0.358521 0.285553 0.620453
0.504242 0.285553 0.620453
0.652863 0.285553 0.620453
0.793762 0.285553 0.620453
0.916901 0.285553 0.620453
0.019623 0.434418 0.620453
0.111237 0.434418 0.620453
0.224670 0.434418 0.620453
0.358521 0.434418 0.620453
0.504242 0.434418 0.620453
0.652863 0.434418 0.620453
0.793762 0.434418 0.620453
0.916901 0.434418 0.620453
0.019623 0.578979 0.620453
0.111237 0.578979 0.620453
0.224670 0.578979 0.620453
0.358521 0.578979 0.620453
0.504242 0.578979 0.620453
0.652863 0.578979 0.620453
0.793762 0.578979 0.620453
0.916901 0.578979 0.620453
0.019623 0.712891 0.620453
0.111237 0.712891 0.620453
0.224670 0.712891 0.620453
0.358521 0.712891 0.620453
0.504242 0.712891 0.620453
0.652863 0.712891 0.620453
0.793762 0.712891 0.620453
0.916901 0.712891 0.620453
0.019623 0.830994 0.620453
0.111237 0.830994 0.620453
0.224670 0.830994 0.620453
0.358521 0.830994 0.620453
0.504242 0.830994 0.620453
0.652863 0.830994 0.620453
0.793762 0.830994 0.620453
0.916901 0.830994 0.620453
0.019623 0.931335 0.620453
0.111237 0.931335 0.620453
0.224670 0.931335 0.620453
0.358521 0.931335 0.620453
0.504242 0.931335 0.620453
0.652863 0.931335 0.620453
0.793762 0.931335 0.620453
0.916901 0.931335 0.620453
0.019623 0.019623 0.739319
0.111237 0.019623 0.739319
0.224670 0.019623 0.739319
0.358521 0.019623 0.739319
0.504242 0.019623 0.739319
0.652863 0.019623 0.739319
0.793762 0.019623 0.739319
0.916901 0.019623 0.739319
0.019623 0.142334 0.739319
0.111237 0.142334 0.739319
0.224670 0.142334 0.739319
0.358521 0.142334 0.739319
0.504242 0.142334 0.739319
0.652863 0.142334 0.739319
0.793762 0.142334 0.739319
0.916901 0.142334 0.739319
0.019623 0.285553 0.739319
0.111237 0.285553 0.739319
0.224670 0.285553 0.739319
0.358521 0.285553 0.739319
0.504242 0.285553 0.739319
0.652863 0.285553 0.739319
0.793762 0.285553 0.739319
0.916901 0.285553 0.739319
0.019623 0.434418 0.739319
0.111237 0.434418 0.739319
0.224670 0.434418 0.739319
0.358521 0.434418 0.739319
0.504242 0.434418 0.739319
0.652863 0.434418 0.739319
0.793762 0.434418 0.739319
0.916901 0.434418 0.739319
0.019623 0.578979 0.739319
0.111237 0.578979 0.739319
0.224670 0.578979 0.739319
0.358521 0.578979 0.739319
0.504242 0.578979 0.739319
0.652863 0.578979 0.739319
0.793762 0.578979 0.739319
0.916901 0.578979 0.739319
0.019623 0.712891 0.739319
0.111237 0.712891 0.739319
0.224670 0.712891 0.739319
0.358521 0.712891 0.739319
0.504242 0.712891 0.739319
0.652863 0.712891 0.739319
0.793762 0.712891 0.739319
0.916901 0.712891 0.739319
0.019623 0.830994 0.739319
0.111237 0.830994 0.739319
0.224670 0.830994 0.739319
0.358521 0.830994 0.739319
0.504242 0.830994 0.739319
0.652863 0.830994 0.739319
0.793762 0.830994 0.739319
0.916901 0.830994 0.739319
0.019623 0.931335 0.739319
0.111237 0.931335 0.739319
0.224670 0.931335 0.739319
0.358521 0.931335 0.739319
0.504242 0.931335 0.739319
0.652863 0.931335 0.739319
0.793762 0.931335 0.739319
0.916901 0.931335 0.739319
0.019623 0.019623 0.845337
0.111237 0.019623 0.845337
0.224670 0.019623 0.845337
0.358521 0.019623 0.845337
0.504242 0.019623 0.845337
0.652863 0.019623 0.845337
0.793762 0.019623 0.845337
0.916901 0.019623 0.845337
0.019623 0.142334 0.845337
0.111237 0.142334 0.845337
0.224670 0.142334 0.845337
0.358521 0.142334 0.845337
0.504242 0.142334 0.845337
0.652863 0.142334 0.845337
0.793762 0.142334 0.845337
0.916901 0.142334 0.845337
0.019623 0.285553 0.845337
0.111237 0.285553 0.845337
0.224670 0.285553 0.845337
0.358521 0.285553 0.845337
0.504242 0.285553 0.845337
0.652863 0.285553 0.845337
0.793762 0.285553 0.845337
0.916901 0.285553 0.845337
0.019623 0.434418 0.845337
0.111237 0.434418 0.845337
0.224670 0.434418 0.845337
0.358521 0.434418 0.845337
0.504242 0.434418 0.845337
0.652863 0.434418 0.845337
0.793762 0.434418 0.845337
0.916901 0.434418 0.845337
0.019623 0.578979 0.845337
0.111237 0.578979 0.845337
0.224670 0.578979 0.845337
0.358521 0.578979 0.845337
0.504242 0.578979 0.845337
0.652863 0.578979 0.845337
0.793762 0.578979 0.845337
0.916901 0.578979 0.845337
0.019623 0.712891 0.845337
0.111237 0.712891 0.845337
0.224670 0.712891 0.845337
0.358521 0.712891 0.845337
0.504242 0.712891 0.845337
0.652863 0.712891 0.845337
0.793762 0.712891 0.845337
0.916901 0.712891 0.845337
0.019623 0.830994 0.845337
0.111237 0.830994 0.845337
0.224670 0.830994 0.845337
0.358521 0.830994 0.845337
0.504242 0.830994 0.845337
0.652863 0.830994 0.845337
0.793762 0.830994 0.845337
0.916901 0.830994 0.845337
0.019623 0.931335 0.845337
0.111237 0.931335 0.845337
0.224670 0.931335 0.845337
0.358521 0.931335 0.845337
0.504242 0.931335 0.845337
0.652863 0.931335 0.845337
0.793762 0.931335 0.845337
0.916901 0.931335 0.845337
0.019623 0.019623 0.936646
0.111237 0.019623 0.936646
0.224670 0.019623 0.936646
0.358521 0.019623 0.936646
0.504242 0.019623 0.936646
0.652863 0.019623 0.936646
0.793762 0.019623 0.936646
0.916901 0.019623 0.936646
0.019623 0.142334 0.936646
0.111237 0.142334 0.936646
0.224670 0.142334 0.936646
0.358521 0.142334 0.936646
0.504242 0.142334 0.936646
0.652863 0.142334 0.936646
0.793762 0.142334 0.936646
0.916901 0.142334 0.936646
0.019623 0.285553 0.936646
0.111237 0.285553 0.936646
0.224670 0.285553 0.936646
0.358521 0.285553 0.936646
0.504242 0.285553 0.936646
0.652863 0.285553 0.936646
0.793762 0.285553 0.936646
0.916901 0.285553 0.936646
0.019623 0.434418 0.936646
0.111237 0.434418 0.936646
0.224670 0.434418 0.936646
0.358521 0.434418 0.936646
0.504242 0.434418 0.936646
0.652863 0.434418 0.936646
0.793762 0.434418 0.936646
0.916901 0.434418 0.936646
0.019623 0.578979 0.936646
0.111237 0.578979 0.936646
0.224670 0.578979 0.936646
0.358521 0.578979 0.936646
0.504242 0.578979 0.936646
0.652863 0.578979 0.936646
0.793762 0.578979 0.936646
0.916901 0.578979 0.936646
0.019623 0.712891 0.936646
0.111237 0.712891 0.936646
0.224670 0.712891 0.936646
0.358521 0.712891 0.936646
0.504242 0.712891 0.936646
0.652863 0.712891 0.936646
0.793762 0.712891 0.936646
0.916901 0.712891 0.936646
0.019623 0.830994 0.936646
0.111237 0.830994 0.936646
0.224670 0.830994 0.936646
0.358521 0.830994 0.936646
0.504242 0.830994 0.936646
0.652863 0.830994 0.936646
0.793762 0.830994 0.936646
0.916901 0.830994 0.936646
0.019623 0.931335 0.936646
0.111237 0.931335 0.936646
0.224670 0.931335 0.936646
0.358521 0.931335 0.936646
0.504242 0.931335 0.936646
0.652863 0.931335 0.936646
0.793762 0.931335 0.936646
0.916901 0.931335 0.936646
