testdata/filters/luthouse/HK07 - Dumond.CUBE
#Created by: Adobe Photoshop Export Color Lookup Plugin
#Copyright: (C) Copyright 2017 @ 2017 Joseph Angelo Todaro
TITLE "HK07 - Dumond"
#LUT size
LUT_3D_SIZE 5
#data domain
#LUT data points
DOMAIN_MIN 0.000000 0.000000 0.000000
DOMAIN_MAX 0.903226 0.903226 0.903226
0.000000 0.000000 0.000000
0.176941 0.025116 0.057800
0.500244 0.099640 0.190582
0.748871 0.155487 0.285217
0.926147 0.192200 0.352600
0.057800 0.176941 0.025116
0.190674 0.169708 0.025574
0.500244 0.141418 0.099640
0.748871 0.155487 0.184540
0.926147 0.192200 0.262299
0.190582 0.500244 0.099640
0.290314 0.500244 0.099640
0.538513 0.479706 0.101379
0.786926 0.453949 0.153748
0.952148 0.434753 0.190369
0.285217 0.748871 0.155487
0.373047 0.748871 0.155487
0.648254 0.786957 0.155029
0.806061 0.718140 0.157684
0.995850 0.707062 0.194397
0.352600 0.926147 0.192200
0.434357 0.926147 0.192200
0.686462 0.953461 0.188934
0.938171 0.997070 0.194183
0.997070 0.888092 0.195068
0.025116 0.057800 0.176941
0.157837 0.025116 0.176941
0.500244 0.099640 0.290314
0.748871 0.155487 0.373047
0.926147 0.192200 0.434357
0.025116 0.176941 0.157837
0.190948 0.190948 0.190948
0.509583 0.233490 0.286346
0.756653 0.272888 0.369446
0.933441 0.302917 0.431000
0.099640 0.500244 0.141418
0.286346 0.509583 0.233490
0.538635 0.493958 0.234528
0.782837 0.468201 0.271973
0.948700 0.452484 0.301514
0.184540 0.748871 0.155487
0.369446 0.756653 0.272888
0.634491 0.783752 0.271454
0.806183 0.730103 0.274536
0.992523 0.717010 0.304626
0.262299 0.926147 0.192200
0.431000 0.933441 0.302917
0.675323 0.948761 0.302399
0.924347 0.993774 0.304291
0.997192 0.899292 0.305267
0.099640 0.190582 0.500244
0.141418 0.099640 0.500244
0.446259 0.099640 0.500244
0.748871 0.155487 0.618103
0.926147 0.192200 0.668915
0.099640 0.290314 0.500244
0.233490 0.286346 0.509583
0.468475 0.233490 0.509583
0.756653 0.272888 0.615143
0.933441 0.302917 0.666351
0.099640 0.500244 0.446259
0.233490 0.509583 0.468475
0.539337 0.539337 0.539337
0.782227 0.568024 0.605621
0.957001 0.590698 0.657104
0.155487 0.748871 0.435455
0.272888 0.756653 0.458099
0.605621 0.782227 0.568024
0.806610 0.769226 0.568604
0.982391 0.752197 0.590393
0.192200 0.926147 0.426727
0.302917 0.933441 0.449768
0.657104 0.957001 0.590698
0.880951 0.983093 0.590088
0.997559 0.935211 0.591949
0.155487 0.285217 0.748871
0.155487 0.184540 0.748871
0.435455 0.155487 0.748871
0.667847 0.155487 0.748871
0.926147 0.192200 0.872131
0.155487 0.373047 0.748871
0.272888 0.369446 0.756653
0.458099 0.272888 0.756653
0.686859 0.272888 0.756653
0.933441 0.302917 0.869507
0.155487 0.618103 0.748871
0.272888 0.615143 0.756653
0.568024 0.605621 0.782227
0.748383 0.568024 0.782227
0.957001 0.590698 0.861420
0.155487 0.748871 0.667847
0.272888 0.756653 0.686859
0.568024 0.782227 0.748383
0.807190 0.807190 0.807190
0.979919 0.826996 0.853180
0.192200 0.926147 0.660645
0.302917 0.933441 0.679657
0.590698 0.957001 0.741302
0.853180 0.979919 0.826996
0.997925 0.970398 0.827393
0.192200 0.352600 0.926147
0.192200 0.262299 0.926147
0.426727 0.192200 0.926147
0.660645 0.192200 0.926147
0.825958 0.192200 0.926147
0.192200 0.434357 0.926147
0.302917 0.431000 0.933441
0.449768 0.302917 0.933441
0.679657 0.302917 0.933441
0.843628 0.302917 0.933441
0.192200 0.668915 0.926147
0.302917 0.666351 0.933441
0.590698 0.657104 0.957001
0.741302 0.590698 0.957001
0.900360 0.590698 0.957001
0.192200 0.872131 0.926147
0.302917 0.869507 0.933441
0.590698 0.861420 0.957001
0.826996 0.853180 0.979919
0.955170 0.826996 0.979919
0.192200 0.926147 0.825958
0.302917 0.933441 0.843628
0.590698 0.957001 0.900360
0.826996 0.979919 0.955170
0.998230 0.998230 0.998230
