testdata/filters/luthouse/HK07 - Dumond.CUBE
#Created by: Adobe Photoshop Export Color Lookup Plugin
#Copyright: (C) Copyright 2017 @ 2017 Joseph Angelo Todaro
TITLE "HK07 - Dumond"
#LUT size
LUT_3D_SIZE 8
#data domain
#LUT data points
DOMAIN_MIN 0.000000 0.000000 0.000000
DOMAIN_MAX 0.903226 0.903226 0.903226
0.000000 0.000000 0.000000
0.000000 0.000000 0.000000
0.232910 0.036896 0.081970
0.419220 0.080078 0.159607
0.576233 0.117645 0.219452
0.716614 0.148834 0.272827
0.836273 0.173615 0.318451
0.926147 0.192200 0.352600
0.000000 0.000000 0.000000
0.000000 0.000000 0.000000
0.232910 0.036896 0.081970
0.419220 0.080078 0.159607
0.576233 0.117645 0.219452
0.716614 0.148834 0.272827
0.836273 0.173615 0.318451
0.926147 0.192200 0.352600
0.081970 0.232910 0.036896
0.081970 0.232910 0.036896
0.250885 0.223572 0.037964
0.432465 0.203552 0.078796
0.579224 0.191376 0.117462
0.716614 0.182220 0.148834
0.836273 0.174316 0.173615
0.926147 0.192200 0.215546
0.159607 0.419220 0.080078
0.159607 0.419220 0.080078
0.316803 0.432465 0.079559
0.451355 0.402008 0.081573
0.611542 0.387238 0.117188
0.742371 0.370331 0.147339
0.854187 0.358856 0.171692
0.938721 0.351929 0.190826
0.219452 0.576233 0.117645
0.219452 0.576233 0.117645
0.357452 0.580078 0.116364
0.533936 0.611542 0.118439
0.620453 0.552612 0.120026
0.769501 0.543549 0.151154
0.881287 0.526245 0.173096
0.965027 0.515411 0.191101
0.272827 0.716614 0.148834
0.272827 0.716614 0.148834
0.400818 0.716614 0.148834
0.562012 0.743378 0.146210
0.722260 0.770416 0.150879
0.771545 0.687225 0.150970
0.900177 0.680573 0.176117
0.990723 0.670502 0.192291
0.318451 0.836273 0.173615
0.318451 0.836273 0.173615
0.440247 0.836273 0.173615
0.589752 0.854248 0.173004
0.742126 0.882416 0.172333
0.884064 0.900177 0.176117
0.900177 0.801849 0.176117
0.997070 0.796814 0.195068
0.352600 0.926147 0.192200
0.352600 0.926147 0.192200
0.470551 0.926147 0.192200
0.613129 0.938782 0.191833
0.759674 0.966522 0.190186
0.903198 0.990723 0.194183
0.997070 0.975769 0.195068
0.997070 0.888092 0.195068
0.000000 0.000000 0.000000
0.000000 0.000000 0.000000
0.232910 0.036896 0.081970
0.419220 0.080078 0.159607
0.576233 0.117645 0.219452
0.716614 0.148834 0.272827
0.836273 0.173615 0.318451
0.926147 0.192200 0.352600
0.000000 0.000000 0.000000
0.000000 0.000000 0.000000
0.232910 0.036896 0.081970
0.419220 0.080078 0.159607
0.576233 0.117645 0.219452
0.716614 0.148834 0.272827
0.836273 0.173615 0.318451
0.926147 0.192200 0.352600
0.081970 0.232910 0.036896
0.081970 0.232910 0.036896
0.250885 0.223572 0.037964
0.432465 0.203552 0.078796
0.579224 0.191376 0.117462
0.716614 0.182220 0.148834
0.836273 0.174316 0.173615
0.926147 0.192200 0.215546
0.159607 0.419220 0.080078
0.159607 0.419220 0.080078
0.316803 0.432465 0.079559
0.451355 0.402008 0.081573
0.611542 0.387238 0.117188
0.742371 0.370331 0.147339
0.854187 0.358856 0.171692
0.938721 0.351929 0.190826
0.219452 0.576233 0.117645
0.219452 0.576233 0.117645
0.357452 0.580078 0.116364
0.533936 0.611542 0.118439
0.620453 0.552612 0.120026
0.769501 0.543549 0.151154
0.881287 0.526245 0.173096
0.965027 0.515411 0.191101
0.272827 0.716614 0.148834
0.272827 0.716614 0.148834
0.400818 0.716614 0.148834
0.562012 0.743378 0.146210
0.722260 0.770416 0.150879
0.771545 0.687225 0.150970
0.900177 0.680573 0.176117
0.990723 0.670502 0.192291
0.318451 0.836273 0.173615
0.318451 0.836273 0.173615
0.440247 0.836273 0.173615
0.589752 0.854248 0.173004
0.742126 0.882416 0.172333
0.884064 0.900177 0.176117
0.900177 0.801849 0.176117
0.997070 0.796814 0.195068
0.352600 0.926147 0.192200
0.352600 0.926147 0.192200
0.470551 0.926147 0.192200
0.613129 0.938782 0.191833
0.759674 0.966522 0.190186
0.903198 0.990723 0.194183
0.997070 0.975769 0.195068
0.997070 0.888092 0.195068
0.036896 0.081970 0.232910
0.036896 0.081970 0.232910
0.207916 0.036896 0.232910
0.419220 0.080078 0.307922
0.576233 0.117645 0.355865
0.716614 0.148834 0.400818
0.836273 0.173615 0.440247
0.926147 0.192200 0.470551
0.036896 0.081970 0.232910
0.036896 0.081970 0.232910
0.207916 0.036896 0.232910
0.419220 0.080078 0.307922
0.576233 0.117645 0.355865
0.716614 0.148834 0.400818
0.836273 0.173615 0.440247
0.926147 0.192200 0.470551
0.036896 0.232910 0.207916
0.036896 0.232910 0.207916
0.251190 0.251190 0.251190
0.433807 0.273468 0.302399
0.589081 0.295380 0.350616
0.728455 0.316193 0.395782
0.847229 0.334900 0.435394
0.936829 0.349365 0.465942
0.080078 0.419220 0.199249
0.080078 0.419220 0.199249
0.302399 0.433807 0.273468
0.451599 0.424377 0.273956
0.605621 0.408661 0.294647
0.736786 0.396912 0.314880
0.848297 0.389771 0.334259
0.936829 0.385773 0.349365
0.117645 0.576233 0.190979
0.117645 0.576233 0.190979
0.350616 0.589081 0.295380
0.511047 0.605621 0.295105
0.620697 0.572174 0.296234
0.764557 0.560181 0.316895
0.876282 0.545776 0.333923
0.960175 0.537048 0.348206
0.148834 0.716614 0.182220
0.148834 0.716614 0.182220
0.395782 0.728455 0.316193
0.543396 0.736816 0.315338
0.700104 0.765442 0.316681
0.771729 0.705231 0.317444
0.900360 0.698700 0.336639
0.986145 0.686127 0.348541
0.173615 0.836273 0.174316
0.173615 0.836273 0.174316
0.435394 0.847229 0.334900
0.574707 0.848297 0.334747
0.722412 0.877441 0.333374
0.868134 0.900360 0.336639
0.900360 0.818756 0.336639
0.997253 0.813934 0.351501
0.215546 0.926147 0.192200
0.215546 0.926147 0.192200
0.465942 0.936829 0.349365
0.601562 0.936829 0.349365
0.741699 0.961334 0.347473
0.883636 0.986145 0.349701
0.997253 0.991486 0.351501
0.997253 0.904358 0.351501
0.080078 0.159607 0.419220
0.080078 0.159607 0.419220
0.199249 0.080078 0.419220
0.373993 0.080078 0.419220
0.576233 0.117645 0.503754
0.716614 0.148834 0.543427
0.836273 0.173615 0.578491
0.926147 0.192200 0.605957
0.080078 0.159607 0.419220
0.080078 0.159607 0.419220
0.199249 0.080078 0.419220
0.373993 0.080078 0.419220
0.576233 0.117645 0.503754
0.716614 0.148834 0.543427
0.836273 0.173615 0.578491
0.926147 0.192200 0.605957
0.080078 0.307922 0.419220
0.080078 0.307922 0.419220
0.273468 0.302399 0.433807
0.408997 0.273468 0.433807
0.589081 0.295380 0.499268
0.728455 0.316193 0.538757
0.847229 0.334900 0.574219
0.936829 0.349365 0.601562
0.080078 0.419220 0.373993
0.080078 0.419220 0.373993
0.273468 0.433807 0.408997
0.451904 0.451904 0.451904
0.605164 0.469940 0.493500
0.743195 0.487305 0.533203
0.861145 0.503143 0.568604
0.950165 0.515503 0.596191
0.117645 0.576233 0.367249
0.117645 0.576233 0.367249
0.295380 0.589081 0.402466
0.493500 0.605164 0.469940
0.620972 0.596924 0.470276
0.758423 0.583282 0.486847
0.868958 0.574554 0.502930
0.953217 0.568695 0.514801
0.148834 0.716614 0.360779
0.148834 0.716614 0.360779
0.316193 0.728455 0.396210
0.533203 0.743195 0.487305
0.673523 0.758423 0.487213
0.771973 0.727905 0.488037
0.895569 0.718536 0.503784
0.979736 0.707245 0.514618
0.173615 0.836273 0.354431
0.173615 0.836273 0.354431
0.334900 0.847229 0.390411
0.568604 0.861145 0.503143
0.699921 0.869690 0.502472
0.843597 0.896362 0.503632
0.900543 0.840240 0.504150
0.997437 0.835297 0.516998
0.192200 0.926147 0.349731
0.192200 0.926147 0.349731
0.349365 0.936829 0.385773
0.596191 0.950165 0.515503
0.722351 0.953278 0.515228
0.859009 0.979767 0.515320
0.983429 0.997437 0.516998
0.997437 0.925049 0.516998
0.117645 0.219452 0.576233
0.117645 0.219452 0.576233
0.190979 0.117645 0.576233
0.367249 0.117645 0.576233
0.514008 0.117645 0.576233
0.716614 0.148834 0.672150
0.836273 0.173615 0.704651
0.926147 0.192200 0.729889
0.117645 0.219452 0.576233
0.117645 0.219452 0.576233
0.190979 0.117645 0.576233
0.367249 0.117645 0.576233
0.514008 0.117645 0.576233
0.716614 0.148834 0.672150
0.836273 0.173615 0.704651
0.926147 0.192200 0.729889
0.117645 0.355865 0.576233
0.117645 0.355865 0.576233
0.295380 0.350616 0.589081
0.402466 0.295380 0.589081
0.544983 0.295380 0.589081
0.728455 0.316193 0.668091
0.847229 0.334900 0.700592
0.936829 0.349365 0.725922
0.117645 0.503754 0.576233
0.117645 0.503754 0.576233
0.295380 0.499268 0.589081
0.469940 0.493500 0.605164
0.583466 0.469940 0.605164
0.743195 0.487305 0.662842
0.861145 0.503143 0.695496
0.950165 0.515503 0.720825
0.117645 0.576233 0.514008
0.117645 0.576233 0.514008
0.295380 0.589081 0.544983
0.469940 0.605164 0.583466
0.621246 0.621246 0.621246
0.757843 0.636810 0.657593
0.875092 0.651062 0.690247
0.963593 0.662231 0.715851
0.148834 0.716614 0.508118
0.148834 0.716614 0.508118
0.316193 0.728455 0.539459
0.487305 0.743195 0.578094
0.657593 0.757843 0.636810
0.772217 0.750336 0.637177
0.889709 0.739105 0.650696
0.973145 0.731964 0.661560
0.173615 0.836273 0.502838
0.173615 0.836273 0.502838
0.334900 0.847229 0.534180
0.503143 0.861145 0.573151
0.690247 0.875092 0.651062
0.818512 0.890198 0.650482
0.900787 0.861542 0.651703
0.995911 0.855591 0.663116
0.192200 0.926147 0.498657
0.192200 0.926147 0.498657
0.349365 0.936829 0.529968
0.515503 0.950165 0.568909
0.715851 0.963593 0.662231
0.837372 0.973175 0.661926
0.962799 0.996521 0.663025
0.997681 0.945526 0.663269
0.148834 0.272827 0.716614
0.148834 0.272827 0.716614
0.182220 0.148834 0.716614
0.360779 0.148834 0.716614
0.508118 0.148834 0.716614
0.639160 0.148834 0.716614
0.836273 0.173615 0.821411
0.926147 0.192200 0.845123
0.148834 0.272827 0.716614
0.148834 0.272827 0.716614
0.182220 0.148834 0.716614
0.360779 0.148834 0.716614
0.508118 0.148834 0.716614
0.639160 0.148834 0.716614
0.836273 0.173615 0.821411
0.926147 0.192200 0.845123
0.148834 0.400818 0.716614
0.148834 0.400818 0.716614
0.316193 0.395782 0.728455
0.396210 0.316193 0.728455
0.539459 0.316193 0.728455
0.667664 0.316193 0.728455
0.847229 0.334900 0.817719
0.936829 0.349365 0.841461
0.148834 0.543427 0.716614
0.148834 0.543427 0.716614
0.316193 0.538757 0.728455
0.487305 0.533203 0.743195
0.578094 0.487305 0.743195
0.703278 0.487305 0.743195
0.861145 0.503143 0.812805
0.950165 0.515503 0.836761
0.148834 0.672150 0.716614
0.148834 0.672150 0.716614
0.316193 0.668091 0.728455
0.487305 0.662842 0.743195
0.636810 0.657593 0.757843
0.738403 0.636810 0.757843
0.875092 0.651062 0.808014
0.963593 0.662231 0.831940
0.148834 0.716614 0.639160
0.148834 0.716614 0.639160
0.316193 0.728455 0.667664
0.487305 0.743195 0.703278
0.636810 0.757843 0.738403
0.772461 0.772461 0.772461
0.888733 0.785645 0.803131
0.976746 0.795990 0.827240
0.173615 0.836273 0.634155
0.173615 0.836273 0.634155
0.334900 0.847229 0.663025
0.503143 0.861145 0.698730
0.651062 0.875092 0.733734
0.803131 0.888733 0.785645
0.901001 0.882294 0.785919
0.990448 0.874023 0.795624
0.192200 0.926147 0.630310
0.192200 0.926147 0.630310
0.349365 0.936829 0.658997
0.515503 0.950165 0.695007
0.662231 0.963593 0.730133
0.827240 0.976746 0.795990
0.938416 0.990448 0.795868
0.997864 0.965485 0.796478
0.173615 0.318451 0.836273
0.173615 0.318451 0.836273
0.174316 0.173615 0.836273
0.354431 0.173615 0.836273
0.502838 0.173615 0.836273
0.634155 0.173615 0.836273
0.745789 0.173615 0.836273
0.906586 0.192200 0.926147
0.173615 0.318451 0.836273
0.173615 0.318451 0.836273
0.174316 0.173615 0.836273
0.354431 0.173615 0.836273
0.502838 0.173615 0.836273
0.634155 0.173615 0.836273
0.745789 0.173615 0.836273
0.906586 0.192200 0.926147
0.173615 0.440247 0.836273
0.173615 0.440247 0.836273
0.334900 0.435394 0.847229
0.390411 0.334900 0.847229
0.534180 0.334900 0.847229
0.663025 0.334900 0.847229
0.772614 0.334900 0.847229
0.931488 0.349365 0.936829
0.173615 0.578491 0.836273
0.173615 0.578491 0.836273
0.334900 0.574219 0.847229
0.503143 0.568604 0.861145
0.573151 0.503143 0.861145
0.698730 0.503143 0.861145
0.806244 0.503143 0.861145
0.950165 0.515503 0.937500
0.173615 0.704651 0.836273
0.173615 0.704651 0.836273
0.334900 0.700592 0.847229
0.503143 0.695496 0.861145
0.651062 0.690247 0.875092
0.733734 0.651062 0.875092
0.839600 0.651062 0.875092
0.963593 0.662231 0.933044
0.173615 0.821411 0.836273
0.173615 0.821411 0.836273
0.334900 0.817719 0.847229
0.503143 0.812805 0.861145
0.651062 0.808014 0.875092
0.785645 0.803131 0.888733
0.871979 0.785645 0.888733
0.976746 0.795990 0.928406
0.173615 0.836273 0.745789
0.173615 0.836273 0.745789
0.334900 0.847229 0.772614
0.503143 0.861145 0.806244
0.651062 0.875092 0.839600
0.785645 0.888733 0.871979
0.901215 0.901215 0.901215
0.988770 0.911194 0.924255
0.192200 0.926147 0.742218
0.192200 0.926147 0.742218
0.349365 0.936829 0.769043
0.515503 0.950165 0.802795
0.662231 0.963593 0.836182
0.795990 0.976746 0.868591
0.924255 0.988770 0.911194
0.998077 0.983978 0.911407
0.192200 0.352600 0.926147
0.192200 0.352600 0.926147
0.192200 0.215546 0.926147
0.349731 0.192200 0.926147
0.498657 0.192200 0.926147
0.630310 0.192200 0.926147
0.742218 0.192200 0.926147
0.825958 0.192200 0.926147
0.192200 0.352600 0.926147
0.192200 0.352600 0.926147
0.192200 0.215546 0.926147
0.349731 0.192200 0.926147
0.498657 0.192200 0.926147
0.630310 0.192200 0.926147
0.742218 0.192200 0.926147
0.825958 0.192200 0.926147
0.192200 0.470551 0.926147
0.192200 0.470551 0.926147
0.349365 0.465942 0.936829
0.385773 0.349365 0.936829
0.529968 0.349365 0.936829
0.658997 0.349365 0.936829
0.769043 0.349365 0.936829
0.851868 0.349365 0.936829
0.192200 0.605957 0.926147
0.192200 0.605957 0.926147
0.349365 0.601562 0.936829
0.515503 0.596191 0.950165
0.568909 0.515503 0.950165
0.695007 0.515503 0.950165
0.802795 0.515503 0.950165
0.884308 0.515503 0.950165
0.192200 0.729889 0.926147
0.192200 0.729889 0.926147
0.349365 0.725922 0.936829
0.515503 0.720825 0.950165
0.662231 0.715851 0.963593
0.730133 0.662231 0.963593
0.836182 0.662231 0.963593
0.916260 0.662231 0.963593
0.192200 0.845123 0.926147
0.192200 0.845123 0.926147
0.349365 0.841461 0.936829
0.515503 0.836761 0.950165
0.662231 0.831940 0.963593
0.795990 0.827240 0.976746
0.868591 0.795990 0.976746
0.947662 0.795990 0.976746
0.192200 0.926147 0.906586
0.192200 0.926147 0.906586
0.349365 0.936829 0.931488
0.515503 0.937500 0.950165
0.662231 0.933044 0.963593
0.795990 0.928406 0.976746
0.911194 0.924255 0.988770
0.976044 0.911194 0.988770
0.192200 0.926147 0.825958
0.192200 0.926147 0.825958
0.349365 0.936829 0.851868
0.515503 0.950165 0.884308
0.662231 0.963593 0.916260
0.795990 0.976746 0.947662
0.911194 0.988770 0.976044
0.998230 0.998230 0.998230
