testdata/filters/luthouse/HK07 - Dumond.CUBE
#Created by: Adobe Photoshop Export Color Lookup Plugin
#Copyright: (C) Copyright 2017 @ 2017 Joseph Angelo Todaro
TITLE "HK07 - Dumond"
#LUT size
LUT_3D_SIZE 32
#data domain
DOMAIN_MIN 0.0 0.0 0.0
DOMAIN_MAX 1.0 1.0 1.0
#LUT data points
0.000000 0.000000 0.000000
0.000000 0.000000 0.000000
0.000000 0.000000 0.000000
0.000000 0.000000 0.000000
0.000000 0.000000 0.000000
0.014282 0.001526 0.003540
0.109772 0.013397 0.031372
0.176941 0.025116 0.057800
0.232910 0.036896 0.081970
0.283844 0.048309 0.104797
0.331421 0.059265 0.125061
0.376343 0.069855 0.143341
0.419220 0.080078 0.159607
0.460419 0.090027 0.175262
0.500244 0.099640 0.190582
0.538727 0.108795 0.205048
0.576233 0.117645 0.219452
0.612823 0.126038 0.233185
0.648468 0.134430 0.246918
0.683075 0.141876 0.260193
0.716614 0.148834 0.272827
0.748871 0.155487 0.285217
0.779602 0.161865 0.296814
0.808716 0.167877 0.307800
0.836273 0.173615 0.318451
0.861877 0.178955 0.328186
0.885406 0.183777 0.337189
0.906952 0.188141 0.345184
0.926147 0.192200 0.352600
0.943085 0.195862 0.358917
0.957336 0.198578 0.364502
0.968933 0.201202 0.368927
0.000000 0.000000 0.000000
0.000000 0.000000 0.000000
0.000000 0.000000 0.000000
0.000000 0.000000 0.000000
0.000000 0.000000 0.000000
0.014282 0.001526 0.003540
0.109772 0.013397 0.031372
0.176941 0.025116 0.057800
0.232910 0.036896 0.081970
0.283844 0.048309 0.104797
0.331421 0.059265 0.125061
0.376343 0.069855 0.143341
0.419220 0.080078 0.159607
0.460419 0.090027 0.175262
0.500244 0.099640 0.190582
0.538727 0.108795 0.205048
0.576233 0.117645 0.219452
0.612823 0.126038 0.233185
0.648468 0.134430 0.246918
0.683075 0.141876 0.260193
0.716614 0.148834 0.272827
0.748871 0.155487 0.285217
0.779602 0.161865 0.296814
0.808716 0.167877 0.307800
0.836273 0.173615 0.318451
0.861877 0.178955 0.328186
0.885406 0.183777 0.337189
0.906952 0.188141 0.345184
0.926147 0.192200 0.352600
0.943085 0.195862 0.358917
0.957336 0.198578 0.364502
0.968933 0.201202 0.368927
0.000000 0.000000 0.000000
0.000000 0.000000 0.000000
0.000000 0.000000 0.000000
0.000000 0.000000 0.000000
0.000000 0.000000 0.000000
0.014282 0.001526 0.003540
0.109772 0.013397 0.031372
0.176941 0.025116 0.057800
0.232910 0.036896 0.081970
0.283844 0.048309 0.104797
0.331421 0.059265 0.125061
0.376343 0.069855 0.143341
0.419220 0.080078 0.159607
0.460419 0.090027 0.175262
0.500244 0.099640 0.190582
0.538727 0.108795 0.205048
0.576233 0.117645 0.219452
0.612823 0.126038 0.233185
0.648468 0.134430 0.246918
0.683075 0.141876 0.260193
0.716614 0.148834 0.272827
0.748871 0.155487 0.285217
0.779602 0.161865 0.296814
0.808716 0.167877 0.307800
0.836273 0.173615 0.318451
0.861877 0.178955 0.328186
0.885406 0.183777 0.337189
0.906952 0.188141 0.345184
0.926147 0.192200 0.352600
0.943085 0.195862 0.358917
0.957336 0.198578 0.364502
0.968933 0.201202 0.368927
0.000000 0.000000 0.000000
0.000000 0.000000 0.000000
0.000000 0.000000 0.000000
0.000000 0.000000 0.000000
0.000000 0.000000 0.000000
0.014282 0.001526 0.003540
0.109772 0.013397 0.031372
0.176941 0.025116 0.057800
0.232910 0.036896 0.081970
0.283844 0.048309 0.104797
0.331421 0.059265 0.125061
0.376343 0.069855 0.143341
0.419220 0.080078 0.159607
0.460419 0.090027 0.175262
0.500244 0.099640 0.190582
0.538727 0.108795 0.205048
0.576233 0.117645 0.219452
0.612823 0.126038 0.233185
0.648468 0.134430 0.246918
0.683075 0.141876 0.260193
0.716614 0.148834 0.272827
0.748871 0.155487 0.285217
0.779602 0.161865 0.296814
0.808716 0.167877 0.307800
0.836273 0.173615 0.318451
0.861877 0.178955 0.328186
0.885406 0.183777 0.337189
0.906952 0.188141 0.345184
0.926147 0.192200 0.352600
0.943085 0.195862 0.358917
0.957336 0.198578 0.364502
0.968933 0.201202 0.368927
0.000000 0.000000 0.000000
0.000000 0.000000 0.000000
0.000000 0.000000 0.000000
0.000000 0.000000 0.000000
0.000000 0.000000 0.000000
0.014282 0.001526 0.003540
0.109772 0.013397 0.031372
0.176941 0.025116 0.057800
0.232910 0.036896 0.081970
0.283844 0.048309 0.104797
0.331421 0.059265 0.125061
0.376343 0.069855 0.143341
0.419220 0.080078 0.159607
0.460419 0.090027 0.175262
0.500244 0.099640 0.190582
0.538727 0.108795 0.205048
0.576233 0.117645 0.219452
0.612823 0.126038 0.233185
0.648468 0.134430 0.246918
0.683075 0.141876 0.260193
0.716614 0.148834 0.272827
0.748871 0.155487 0.285217
0.779602 0.161865 0.296814
0.808716 0.167877 0.307800
0.836273 0.173615 0.318451
0.861877 0.178955 0.328186
0.885406 0.183777 0.337189
0.906952 0.188141 0.345184
0.926147 0.192200 0.352600
0.943085 0.195862 0.358917
0.957336 0.198578 0.364502
0.968933 0.201202 0.368927
0.003540 0.014282 0.001526
0.003540 0.014282 0.001526
0.003540 0.014282 0.001526
0.003540 0.014282 0.001526
0.003540 0.014282 0.001526
0.016083 0.013489 0.001526
0.109772 0.013397 0.018982
0.176941 0.025116 0.045441
0.232910 0.036896 0.071045
0.283844 0.048309 0.094757
0.331421 0.059265 0.115967
0.376343 0.069855 0.135406
0.419220 0.080078 0.152069
0.460419 0.090027 0.168274
0.500244 0.099640 0.183533
0.538727 0.108795 0.198395
0.576233 0.117645 0.213043
0.612823 0.126038 0.226898
0.648468 0.134430 0.240723
0.683075 0.141876 0.253876
0.716614 0.148834 0.266937
0.748871 0.155487 0.279144
0.779602 0.161865 0.291168
0.808716 0.167877 0.302124
0.836273 0.173615 0.312714
0.861877 0.178955 0.322418
0.885406 0.183777 0.331482
0.906952 0.188141 0.339844
0.926147 0.192200 0.347351
0.943085 0.195862 0.353577
0.957336 0.198578 0.359100
0.968933 0.201202 0.363403
0.031372 0.109772 0.013397
0.031372 0.109772 0.013397
0.031372 0.109772 0.013397
0.031372 0.109772 0.013397
0.031372 0.109772 0.013397
0.043457 0.109772 0.013397
0.119934 0.104736 0.013733
0.185089 0.096741 0.024750
0.237244 0.090240 0.036133
0.285065 0.086426 0.048553
0.331421 0.082367 0.059265
0.376343 0.079193 0.069855
0.419220 0.080078 0.084167
0.460419 0.090027 0.106873
0.500244 0.099640 0.127411
0.538727 0.108795 0.144958
0.576233 0.117645 0.161377
0.612823 0.126038 0.176758
0.648468 0.134430 0.192169
0.683075 0.141876 0.206482
0.716614 0.148834 0.220520
0.748871 0.155487 0.233887
0.779602 0.161865 0.246490
0.808716 0.167877 0.258331
0.836273 0.173615 0.269348
0.861877 0.178955 0.280151
0.885406 0.183777 0.289459
0.906952 0.188141 0.298157
0.926147 0.192200 0.305878
0.943085 0.195862 0.312744
0.957336 0.198578 0.318573
0.968933 0.201202 0.323120
0.057800 0.176941 0.025116
0.057800 0.176941 0.025116
0.057800 0.176941 0.025116
0.057800 0.176941 0.025116
0.057800 0.176941 0.025116
0.069153 0.176941 0.025116
0.147949 0.185364 0.024658
0.190674 0.169708 0.025574
0.248474 0.164825 0.036896
0.295929 0.158386 0.048187
0.340210 0.153900 0.058960
0.382782 0.149628 0.068817
0.422791 0.146240 0.079468
0.461426 0.143921 0.090240
0.500244 0.141418 0.099640
0.538727 0.138550 0.108795
0.576233 0.136230 0.117645
0.612823 0.133301 0.126038
0.648468 0.134430 0.137604
0.683075 0.141876 0.154205
0.716614 0.148834 0.169769
0.748871 0.155487 0.184540
0.779602 0.161865 0.198334
0.808716 0.167877 0.211182
0.836273 0.173615 0.223511
0.861877 0.178955 0.234589
0.885406 0.183777 0.244934
0.906952 0.188141 0.253967
0.926147 0.192200 0.262299
0.943085 0.195862 0.269409
0.957336 0.198578 0.275635
0.968933 0.201202 0.280701
0.081970 0.232910 0.036896
0.081970 0.232910 0.036896
0.081970 0.232910 0.036896
0.081970 0.232910 0.036896
0.081970 0.232910 0.036896
0.092590 0.232910 0.036896
0.160736 0.237579 0.035828
0.223816 0.248474 0.037659
0.250885 0.223572 0.037964
0.305664 0.220551 0.049286
0.350464 0.213684 0.058746
0.392242 0.208221 0.068878
0.432465 0.203552 0.078796
0.471161 0.199524 0.088226
0.507812 0.196869 0.099091
0.544312 0.193634 0.107941
0.579224 0.191376 0.117462
0.613953 0.188477 0.125610
0.648468 0.186523 0.134430
0.683075 0.184601 0.141876
0.716614 0.182220 0.148834
0.748871 0.180206 0.155487
0.779602 0.178192 0.161865
0.808716 0.175903 0.167877
0.836273 0.174316 0.173615
0.861877 0.178955 0.185364
0.885406 0.183777 0.196533
0.906952 0.188141 0.206726
0.926147 0.192200 0.215546
0.943085 0.195862 0.223358
0.957336 0.198578 0.229767
0.968933 0.201202 0.235229
0.104797 0.283844 0.048309
0.104797 0.283844 0.048309
0.104797 0.283844 0.048309
0.104797 0.283844 0.048309
0.104797 0.283844 0.048309
0.114319 0.283844 0.048309
0.174408 0.285492 0.048035
0.233063 0.296295 0.047729
0.290833 0.305664 0.049286
0.305664 0.272278 0.049286
0.356903 0.269562 0.060394
0.401031 0.264069 0.070221
0.441345 0.258209 0.079132
0.479797 0.253265 0.088470
0.516785 0.249207 0.098572
0.552979 0.245544 0.107056
0.587952 0.242249 0.116516
0.622131 0.239471 0.125000
0.656219 0.236115 0.132111
0.687866 0.234558 0.141724
0.719116 0.232361 0.149109
0.750061 0.229584 0.154816
0.779602 0.227844 0.161865
0.808716 0.226074 0.167877
0.836273 0.224518 0.173615
0.861877 0.222870 0.178955
0.885406 0.221130 0.183777
0.906952 0.219910 0.188141
0.926147 0.218811 0.192200
0.943085 0.217438 0.195862
0.957336 0.216309 0.198578
0.968933 0.215759 0.201202
0.125061 0.331421 0.059265
0.125061 0.331421 0.059265
0.125061 0.331421 0.059265
0.125061 0.331421 0.059265
0.125061 0.331421 0.059265
0.133881 0.331421 0.059265
0.188782 0.331421 0.059265
0.243713 0.340698 0.058472
0.298584 0.350464 0.059479
0.350403 0.356903 0.060394
0.356903 0.317780 0.060394
0.405212 0.315491 0.071106
0.449738 0.311523 0.080627
0.487946 0.305481 0.089569
0.525146 0.300385 0.098755
0.561340 0.295685 0.106812
0.596130 0.291840 0.116180
0.630005 0.288300 0.124939
0.663635 0.285095 0.132629
0.695709 0.282318 0.141083
0.727386 0.279205 0.147614
0.757568 0.276825 0.154358
0.786194 0.275085 0.161499
0.812897 0.273499 0.168762
0.839081 0.271576 0.174042
0.863312 0.269379 0.179230
0.885468 0.268036 0.184448
0.906952 0.266418 0.188141
0.926147 0.265259 0.192200
0.943085 0.264069 0.195862
0.957336 0.263153 0.198578
0.968933 0.262573 0.201202
0.143341 0.376343 0.069855
0.143341 0.376343 0.069855
0.143341 0.376343 0.069855
0.143341 0.376343 0.069855
0.143341 0.376343 0.069855
0.150879 0.376343 0.069855
0.203644 0.376343 0.069855
0.255127 0.382782 0.069305
0.307556 0.392761 0.068451
0.359650 0.401550 0.069946
0.405212 0.404297 0.071106
0.405212 0.360992 0.071106
0.451355 0.358521 0.081573
0.495697 0.356323 0.091675
0.533051 0.349945 0.099701
0.568604 0.344666 0.108795
0.603973 0.339844 0.116364
0.637604 0.335754 0.125336
0.671722 0.331665 0.131744
0.703339 0.328644 0.140625
0.735565 0.324982 0.146057
0.765106 0.322632 0.154358
0.793823 0.319946 0.160492
0.820984 0.317749 0.167145
0.847382 0.315216 0.171478
0.870544 0.314270 0.178772
0.893036 0.312225 0.183167
0.913116 0.310699 0.187775
0.930969 0.309662 0.192383
0.947876 0.307190 0.194061
0.960602 0.307190 0.198425
0.972168 0.305481 0.199463
0.159607 0.419220 0.080078
0.159607 0.419220 0.080078
0.159607 0.419220 0.080078
0.159607 0.419220 0.080078
0.159607 0.419220 0.080078
0.167023 0.419220 0.080078
0.218079 0.419220 0.080078
0.266571 0.422821 0.080078
0.316803 0.432465 0.079559
0.366791 0.441376 0.080017
0.416443 0.449738 0.081573
0.451355 0.443665 0.081573
0.451355 0.402008 0.081573
0.495697 0.399841 0.091675
0.538513 0.397522 0.101379
0.576263 0.392639 0.109711
0.611542 0.387238 0.117188
0.645966 0.382385 0.124512
0.678680 0.377960 0.132996
0.710724 0.374115 0.141113
0.742371 0.370331 0.147339
0.772217 0.367218 0.154388
0.801453 0.364136 0.159760
0.828705 0.361237 0.165344
0.854187 0.358856 0.171692
0.877716 0.357330 0.178284
0.900299 0.355072 0.182190
0.920715 0.353210 0.186554
0.938721 0.351929 0.190826
0.954224 0.350861 0.194550
0.968445 0.348816 0.196136
0.978699 0.348541 0.199646
0.175262 0.460419 0.090027
0.175262 0.460419 0.090027
0.175262 0.460419 0.090027
0.175262 0.460419 0.090027
0.175262 0.460419 0.090027
0.182220 0.460419 0.090027
0.231873 0.460419 0.090027
0.277954 0.462128 0.089325
0.326660 0.471191 0.088867
0.375031 0.479797 0.089325
0.423248 0.488556 0.089264
0.470276 0.495697 0.091675
0.495697 0.481903 0.091675
0.495697 0.441620 0.091675
0.538513 0.439331 0.101379
0.579956 0.437317 0.110779
0.618805 0.433807 0.118744
0.653015 0.428192 0.125946
0.686249 0.423004 0.132996
0.718079 0.418610 0.141510
0.749908 0.414337 0.146576
0.780182 0.410583 0.152618
0.808716 0.407471 0.159332
0.835114 0.404694 0.166779
0.860870 0.401886 0.172302
0.884613 0.399811 0.178284
0.907379 0.397156 0.181702
0.927948 0.395050 0.185425
0.944855 0.394348 0.191833
0.961792 0.391846 0.192719
0.974915 0.391144 0.196655
0.985077 0.390533 0.199799
0.190582 0.500244 0.099640
0.190582 0.500244 0.099640
0.190582 0.500244 0.099640
0.190582 0.500244 0.099640
0.190582 0.500244 0.099640
0.197357 0.500244 0.099640
0.245544 0.500244 0.099640
0.290314 0.500244 0.099640
0.336975 0.508789 0.098267
0.383820 0.517487 0.097870
0.430573 0.525818 0.098206
0.476868 0.533722 0.099335
0.520416 0.538513 0.101379
0.538513 0.518768 0.101379
0.538513 0.479706 0.101379
0.579956 0.477692 0.110779
0.620453 0.475464 0.120026
0.659821 0.473419 0.128204
0.692749 0.467651 0.135620
0.725922 0.462646 0.140533
0.756348 0.458252 0.148682
0.786926 0.453949 0.153748
0.815765 0.450073 0.159210
0.842712 0.446747 0.165833
0.868713 0.443665 0.170624
0.892731 0.441010 0.175812
0.914490 0.438690 0.181366
0.933838 0.437042 0.186981
0.952148 0.434753 0.190369
0.967896 0.433350 0.193726
0.981140 0.432037 0.197235
0.992889 0.430481 0.197784
0.205048 0.538727 0.108795
0.205048 0.538727 0.108795
0.205048 0.538727 0.108795
0.205048 0.538727 0.108795
0.205048 0.538727 0.108795
0.211578 0.538727 0.108795
0.258667 0.538727 0.108795
0.302521 0.538727 0.108795
0.347260 0.544342 0.108612
0.392731 0.553009 0.107849
0.438202 0.561371 0.107788
0.483368 0.569550 0.108368
0.528320 0.577179 0.109528
0.568481 0.579956 0.110779
0.579956 0.554626 0.110779
0.579956 0.516754 0.110779
0.620453 0.514618 0.120026
0.659821 0.512634 0.128418
0.698181 0.510559 0.136475
0.732605 0.506195 0.142090
0.763489 0.501190 0.148834
0.793457 0.496368 0.154846
0.821625 0.492310 0.161865
0.848846 0.488647 0.167603
0.875061 0.485321 0.171478
0.899323 0.482117 0.176147
0.921295 0.479401 0.181061
0.940826 0.477539 0.186462
0.959290 0.475250 0.189484
0.975372 0.473358 0.192322
0.988525 0.471832 0.195587
0.999054 0.471039 0.198486
0.219452 0.576233 0.117645
0.219452 0.576233 0.117645
0.219452 0.576233 0.117645
0.219452 0.576233 0.117645
0.219452 0.576233 0.117645
0.225800 0.576233 0.117645
0.271851 0.576233 0.117645
0.315002 0.576233 0.117645
0.357452 0.580078 0.116364
0.401855 0.587982 0.117371
0.446289 0.596161 0.117126
0.490204 0.604004 0.117523
0.533936 0.611542 0.118439
0.577454 0.618805 0.120361
0.615143 0.620453 0.120026
0.620453 0.589569 0.120026
0.620453 0.552612 0.120026
0.659821 0.550690 0.128418
0.698181 0.548645 0.136475
0.735443 0.546539 0.143921
0.769501 0.543549 0.151154
0.799866 0.538483 0.156281
0.828369 0.533936 0.162354
0.855896 0.529938 0.167389
0.881287 0.526245 0.173096
0.905762 0.522919 0.176819
0.926758 0.520447 0.183868
0.947845 0.517517 0.186005
0.965027 0.515411 0.191101
0.981232 0.513672 0.193756
0.994507 0.511902 0.196686
1.000000 0.510712 0.199249
0.233185 0.612823 0.126038
0.233185 0.612823 0.126038
0.233185 0.612823 0.126038
0.233185 0.612823 0.126038
0.233185 0.612823 0.126038
0.239716 0.612823 0.126038
0.284882 0.612823 0.126038
0.326935 0.612823 0.126038
0.367859 0.613983 0.126434
0.411407 0.622162 0.125885
0.454803 0.630951 0.124115
0.497864 0.638672 0.124664
0.540680 0.645966 0.125793
0.583588 0.653839 0.125488
0.625214 0.659821 0.128418
0.659821 0.658997 0.128418
0.659821 0.623749 0.128418
0.659821 0.587677 0.128418
0.698181 0.585724 0.136475
0.735443 0.583649 0.143921
0.771545 0.581848 0.150970
0.806061 0.579956 0.157684
0.834900 0.575317 0.163391
0.862762 0.570862 0.167511
0.888458 0.566864 0.172455
0.912079 0.563385 0.177826
0.933258 0.560303 0.184235
0.954559 0.557159 0.185822
0.972076 0.555115 0.190643
0.987000 0.553070 0.195557
1.000000 0.551483 0.197815
1.000000 0.549530 0.197876
0.246918 0.648468 0.134430
0.246918 0.648468 0.134430
0.246918 0.648468 0.134430
0.246918 0.648468 0.134430
0.246918 0.648468 0.134430
0.253021 0.648468 0.134430
0.297150 0.648468 0.134430
0.338928 0.648468 0.134430
0.378723 0.648468 0.134430
0.420898 0.656250 0.132843
0.463226 0.663696 0.133667
0.505585 0.671722 0.132782
0.547699 0.679565 0.132355
0.589203 0.686279 0.134644
0.630981 0.693573 0.135254
0.670227 0.698181 0.136475
0.698181 0.691833 0.136475
0.698181 0.657196 0.136475
0.698181 0.621918 0.136475
0.735443 0.619843 0.143921
0.771545 0.618195 0.150970
0.806061 0.616211 0.157684
0.839294 0.614624 0.164154
0.868408 0.611298 0.169922
0.894379 0.607086 0.174103
0.918213 0.603271 0.179230
0.940826 0.599854 0.182281
0.959930 0.596771 0.188171
0.977417 0.594238 0.192657
0.993896 0.592041 0.194458
1.000000 0.590088 0.196808
1.000000 0.588684 0.199127
0.260193 0.683075 0.141876
0.260193 0.683075 0.141876
0.260193 0.683075 0.141876
0.260193 0.683075 0.141876
0.260193 0.683075 0.141876
0.266174 0.683075 0.141876
0.309662 0.683075 0.141876
0.350769 0.683075 0.141876
0.389832 0.683075 0.141876
0.430237 0.688873 0.140137
0.471924 0.696716 0.139679
0.513397 0.704498 0.139587
0.554718 0.711853 0.139923
0.595764 0.718994 0.141022
0.636566 0.725922 0.142090
0.677246 0.732635 0.143494
0.713776 0.735443 0.143921
0.735443 0.723358 0.143921
0.735443 0.689392 0.143921
0.735443 0.654999 0.143921
0.771545 0.653351 0.150970
0.806061 0.651398 0.157684
0.839294 0.649841 0.164154
0.870544 0.647980 0.170258
0.900177 0.646393 0.175934
0.924255 0.642487 0.180450
0.945892 0.638794 0.185425
0.966339 0.635651 0.188568
0.984222 0.632782 0.192383
0.999420 0.630310 0.196655
1.000000 0.628418 0.198395
1.000000 0.626831 0.200348
0.272827 0.716614 0.148834
0.272827 0.716614 0.148834
0.272827 0.716614 0.148834
0.272827 0.716614 0.148834
0.272827 0.716614 0.148834
0.278625 0.716614 0.148834
0.321320 0.716614 0.148834
0.361847 0.716614 0.148834
0.400818 0.716614 0.148834
0.439667 0.720245 0.147949
0.480499 0.727417 0.148499
0.521301 0.735596 0.147156
0.562012 0.743378 0.146210
0.601959 0.749969 0.148132
0.642639 0.757324 0.148163
0.682831 0.764465 0.148438
0.722260 0.770416 0.150879
0.756409 0.771545 0.150970
0.771545 0.753448 0.150970
0.771545 0.720337 0.150970
0.771545 0.687225 0.150970
0.806061 0.685455 0.157684
0.839294 0.683899 0.164154
0.870544 0.682037 0.170258
0.900177 0.680573 0.176117
0.927765 0.679077 0.181519
0.951996 0.676758 0.186188
0.972656 0.673401 0.188721
0.990723 0.670502 0.192291
1.000000 0.667908 0.196014
1.000000 0.665710 0.199890
1.000000 0.664246 0.201996
0.285217 0.748871 0.155487
0.285217 0.748871 0.155487
0.285217 0.748871 0.155487
0.285217 0.748871 0.155487
0.285217 0.748871 0.155487
0.290955 0.748871 0.155487
0.333008 0.748871 0.155487
0.373047 0.748871 0.155487
0.411285 0.748871 0.155487
0.449066 0.750092 0.155487
0.489227 0.757599 0.155273
0.529266 0.766174 0.152924
0.569000 0.773285 0.153107
0.608734 0.780182 0.154083
0.648254 0.786957 0.155029
0.688263 0.794647 0.154358
0.727325 0.801025 0.155945
0.765350 0.806061 0.157684
0.797974 0.806061 0.157684
0.806061 0.782257 0.157684
0.806061 0.750031 0.157684
0.806061 0.718140 0.157684
0.839294 0.716278 0.164154
0.870544 0.714874 0.170258
0.900177 0.713257 0.176117
0.927765 0.711792 0.181519
0.953125 0.710297 0.186554
0.976318 0.709137 0.191162
0.995850 0.707062 0.194397
1.000000 0.704498 0.197937
1.000000 0.702179 0.199066
1.000000 0.700378 0.200714
0.296814 0.779602 0.161865
0.296814 0.779602 0.161865
0.296814 0.779602 0.161865
0.296814 0.779602 0.161865
0.296814 0.779602 0.161865
0.302429 0.779602 0.161865
0.343903 0.779602 0.161865
0.383484 0.779602 0.161865
0.421478 0.779602 0.161865
0.458130 0.779602 0.161865
0.497559 0.786224 0.162323
0.536835 0.793854 0.161499
0.576019 0.801483 0.161041
0.615234 0.808716 0.160767
0.654358 0.815826 0.160828
0.693268 0.822693 0.161194
0.732208 0.829437 0.161957
0.770874 0.836121 0.163025
0.806305 0.839294 0.164154
0.838013 0.839294 0.164154
0.839294 0.809143 0.164154
0.839294 0.778320 0.164154
0.839294 0.747467 0.164154
0.870544 0.746002 0.170258
0.900177 0.744354 0.176117
0.927765 0.743103 0.181519
0.953125 0.741760 0.186554
0.976318 0.740448 0.191162
0.997070 0.739380 0.195068
1.000000 0.738495 0.198639
1.000000 0.737305 0.200470
1.000000 0.735413 0.204559
0.307800 0.808716 0.167877
0.307800 0.808716 0.167877
0.307800 0.808716 0.167877
0.307800 0.808716 0.167877
0.307800 0.808716 0.167877
0.313690 0.808716 0.167877
0.354218 0.808716 0.167877
0.393372 0.808716 0.167877
0.431000 0.808716 0.167877
0.467377 0.808716 0.167877
0.505554 0.814270 0.167480
0.544434 0.822174 0.165833
0.583038 0.828735 0.166870
0.621918 0.836487 0.165649
0.660645 0.843872 0.164825
0.698822 0.849976 0.167023
0.736633 0.855927 0.168854
0.775116 0.862793 0.169098
0.813202 0.869446 0.169647
0.845978 0.870544 0.170258
0.870544 0.864655 0.170258
0.870544 0.834290 0.170258
0.870544 0.804565 0.170258
0.870544 0.775513 0.170258
0.900177 0.773956 0.176117
0.927765 0.772583 0.181519
0.953125 0.771393 0.186554
0.976318 0.770081 0.191162
0.997070 0.769104 0.195068
1.000000 0.768036 0.198639
1.000000 0.767181 0.201752
1.000000 0.766541 0.204071
0.318451 0.836273 0.173615
0.318451 0.836273 0.173615
0.318451 0.836273 0.173615
0.318451 0.836273 0.173615
0.318451 0.836273 0.173615
0.323914 0.836273 0.173615
0.364471 0.836273 0.173615
0.403107 0.836273 0.173615
0.440247 0.836273 0.173615
0.476227 0.836273 0.173615
0.513336 0.840454 0.172699
0.551697 0.847443 0.172729
0.589752 0.854248 0.173004
0.628235 0.862244 0.170929
0.666199 0.868744 0.172211
0.703857 0.875092 0.173218
0.742126 0.882416 0.172333
0.779602 0.888489 0.174011
0.816986 0.894409 0.175934
0.853424 0.900177 0.176117
0.884064 0.900177 0.176117
0.900177 0.886658 0.176117
0.900177 0.857544 0.176117
0.900177 0.829163 0.176117
0.900177 0.801849 0.176117
0.927765 0.800446 0.181519
0.953125 0.799194 0.186554
0.976318 0.798065 0.191162
0.997070 0.796814 0.195068
1.000000 0.795868 0.198639
1.000000 0.795074 0.201752
1.000000 0.794525 0.204071
0.328186 0.861877 0.178955
0.328186 0.861877 0.178955
0.328186 0.861877 0.178955
0.328186 0.861877 0.178955
0.328186 0.861877 0.178955
0.333618 0.861877 0.178955
0.373566 0.861877 0.178955
0.411987 0.861877 0.178955
0.448853 0.861877 0.178955
0.484589 0.861877 0.178955
0.520538 0.864807 0.177551
0.558655 0.871979 0.177094
0.596405 0.878998 0.176727
0.633972 0.885864 0.176758
0.671753 0.892792 0.177094
0.709198 0.899384 0.177460
0.746613 0.905792 0.178741
0.783813 0.912079 0.179535
0.821686 0.919373 0.178680
0.858490 0.925323 0.180206
0.891113 0.927765 0.181519
0.920563 0.927765 0.181519
0.927765 0.906433 0.181519
0.927765 0.878815 0.181519
0.927765 0.852020 0.181519
0.927765 0.826416 0.181519
0.953125 0.825134 0.186554
0.976318 0.823914 0.191162
0.997070 0.822815 0.195068
1.000000 0.821960 0.198639
1.000000 0.821198 0.201752
1.000000 0.820557 0.204071
0.337189 0.885406 0.183777
0.337189 0.885406 0.183777
0.337189 0.885406 0.183777
0.337189 0.885406 0.183777
0.337189 0.885406 0.183777
0.342560 0.885406 0.183777
0.382263 0.885406 0.183777
0.420197 0.885406 0.183777
0.456757 0.885406 0.183777
0.492188 0.885406 0.183777
0.527161 0.886963 0.182648
0.564972 0.893097 0.184448
0.602417 0.901550 0.180939
0.639893 0.908813 0.180481
0.677124 0.914520 0.182648
0.714020 0.921326 0.182526
0.751160 0.927948 0.182770
0.788361 0.934448 0.183258
0.825195 0.940857 0.184204
0.861755 0.947052 0.185028
0.897552 0.953125 0.185974
0.926941 0.953125 0.186554
0.953125 0.951294 0.186554
0.953125 0.924072 0.186554
0.953125 0.897705 0.186554
0.953125 0.872650 0.186554
0.953125 0.849121 0.186554
0.976318 0.847900 0.191162
0.997070 0.846863 0.195068
1.000000 0.845978 0.198639
1.000000 0.845001 0.201752
1.000000 0.844421 0.204071
0.345184 0.906952 0.188141
0.345184 0.906952 0.188141
0.345184 0.906952 0.188141
0.345184 0.906952 0.188141
0.345184 0.906952 0.188141
0.350769 0.906952 0.188141
0.389832 0.906952 0.188141
0.427551 0.906952 0.188141
0.464020 0.906952 0.188141
0.499390 0.906952 0.188141
0.533752 0.906952 0.188141
0.570831 0.914642 0.186310
0.608032 0.920746 0.187683
0.644928 0.928040 0.186615
0.682068 0.935120 0.185913
0.719116 0.942261 0.185394
