testdata/filters/luthouse/HK09 - Solana.CUBE
#Created by: Adobe Photoshop Export Color Lookup Plugin
#Copyright: (C) Copyright 2017 @ 2017 Joseph Angelo Todaro
TITLE "HK09 - Solana"
#LUT size
LUT_3D_SIZE 32
#data domain
DOMAIN_MIN 0.0 0.0 0.0
DOMAIN_MAX 1.0 1.0 1.0
#LUT data points
0.040070 0.023376 0.028625
0.040070 0.023376 0.028625
0.040070 0.023376 0.028625
0.040070 0.023376 0.028625
0.045898 0.023376 0.028625
0.063477 0.023376 0.028625
0.083862 0.023376 0.028625
0.107666 0.023376 0.028625
0.135956 0.023376 0.028625
0.169708 0.023376 0.028625
0.208893 0.023376 0.028625
0.251617 0.023376 0.030090
0.295380 0.025543 0.033844
0.339111 0.029175 0.037903
0.381622 0.032959 0.042206
0.422180 0.036865 0.046661
0.460175 0.040833 0.051208
0.495331 0.044800 0.055725
0.527740 0.048767 0.060181
0.557770 0.052673 0.064606
0.585754 0.056549 0.068909
0.611816 0.060364 0.073181
0.636169 0.064117 0.077332
0.658966 0.067810 0.081390
0.680328 0.071381 0.085327
0.700623 0.074951 0.089233
0.720001 0.078430 0.093048
0.738586 0.081879 0.096832
0.756348 0.085297 0.100525
0.773499 0.088684 0.104218
0.790222 0.092072 0.107880
0.806610 0.095428 0.111511
0.040070 0.023376 0.028625
0.040070 0.023376 0.028625
0.040070 0.023376 0.028625
0.040070 0.023376 0.028625
0.049133 0.023376 0.028625
0.067230 0.024384 0.028625
0.088013 0.026337 0.028625
0.112183 0.028473 0.028625
0.140686 0.030823 0.028625
0.174683 0.033630 0.028625
0.213989 0.036865 0.029388
0.256470 0.040527 0.032898
0.300110 0.044617 0.036774
0.343658 0.049072 0.040955
0.386017 0.053741 0.045410
0.426422 0.058594 0.049988
0.464233 0.063446 0.054688
0.499207 0.068268 0.059357
0.531555 0.072998 0.063934
0.561493 0.077606 0.068420
0.589355 0.082123 0.072876
0.615295 0.086548 0.077179
0.639557 0.090820 0.081421
0.662323 0.095032 0.085571
0.683624 0.099060 0.089600
0.703827 0.103027 0.093536
0.723206 0.106964 0.097412
0.741699 0.110779 0.101257
0.759430 0.114532 0.105042
0.776581 0.118225 0.108765
0.793274 0.121979 0.112396
0.809601 0.125641 0.116180
0.040070 0.030884 0.028625
0.040070 0.033112 0.028625
0.040070 0.035339 0.028625
0.040070 0.037567 0.028625
0.052277 0.039764 0.028625
0.070801 0.042023 0.028625
0.091980 0.044373 0.028625
0.116486 0.046936 0.028625
0.145233 0.049866 0.028625
0.179413 0.053223 0.028839
0.218719 0.057220 0.032013
0.261108 0.061646 0.035583
0.304504 0.066589 0.039551
0.347900 0.071838 0.043884
0.390106 0.077332 0.048462
0.430328 0.082886 0.053223
0.468048 0.088440 0.058014
0.502899 0.093872 0.062836
0.535095 0.099182 0.067505
0.564941 0.104309 0.072083
0.592682 0.109283 0.076630
0.618591 0.114136 0.081055
0.642792 0.118835 0.085327
0.665466 0.123352 0.089600
0.686707 0.127747 0.093628
0.706909 0.132019 0.097656
0.726166 0.136200 0.101562
0.744629 0.140259 0.105469
0.762360 0.144287 0.109253
0.779449 0.148224 0.113068
0.796082 0.152100 0.116821
0.812439 0.155975 0.120575
0.040070 0.048126 0.028625
0.040070 0.050781 0.028625
0.040070 0.053528 0.028625
0.040070 0.056152 0.028625
0.055267 0.058777 0.028625
0.074158 0.061462 0.028625
0.095703 0.064240 0.028625
0.120422 0.067261 0.028625
0.149414 0.070648 0.028625
0.183716 0.074554 0.031219
0.223053 0.079102 0.034454
0.265289 0.084167 0.038147
0.308594 0.089691 0.042236
0.351807 0.095520 0.046692
0.393860 0.101562 0.051392
0.433929 0.107697 0.056274
0.471466 0.113739 0.061188
0.506226 0.119629 0.066040
0.538330 0.125305 0.070831
0.568085 0.130798 0.075531
0.595764 0.136108 0.080139
0.621582 0.141235 0.084625
0.645721 0.146210 0.088989
0.668304 0.150970 0.093262
0.689514 0.155487 0.097412
0.709656 0.159973 0.101440
0.728912 0.164337 0.105469
0.747314 0.168549 0.109375
0.764984 0.172668 0.113251
0.782104 0.176727 0.117065
0.798676 0.180695 0.120819
0.814972 0.184692 0.124573
0.040070 0.067352 0.028625
0.040070 0.070465 0.028625
0.040070 0.073517 0.028625
0.041199 0.076538 0.028625
0.058105 0.079498 0.028625
0.077393 0.082520 0.028625
0.099213 0.085632 0.028625
0.124207 0.088989 0.028625
0.153412 0.092773 0.030640
0.187805 0.097107 0.033447
0.227081 0.102051 0.036774
0.269165 0.107574 0.040558
0.312347 0.113525 0.044800
0.355408 0.119843 0.049377
0.397308 0.126282 0.054230
0.437286 0.132751 0.059143
0.474731 0.139221 0.064209
0.509369 0.145355 0.069153
0.541382 0.151306 0.074036
0.571045 0.157013 0.078796
0.598663 0.162506 0.083496
0.624390 0.167847 0.088043
0.648468 0.172943 0.092499
0.671021 0.177826 0.096832
0.692169 0.182526 0.101013
0.712250 0.187073 0.105133
0.731445 0.191467 0.109131
0.749817 0.195801 0.113098
0.767487 0.200012 0.117004
0.784546 0.204102 0.120819
0.801147 0.208130 0.124634
0.817413 0.212097 0.128448
0.040070 0.088470 0.028625
0.040070 0.091888 0.028625
0.040070 0.095306 0.028625
0.043640 0.098602 0.028625
0.060944 0.101837 0.028625
0.080536 0.105103 0.028625
0.102631 0.108490 0.028625
0.127899 0.112122 0.030304
0.157227 0.116150 0.032806
0.191742 0.120789 0.035736
0.231049 0.126068 0.039154
0.273041 0.131927 0.043030
0.316010 0.138245 0.047394
0.358948 0.144867 0.052032
0.400696 0.151611 0.057007
0.440552 0.158386 0.062073
0.477905 0.164978 0.067200
0.512421 0.171387 0.072266
0.544342 0.177490 0.077179
0.573914 0.183319 0.082031
0.601440 0.188934 0.086792
0.627167 0.194397 0.091400
0.651123 0.199493 0.095917
0.673645 0.204468 0.100281
0.694763 0.209137 0.104523
0.714813 0.213715 0.108673
0.733948 0.218170 0.112762
0.752289 0.222443 0.116760
0.769928 0.226593 0.120697
0.786957 0.230652 0.124542
0.803497 0.234619 0.128418
0.819794 0.238556 0.132263
0.040070 0.111908 0.028625
0.040070 0.115570 0.028625
0.040070 0.119232 0.028625
0.046143 0.122742 0.028625
0.063873 0.126221 0.028625
0.083801 0.129700 0.028625
0.106262 0.133270 0.030273
0.131653 0.137115 0.032532
0.161224 0.141388 0.035095
0.195801 0.146240 0.038086
0.234985 0.151764 0.041595
0.276855 0.157867 0.045593
0.319702 0.164398 0.050018
0.362488 0.171204 0.054840
0.404114 0.178192 0.059906
0.443848 0.185059 0.065063
0.481049 0.191803 0.070312
0.515472 0.198303 0.075439
0.547302 0.204468 0.080444
0.576782 0.210358 0.085358
0.604248 0.215973 0.090179
0.629883 0.221375 0.094879
0.653839 0.226501 0.099457
0.676300 0.231415 0.103882
0.697327 0.236053 0.108154
0.717346 0.240540 0.112335
0.736450 0.244904 0.116455
0.754791 0.249115 0.120483
0.772369 0.253174 0.124420
0.789368 0.257141 0.128357
0.805908 0.261047 0.132263
0.822144 0.264893 0.136108
0.040070 0.138336 0.028625
0.040070 0.142181 0.028625
0.040070 0.146057 0.028625
0.048889 0.149719 0.028625
0.067047 0.153351 0.028625
0.087341 0.157013 0.030487
0.109985 0.160736 0.032623
0.135712 0.164703 0.034943
0.165344 0.169098 0.037567
0.200012 0.174103 0.040649
0.239227 0.179779 0.044250
0.280884 0.186035 0.048370
0.323639 0.192749 0.052917
0.366241 0.199646 0.057831
0.407745 0.206696 0.063019
0.447327 0.213593 0.068298
0.484406 0.220337 0.073608
0.518707 0.226776 0.078857
0.550476 0.232880 0.083984
0.579865 0.238678 0.088928
0.607269 0.244263 0.093842
0.632782 0.249542 0.098602
0.656677 0.254547 0.103241
0.679077 0.259338 0.107697
0.700043 0.263916 0.111969
0.720032 0.268250 0.116241
0.739136 0.272522 0.120392
0.757385 0.276611 0.124451
0.774963 0.280609 0.128448
0.791931 0.284454 0.132416
0.808472 0.288300 0.136353
0.824646 0.292053 0.140198
0.040070 0.168427 0.028625
0.040070 0.172455 0.028625
0.040070 0.176422 0.028625
0.051971 0.180206 0.028900
0.070557 0.183960 0.030945
0.091187 0.187683 0.033051
0.114136 0.191467 0.035248
0.140076 0.195587 0.037628
0.169922 0.200012 0.040314
0.204651 0.205109 0.043518
0.243774 0.210815 0.047241
0.285339 0.217072 0.051453
0.327850 0.223724 0.056152
0.370300 0.230621 0.061188
0.411621 0.237549 0.066498
0.451050 0.244354 0.071869
0.488037 0.250977 0.077301
0.522247 0.257263 0.082642
0.553864 0.263214 0.087830
0.583160 0.268860 0.092896
0.610474 0.274261 0.097870
0.635956 0.279419 0.102692
0.659760 0.284302 0.107361
0.682098 0.288971 0.111877
0.703033 0.293396 0.116272
0.722992 0.297668 0.120514
0.741974 0.301819 0.124725
0.760254 0.305817 0.128845
0.777771 0.309692 0.132874
0.794708 0.313477 0.136810
0.811188 0.317200 0.140778
0.827393 0.320831 0.144714
0.040070 0.202576 0.028625
0.040070 0.206635 0.028625
0.040070 0.210663 0.029541
0.055450 0.214478 0.031677
0.074493 0.218231 0.033813
0.095520 0.221924 0.035950
0.118805 0.225739 0.038239
0.144989 0.229767 0.040680
0.175018 0.234161 0.043518
0.209778 0.239197 0.046783
0.248779 0.244812 0.050629
0.290131 0.250977 0.055023
0.332520 0.257446 0.059814
0.374786 0.264130 0.064972
0.415955 0.270844 0.070435
0.455231 0.277496 0.075928
0.492035 0.283905 0.081451
0.526154 0.290009 0.086914
0.557617 0.295807 0.092194
0.586823 0.301300 0.097382
0.614014 0.306549 0.102356
0.639404 0.311554 0.107239
0.663177 0.316315 0.111969
0.685394 0.320831 0.116547
0.706299 0.325134 0.121002
0.726166 0.329285 0.125305
0.745178 0.333344 0.129578
0.763367 0.337189 0.133728
0.780853 0.340973 0.137817
0.797760 0.344635 0.141815
0.814240 0.348236 0.145782
0.830383 0.351807 0.149689
0.040070 0.239624 0.028625
0.040070 0.243622 0.030334
0.041931 0.247559 0.032593
0.059387 0.251312 0.034821
0.078857 0.254944 0.036987
0.100311 0.258575 0.039246
0.123901 0.262238 0.041595
0.150330 0.266174 0.044128
0.180511 0.270477 0.047058
0.215332 0.275299 0.050476
0.254181 0.280792 0.054474
0.295319 0.286682 0.058960
0.337524 0.292969 0.063904
0.379639 0.299500 0.069244
0.420593 0.306000 0.074768
0.459747 0.312408 0.080414
0.496338 0.318634 0.086060
0.530304 0.324554 0.091583
0.561676 0.330170 0.096985
0.590759 0.335480 0.102264
0.617859 0.340576 0.107330
0.643158 0.345428 0.112274
0.666809 0.350037 0.117096
0.689026 0.354431 0.121704
0.709839 0.358643 0.126251
0.729675 0.362671 0.130585
0.748596 0.366547 0.134857
0.766754 0.370300 0.139069
0.784210 0.373993 0.143219
0.801086 0.377533 0.147186
0.817535 0.381042 0.151215
0.833618 0.384491 0.155182
0.040070 0.278015 0.031372
0.040070 0.281860 0.033661
0.045624 0.285675 0.035950
0.063660 0.289307 0.038269
0.083649 0.292816 0.040497
0.105469 0.296326 0.042847
0.129425 0.299896 0.045319
0.156067 0.303680 0.047974
0.186401 0.307831 0.050995
0.221222 0.312500 0.054565
0.259888 0.317780 0.058655
0.300873 0.323547 0.063293
0.342804 0.329620 0.068390
0.384705 0.335907 0.073853
0.425507 0.342224 0.079498
0.464478 0.348419 0.085297
0.500946 0.354431 0.091034
0.534760 0.360168 0.096710
0.565948 0.365601 0.102173
0.594940 0.370758 0.107544
0.621918 0.375702 0.112732
0.647125 0.380402 0.117706
0.670746 0.384857 0.122589
0.692871 0.389099 0.127289
0.713593 0.393158 0.131836
0.733368 0.397064 0.136230
0.752228 0.400848 0.140564
0.770386 0.404480 0.144806
0.787750 0.408020 0.148956
0.804626 0.411469 0.153015
0.820984 0.414886 0.157013
0.837128 0.418182 0.161011
0.040070 0.316833 0.034821
0.040070 0.320557 0.037231
0.049591 0.324219 0.039612
0.068237 0.327698 0.041992
0.088745 0.331085 0.044373
0.110992 0.334534 0.046814
0.135223 0.337982 0.049347
0.162109 0.341614 0.052124
0.192596 0.345612 0.055298
0.227417 0.350159 0.058899
0.265900 0.355255 0.063141
0.306610 0.360809 0.067932
0.348358 0.366669 0.073181
0.390045 0.372742 0.078766
0.430634 0.378845 0.084595
0.469360 0.384857 0.090485
0.505707 0.390656 0.096375
0.539337 0.396240 0.102142
0.570435 0.401489 0.107727
0.599304 0.406464 0.113129
0.626190 0.411224 0.118408
0.651306 0.415771 0.123505
0.674805 0.420044 0.128418
0.696838 0.424194 0.133179
0.717529 0.428101 0.137756
0.737244 0.431885 0.142181
0.756073 0.435547 0.146576
0.774139 0.439087 0.150848
0.791504 0.442505 0.155029
0.808319 0.445831 0.159088
0.824646 0.449097 0.163177
0.840729 0.452362 0.167206
0.040070 0.355530 0.038574
0.040070 0.359100 0.041046
0.053894 0.362671 0.043579
0.073151 0.366028 0.046021
0.094147 0.369354 0.048523
0.116791 0.372620 0.051056
0.141327 0.375946 0.053711
0.168396 0.379456 0.056580
0.198944 0.383331 0.059814
0.233704 0.387695 0.063599
0.272003 0.392609 0.067963
0.312531 0.397980 0.072906
0.354095 0.403656 0.078278
0.395538 0.409515 0.084015
0.435913 0.415405 0.089935
0.474457 0.421234 0.096008
0.510620 0.426849 0.101959
0.544098 0.432190 0.107880
0.575073 0.437286 0.113525
0.603790 0.442108 0.119019
0.630554 0.446716 0.124329
0.655548 0.451111 0.129517
0.678986 0.455292 0.134460
0.700958 0.459259 0.139313
0.721588 0.463013 0.143921
0.741211 0.466675 0.148407
0.759979 0.470245 0.152832
0.778015 0.473633 0.157166
0.795319 0.476959 0.161316
0.812103 0.480194 0.165466
0.828430 0.483337 0.169525
0.844482 0.486481 0.173645
0.040070 0.393738 0.042511
0.040466 0.397217 0.045135
0.058472 0.400604 0.047760
0.078278 0.403870 0.050354
0.099762 0.407074 0.052917
0.122711 0.410217 0.055573
0.147583 0.413422 0.058319
0.174866 0.416840 0.061249
0.205505 0.420563 0.064636
0.240173 0.424805 0.068542
0.278229 0.429535 0.073059
0.318573 0.434723 0.078094
0.359863 0.440216 0.083649
0.401123 0.445862 0.089508
0.441284 0.451569 0.095581
0.479645 0.457184 0.101715
0.515594 0.462616 0.107819
0.548950 0.467773 0.113800
0.579742 0.472687 0.119537
0.608337 0.477356 0.125153
0.635010 0.481812 0.130554
0.659943 0.486023 0.135742
0.683258 0.490082 0.140778
0.705139 0.493896 0.145630
0.725677 0.497589 0.150330
0.745270 0.501129 0.154907
0.763977 0.504547 0.159302
0.781952 0.507843 0.163635
0.799255 0.511047 0.167877
0.815979 0.514191 0.172058
0.832245 0.517242 0.176086
0.848297 0.520294 0.180145
0.040070 0.431000 0.046753
0.044525 0.434326 0.049469
0.063202 0.437653 0.052185
0.083618 0.440765 0.054871
0.105530 0.443848 0.057556
0.128845 0.446869 0.060272
0.154022 0.450012 0.063110
0.181396 0.453278 0.066223
0.212097 0.456940 0.069672
0.246613 0.460968 0.073669
0.284485 0.465576 0.078308
0.324615 0.470581 0.083527
0.365723 0.475891 0.089142
0.406677 0.481354 0.095154
0.446716 0.486847 0.101349
0.484863 0.492279 0.107666
0.520630 0.497528 0.113892
0.553802 0.502533 0.119873
0.584473 0.507263 0.125763
0.612946 0.511780 0.131378
0.639465 0.516083 0.136841
0.664276 0.520203 0.142120
0.687531 0.524109 0.147186
0.709351 0.527832 0.152100
0.729828 0.531342 0.156830
0.749329 0.534760 0.161407
0.768005 0.538086 0.165863
0.785950 0.541290 0.170258
0.803192 0.544403 0.174500
0.819916 0.547424 0.178680
0.836151 0.550385 0.182770
0.852142 0.553314 0.186859
0.040070 0.467102 0.051147
0.048798 0.470367 0.053986
0.068085 0.473511 0.056793
0.089050 0.476532 0.059601
0.111450 0.479523 0.062378
0.135101 0.482452 0.065186
0.160492 0.485474 0.068115
0.188019 0.488647 0.071259
0.218719 0.492157 0.074890
0.253143 0.496063 0.078949
0.290802 0.500519 0.083740
0.330658 0.505341 0.089020
0.371521 0.510468 0.094818
0.412292 0.515747 0.100983
0.452057 0.521088 0.107300
0.490021 0.526337 0.113647
0.525635 0.531403 0.119965
0.558655 0.536255 0.126129
0.589203 0.540863 0.132050
0.617523 0.545197 0.137756
0.644012 0.549377 0.143280
0.668701 0.553345 0.148590
0.691833 0.557190 0.153717
0.713562 0.560791 0.158661
0.733978 0.564209 0.163422
0.753448 0.567505 0.168060
0.772064 0.570709 0.172516
0.789948 0.573822 0.176880
0.807129 0.576813 0.181183
0.823792 0.579773 0.185394
0.840027 0.582642 0.189484
0.855988 0.585510 0.193542
0.040070 0.501740 0.055695
0.053101 0.504852 0.058624
0.073151 0.507935 0.061584
0.094635 0.510895 0.064423
0.117401 0.513763 0.067291
0.141388 0.516602 0.070221
0.166931 0.519501 0.073242
0.194611 0.522583 0.076508
0.225250 0.525970 0.080139
0.259460 0.529785 0.084381
0.296997 0.534088 0.089233
0.336609 0.538788 0.094696
0.377258 0.543701 0.100555
0.417877 0.548859 0.106812
0.457397 0.554047 0.113251
0.495178 0.559113 0.119751
0.530609 0.564026 0.126160
0.563446 0.568726 0.132355
0.593842 0.573181 0.138367
0.622070 0.577393 0.144135
0.648407 0.581451 0.149689
0.673004 0.585297 0.155090
0.696075 0.588959 0.160248
0.717712 0.592468 0.165222
0.738098 0.595795 0.169983
0.757477 0.599030 0.174622
0.776062 0.602112 0.179138
0.793884 0.605103 0.183533
0.811035 0.608063 0.187805
0.827667 0.610901 0.191986
0.843903 0.613678 0.196136
0.859833 0.616455 0.200226
0.040070 0.534729 0.060333
0.057648 0.537811 0.063354
0.078217 0.540771 0.066406
0.100189 0.543579 0.069366
0.123352 0.546387 0.072327
0.147644 0.549133 0.075317
0.173309 0.551941 0.078430
0.201080 0.554962 0.081726
0.231659 0.558258 0.085480
0.265747 0.561951 0.089813
0.303040 0.566101 0.094788
0.342407 0.570648 0.100311
0.382904 0.575470 0.106354
0.423279 0.580414 0.112701
0.462616 0.585449 0.119202
0.500214 0.590332 0.125793
0.535461 0.595123 0.132294
0.568146 0.599701 0.138611
0.598419 0.604004 0.144653
0.626556 0.608124 0.150452
0.652771 0.612030 0.156067
0.677246 0.615784 0.161499
0.700226 0.619354 0.166687
0.721832 0.622742 0.171692
0.742126 0.625946 0.176483
0.761475 0.629089 0.181152
0.779999 0.632141 0.185699
0.797760 0.635071 0.190094
0.814880 0.637878 0.194366
0.831482 0.640686 0.198578
0.847656 0.643402 0.202698
0.863556 0.646057 0.206818
0.043274 0.566010 0.065002
0.062134 0.568970 0.068115
0.083313 0.571838 0.071228
0.105713 0.574615 0.074310
0.129211 0.577301 0.077332
0.153748 0.579987 0.080383
0.179565 0.582703 0.083588
0.207397 0.585632 0.087006
0.237946 0.588806 0.090820
0.271820 0.592407 0.095215
0.308929 0.596436 0.100281
0.348114 0.600861 0.105957
0.388336 0.605530 0.112061
0.428528 0.610352 0.118561
0.467651 0.615234 0.125153
0.505066 0.620026 0.131775
0.540161 0.624664 0.138367
0.572723 0.629059 0.144714
0.602875 0.633301 0.150818
0.630829 0.637299 0.156677
0.656982 0.641113 0.162354
0.681396 0.644745 0.167816
0.704285 0.648193 0.173035
0.725830 0.651520 0.178070
0.746002 0.654694 0.182892
0.765320 0.657745 0.187561
0.783783 0.660675 0.192078
0.801544 0.663544 0.196472
0.818634 0.666290 0.200775
0.835175 0.669006 0.204987
0.851349 0.671631 0.209167
0.867249 0.674286 0.213226
0.047150 0.595367 0.069672
0.066681 0.598236 0.072906
0.088379 0.601044 0.076080
0.111176 0.603699 0.079193
0.134918 0.606354 0.082336
0.159668 0.608948 0.085449
0.185669 0.611603 0.088684
0.213501 0.614410 0.092194
0.243958 0.617523 0.096100
0.277679 0.621002 0.100555
0.314545 0.624939 0.105713
0.353546 0.629211 0.111481
0.393616 0.633789 0.117676
0.433563 0.638489 0.124207
0.472534 0.643219 0.130890
0.509766 0.647888 0.137665
0.544708 0.652435 0.144287
0.577087 0.656738 0.150696
0.607178 0.660858 0.156830
0.635010 0.664734 0.162720
0.661072 0.668488 0.168457
0.685394 0.672058 0.173950
0.708221 0.675415 0.179169
0.729675 0.678650 0.184235
0.749786 0.681732 0.189056
0.769073 0.684692 0.193695
0.787476 0.687592 0.198273
0.805206 0.690338 0.202698
0.822235 0.693054 0.206970
0.838776 0.695679 0.211151
0.854889 0.698303 0.215332
0.870758 0.700867 0.219421
0.050934 0.622742 0.074249
0.071075 0.625519 0.077545
0.093292 0.628296 0.080841
0.116486 0.630890 0.084015
0.140533 0.633453 0.087189
0.165436 0.635986 0.090393
0.191528 0.638580 0.093719
0.219360 0.641327 0.097260
0.249695 0.644318 0.101196
0.283203 0.647736 0.105804
0.319916 0.651581 0.111023
0.358765 0.655792 0.116882
0.398621 0.660248 0.123138
0.438385 0.664825 0.129761
0.477203 0.669434 0.136536
0.514282 0.674011 0.143372
0.549072 0.678436 0.149994
0.581329 0.682648 0.156494
0.611237 0.686676 0.162659
0.639008 0.690491 0.168610
0.664917 0.694153 0.174316
0.689178 0.697632 0.179840
0.711945 0.700897 0.185089
0.733337 0.704102 0.190186
0.753448 0.707092 0.194977
0.772644 0.709991 0.199646
0.791016 0.712830 0.204224
0.808685 0.715546 0.208649
0.825684 0.718201 0.212921
0.842224 0.720764 0.217133
0.858307 0.723328 0.221252
0.874207 0.725830 0.225342
0.054718 0.648041 0.078705
0.075409 0.650787 0.082031
0.098053 0.653473 0.085419
0.121552 0.656006 0.088654
0.145844 0.658539 0.091919
0.170898 0.661011 0.095154
0.197021 0.663544 0.098541
0.224884 0.666199 0.102142
0.255096 0.669189 0.106171
0.288483 0.672485 0.110809
0.325012 0.676270 0.116180
0.363647 0.680359 0.122009
0.403351 0.684723 0.128387
0.442932 0.689209 0.135040
0.481567 0.693756 0.141937
0.518494 0.698212 0.148773
0.553162 0.702545 0.155487
0.585297 0.706665 0.161987
0.615082 0.710602 0.168213
0.642761 0.714355 0.174164
0.668610 0.717926 0.179932
0.692810 0.721344 0.185486
0.715454 0.724579 0.190704
0.736816 0.727692 0.195801
0.756866 0.730652 0.200653
0.776001 0.733490 0.205292
0.794342 0.736267 0.209869
0.811981 0.738953 0.214264
0.828979 0.741516 0.218536
0.845459 0.744080 0.222778
0.861542 0.746582 0.226898
0.877380 0.749023 0.230927
0.058380 0.671234 0.082947
0.079559 0.673920 0.086395
0.102570 0.676544 0.089783
0.126404 0.679077 0.093109
0.150940 0.681488 0.096375
0.176056 0.683929 0.099701
0.202271 0.686401 0.103119
0.230072 0.689056 0.106781
0.260132 0.691956 0.110870
0.293365 0.695221 0.115631
0.329742 0.698914 0.120972
0.368225 0.702942 0.126923
0.407745 0.707214 0.133362
0.447235 0.711609 0.140076
0.485657 0.716064 0.146973
0.522461 0.720459 0.153900
0.556976 0.724731 0.160645
0.589020 0.728760 0.167175
0.618683 0.732635 0.173431
0.646240 0.736328 0.179443
0.672058 0.739838 0.185211
0.696167 0.743164 0.190704
0.718781 0.746368 0.196014
0.740021 0.749390 0.201019
0.760040 0.752319 0.205933
0.779144 0.755127 0.210602
0.797485 0.757843 0.215149
0.815033 0.760498 0.219543
0.832031 0.763062 0.223846
0.848480 0.765564 0.227997
0.864532 0.768005 0.232086
0.880371 0.770447 0.236115
0.061829 0.692474 0.087006
0.083435 0.695099 0.090454
0.106842 0.697662 0.093964
0.130920 0.700134 0.097321
0.155579 0.702545 0.100647
0.180847 0.704926 0.104004
0.207092 0.707367 0.107483
0.234833 0.709930 0.111206
0.264862 0.712799 0.115326
0.297913 0.716003 0.120056
0.334167 0.719635 0.125519
0.372498 0.723572 0.131500
0.411835 0.727783 0.138000
0.451141 0.732117 0.144806
0.489441 0.736511 0.151764
0.526093 0.740814 0.158661
0.560516 0.745026 0.165466
0.592438 0.748993 0.172058
0.622009 0.752838 0.178314
0.649506 0.756439 0.184326
0.675232 0.759888 0.190094
0.699280 0.763214 0.195618
0.721832 0.766357 0.200928
0.743073 0.769379 0.206024
0.763031 0.772247 0.210846
0.782104 0.775024 0.215485
0.800354 0.777679 0.220062
0.817932 0.780273 0.224426
0.834869 0.782806 0.228699
0.851349 0.785309 0.232910
0.867371 0.787720 0.237000
0.883209 0.790100 0.240967
0.065186 0.712067 0.090820
0.087219 0.714630 0.094421
0.110931 0.717163 0.097900
0.135193 0.719574 0.101318
0.160095 0.721954 0.104706
0.185425 0.724335 0.108063
0.211700 0.726715 0.111572
0.239349 0.729248 0.115356
0.269196 0.732056 0.119537
0.302185 0.735229 0.124298
0.338287 0.738800 0.129822
0.376495 0.742706 0.135864
0.415680 0.746826 0.142395
0.454834 0.751099 0.149261
0.493011 0.755432 0.156250
0.529541 0.759674 0.163177
0.563843 0.763824 0.170013
0.595673 0.767761 0.176605
0.625183 0.771515 0.182892
0.652588 0.775085 0.188934
0.678223 0.778503 0.194672
0.702179 0.781769 0.200226
0.724731 0.784882 0.205536
0.745880 0.787842 0.210602
0.765808 0.790680 0.215454
0.784851 0.793427 0.220123
0.803070 0.796082 0.224640
0.820648 0.798645 0.229034
0.837524 0.801147 0.233337
0.853973 0.803589 0.237457
0.869995 0.806000 0.241516
0.885773 0.808380 0.245544
0.068390 0.730164 0.094574
0.090790 0.732727 0.098114
0.114777 0.735199 0.101654
0.139282 0.737610 0.105133
0.164276 0.739929 0.108582
0.189697 0.742279 0.111969
0.215942 0.744629 0.115540
0.243530 0.747131 0.119324
0.273315 0.749908 0.123535
0.306152 0.753021 0.128387
0.342102 0.756561 0.133911
0.380219 0.760406 0.139984
0.419250 0.764496 0.146576
0.458313 0.768707 0.153442
0.496338 0.772949 0.160492
0.532745 0.777191 0.167480
0.566956 0.781281 0.174316
0.598694 0.785156 0.180939
0.628113 0.788879 0.187256
0.655457 0.792419 0.193268
0.680969 0.795807 0.199066
0.704926 0.799011 0.204620
0.727386 0.802094 0.209869
0.748566 0.805054 0.214966
0.768433 0.807861 0.219788
0.787415 0.810547 0.224426
0.805634 0.813202 0.229004
0.823181 0.815735 0.233368
0.840057 0.818207 0.237610
0.856445 0.820618 0.241730
0.872467 0.822998 0.245789
0.888306 0.825409 0.249786
0.071472 0.747223 0.098083
0.094238 0.749725 0.101685
0.118500 0.752197 0.105316
0.143188 0.754547 0.108826
0.168274 0.756866 0.112244
0.193756 0.759155 0.115723
0.220032 0.761505 0.119293
0.247528 0.763977 0.123108
0.277222 0.766693 0.127380
0.309967 0.769806 0.132294
0.345764 0.773315 0.137848
0.383759 0.777100 0.143982
0.422638 0.781128 0.150574
0.461548 0.785309 0.157501
0.499512 0.789551 0.164551
0.535828 0.793671 0.171570
