testdata/filters/luthouse/HK09 - Solana.CUBE
#Created by: Adobe Photoshop Export Color Lookup Plugin
#Copyright: (C) Copyright 2017 @ 2017 Joseph Angelo Todaro
TITLE "HK09 - Solana"
#LUT size
LUT_3D_SIZE 5
#data domain
#LUT data points
DOMAIN_MIN 0.000000 0.000000 0.000000
DOMAIN_MAX 0.903226 0.903226 0.903226
0.040070 0.023376 0.028625
0.107666 0.023376 0.028625
0.381622 0.032959 0.042206
0.611816 0.060364 0.073181
0.756348 0.085297 0.100525
0.040070 0.138336 0.028625
0.135712 0.164703 0.034943
0.407745 0.206696 0.063019
0.632782 0.249542 0.098602
0.774963 0.280609 0.128448
0.040070 0.393738 0.042511
0.174866 0.416840 0.061249
0.441284 0.451569 0.095581
0.659943 0.486023 0.135742
0.799255 0.511047 0.167877
0.050934 0.622742 0.074249
0.219360 0.641327 0.097260
0.477203 0.669434 0.136536
0.689178 0.697632 0.179840
0.825684 0.718201 0.212921
0.074524 0.763367 0.101471
0.251373 0.779938 0.126831
0.502563 0.805237 0.168457
0.710022 0.830811 0.212708
0.844727 0.849701 0.245575
0.040070 0.023376 0.168213
0.123352 0.023376 0.196045
0.396545 0.042908 0.239166
0.623779 0.073151 0.282074
0.766937 0.099731 0.313080
0.040070 0.154724 0.198944
0.152283 0.181610 0.226929
0.422272 0.223694 0.269196
0.644501 0.266083 0.311066
0.785461 0.296692 0.341278
0.040070 0.408234 0.239655
0.192078 0.431030 0.266937
0.455353 0.465302 0.307800
0.671356 0.499329 0.348206
0.809540 0.524048 0.377472
0.063049 0.634430 0.283386
0.236511 0.652802 0.309631
0.490784 0.680634 0.348969
0.700317 0.708527 0.387939
0.835846 0.728973 0.416138
0.088501 0.773743 0.314148
0.268097 0.790222 0.339661
0.515778 0.815369 0.377991
0.721039 0.840820 0.415955
0.854797 0.859619 0.443390
0.040070 0.023376 0.402466
0.141693 0.029816 0.426056
0.413086 0.055511 0.461395
0.637085 0.088654 0.496490
0.778809 0.116882 0.521942
0.040070 0.173706 0.428467
0.171356 0.200897 0.451447
0.438385 0.242798 0.485962
0.657623 0.284454 0.520233
0.797119 0.314636 0.545105
0.045898 0.424438 0.461884
0.211609 0.446869 0.484131
0.471039 0.480652 0.517609
0.684174 0.514191 0.550842
0.821106 0.538513 0.574982
0.077972 0.647461 0.497559
0.255646 0.665649 0.519073
0.505890 0.693176 0.551422
0.712830 0.720764 0.583618
0.847290 0.740997 0.607025
0.105255 0.785431 0.522797
0.286713 0.801758 0.543762
0.530579 0.826782 0.575409
0.733307 0.852081 0.606873
0.866180 0.870819 0.629791
0.040070 0.026123 0.604034
0.161530 0.041290 0.623444
0.430145 0.070282 0.652832
0.650909 0.106018 0.682129
0.791138 0.135651 0.703583
0.040070 0.193878 0.625458
0.191742 0.221069 0.644501
0.455078 0.262482 0.673340
0.671143 0.303467 0.702148
0.809357 0.333099 0.723206
0.059723 0.441101 0.653198
0.231934 0.463226 0.671753
0.487183 0.496429 0.699890
0.697388 0.529510 0.728088
0.833160 0.553467 0.748749
0.094849 0.660950 0.683044
0.275330 0.678925 0.701141
0.521545 0.706146 0.728607
0.725769 0.733490 0.756195
0.859192 0.753510 0.776428
0.123749 0.797577 0.704285
0.305878 0.813782 0.722076
0.545868 0.838623 0.749115
0.746002 0.863831 0.776276
0.877960 0.882477 0.796295
0.040070 0.034729 0.740448
0.177521 0.051483 0.757782
0.443451 0.082916 0.784119
0.661743 0.120483 0.810699
0.800873 0.151001 0.830292
0.043640 0.209869 0.759583
0.207947 0.236969 0.776611
0.468109 0.277802 0.802643
0.681763 0.318237 0.828979
0.818939 0.347473 0.848389
0.071747 0.454132 0.784424
0.247925 0.475983 0.801239
0.499817 0.508789 0.826904
0.707794 0.541473 0.852905
0.842651 0.565186 0.872162
0.109039 0.671570 0.811493
0.290710 0.689362 0.828094
0.533752 0.716339 0.853394
0.735931 0.743439 0.879120
0.868622 0.763336 0.895416
0.139008 0.807129 0.830963
0.320831 0.823242 0.847321
0.557770 0.847961 0.872498
0.756012 0.873108 0.895416
0.887329 0.891693 0.895416
