testdata/filters/luthouse/HK09 - Solana.CUBE
#Created by: Adobe Photoshop Export Color Lookup Plugin
#Copyright: (C) Copyright 2017 @ 2017 Joseph Angelo Todaro
TITLE "HK09 - Solana"
#LUT size
LUT_3D_SIZE 8
#data domain
#LUT data points
DOMAIN_MIN 0.000000 0.000000 0.000000
DOMAIN_MAX 0.903226 0.903226 0.903226
0.040070 0.023376 0.028625
0.045898 0.023376 0.028625
0.135956 0.023376 0.028625
0.295380 0.025543 0.033844
0.460175 0.040833 0.051208
0.585754 0.056549 0.068909
0.680328 0.071381 0.085327
0.756348 0.085297 0.100525
0.040070 0.067352 0.028625
0.058105 0.079498 0.028625
0.153412 0.092773 0.030640
0.312347 0.113525 0.044800
0.474731 0.139221 0.064209
0.598663 0.162506 0.083496
0.692169 0.182526 0.101013
0.767487 0.200012 0.117004
0.040070 0.168427 0.028625
0.070557 0.183960 0.030945
0.169922 0.200012 0.040314
0.327850 0.223724 0.056152
0.488037 0.250977 0.077301
0.610474 0.274261 0.097870
0.703033 0.293396 0.116272
0.777771 0.309692 0.132874
0.040070 0.316833 0.034821
0.088745 0.331085 0.044373
0.192596 0.345612 0.055298
0.348358 0.366669 0.073181
0.505707 0.390656 0.096375
0.626190 0.411224 0.118408
0.717529 0.428101 0.137756
0.791504 0.442505 0.155029
0.040070 0.467102 0.051147
0.111450 0.479523 0.062378
0.218719 0.492157 0.074890
0.371521 0.510468 0.094818
0.525635 0.531403 0.119965
0.644012 0.549377 0.143280
0.733978 0.564209 0.163422
0.807129 0.576813 0.181183
0.047150 0.595367 0.069672
0.134918 0.606354 0.082336
0.243958 0.617523 0.096100
0.393616 0.633789 0.117676
0.544708 0.652435 0.144287
0.661072 0.668488 0.168457
0.749786 0.681732 0.189056
0.822235 0.693054 0.206970
0.061829 0.692474 0.087006
0.155579 0.702545 0.100647
0.264862 0.712799 0.115326
0.411835 0.727783 0.138000
0.560516 0.745026 0.165466
0.675232 0.759888 0.190094
0.763031 0.772247 0.210846
0.834869 0.782806 0.228699
0.074524 0.763367 0.101471
0.172150 0.772888 0.115845
0.280914 0.782623 0.131104
0.425903 0.796906 0.154480
0.572754 0.813354 0.182404
0.686218 0.827637 0.207153
0.773285 0.839508 0.227844
0.844727 0.849701 0.245575
0.040070 0.023376 0.089508
0.052856 0.023376 0.103302
0.146057 0.023376 0.118042
0.305328 0.031097 0.140869
0.468689 0.047394 0.168457
0.593292 0.064117 0.193115
0.687225 0.079620 0.213867
0.762878 0.094086 0.231720
0.040070 0.075409 0.105408
0.065826 0.088074 0.119873
0.163788 0.101776 0.135254
0.322113 0.123138 0.158752
0.483124 0.149261 0.186798
0.606110 0.172913 0.211578
0.699036 0.193054 0.232208
0.773956 0.210510 0.249878
0.040070 0.178802 0.120819
0.078827 0.194458 0.135834
0.180481 0.210541 0.151703
0.337494 0.234131 0.175629
0.496307 0.261139 0.203918
0.617828 0.284241 0.228668
0.709839 0.303223 0.249115
0.784180 0.319397 0.266510
0.040070 0.326447 0.142548
0.097809 0.340607 0.158112
0.203186 0.355011 0.174316
0.357849 0.375854 0.198639
0.513855 0.399658 0.226959
0.633453 0.420013 0.251404
0.724274 0.436798 0.271423
0.797852 0.451050 0.288483
0.040070 0.475433 0.168365
0.121124 0.487762 0.184326
0.229309 0.500305 0.200775
0.380768 0.518463 0.225098
0.533661 0.539276 0.253082
0.651123 0.557129 0.276947
0.740631 0.571808 0.296570
0.813416 0.584351 0.313232
0.054199 0.602722 0.194092
0.145142 0.613647 0.210144
0.254333 0.624756 0.226624
0.402649 0.640900 0.250641
0.552582 0.659424 0.277985
0.668060 0.675385 0.301361
0.756378 0.688568 0.320526
0.828491 0.699829 0.336884
0.069763 0.699219 0.215820
0.166046 0.709229 0.231812
0.275024 0.719452 0.248077
0.420776 0.734375 0.271729
0.568237 0.751526 0.298553
0.682190 0.766327 0.321503
0.769531 0.778595 0.340332
0.841064 0.789154 0.356384
0.083038 0.769775 0.232849
0.182678 0.779266 0.248657
0.290955 0.788971 0.264679
0.434723 0.803162 0.287933
0.580383 0.819550 0.314362
0.693085 0.833801 0.337006
0.779724 0.845642 0.355621
0.850952 0.855835 0.371429
0.040070 0.023376 0.199921
0.059204 0.023376 0.215973
0.154938 0.023438 0.232422
0.313782 0.036102 0.256317
0.475983 0.053375 0.283508
0.599731 0.070862 0.306793
0.693176 0.086975 0.325867
0.768463 0.101837 0.342163
0.040070 0.082642 0.218384
0.072784 0.095703 0.234375
0.172821 0.109741 0.250549
0.330475 0.131531 0.274109
0.490326 0.158020 0.300903
0.612457 0.181854 0.323822
0.704895 0.202087 0.342590
0.779510 0.219513 0.358612
0.040070 0.187805 0.235382
0.086304 0.203461 0.251160
0.189606 0.219543 0.267181
0.345703 0.243073 0.290405
0.503418 0.269867 0.316772
0.624146 0.292786 0.339386
0.715637 0.311584 0.357880
0.789703 0.327637 0.373718
0.040070 0.334625 0.257965
0.105743 0.348694 0.273499
0.212311 0.362976 0.289154
0.365936 0.383728 0.311920
0.520813 0.407349 0.337860
0.639648 0.427582 0.359985
0.729980 0.444183 0.378143
0.803314 0.458374 0.393677
0.043518 0.482605 0.283447
0.129608 0.494843 0.298584
0.238312 0.507233 0.313904
0.388672 0.525330 0.336151
0.540497 0.545990 0.361481
0.657257 0.563721 0.383209
0.746277 0.578308 0.401001
0.818848 0.590759 0.416168
0.060608 0.609039 0.307648
0.153961 0.619904 0.322510
0.263184 0.630920 0.337494
0.410431 0.647003 0.359314
0.559296 0.665436 0.384125
0.674103 0.681305 0.405365
0.761993 0.694397 0.422821
0.833862 0.705627 0.437683
0.076843 0.705017 0.327698
0.175049 0.714996 0.342255
0.283691 0.725159 0.356995
0.428375 0.739990 0.378418
0.574860 0.757080 0.402771
0.688110 0.771820 0.423676
0.775085 0.784058 0.440796
0.846466 0.794556 0.455414
0.090576 0.775238 0.343140
0.191772 0.784698 0.357483
0.299561 0.794373 0.372040
0.442230 0.808563 0.393219
0.586914 0.824921 0.417206
0.699005 0.839111 0.437805
0.785278 0.850922 0.454742
0.856232 0.861084 0.469147
0.040070 0.023376 0.336334
0.067383 0.023376 0.350769
0.165863 0.029114 0.365448
0.324036 0.042603 0.386658
0.484772 0.061096 0.410828
0.607574 0.079498 0.431580
0.700317 0.096252 0.448578
0.775208 0.111603 0.463104
0.040070 0.091736 0.352905
0.081573 0.105286 0.367157
0.183838 0.119690 0.381531
0.340576 0.141968 0.402466
0.498962 0.168823 0.426331
0.620178 0.192871 0.446747
0.712006 0.213043 0.463501
0.786224 0.230469 0.477783
0.040070 0.198822 0.368042
0.095673 0.214478 0.382050
0.200745 0.230499 0.396301
0.355652 0.253815 0.416992
0.511963 0.280365 0.440460
0.631775 0.303070 0.460632
0.722687 0.321716 0.477173
0.796356 0.337616 0.491272
0.040070 0.344543 0.388153
0.115753 0.358490 0.401886
0.223450 0.372650 0.415894
0.375702 0.393188 0.436157
0.529266 0.416595 0.459229
0.647156 0.436646 0.479004
0.736969 0.453125 0.495270
0.809937 0.467194 0.509125
0.050659 0.491180 0.410767
0.140106 0.503326 0.424255
0.249268 0.515656 0.437897
0.398224 0.533600 0.457764
0.548737 0.554108 0.480377
0.664612 0.571686 0.499756
0.753174 0.586182 0.515686
0.825439 0.598541 0.529297
0.068817 0.616669 0.432312
0.164856 0.627441 0.445526
0.273865 0.638397 0.458923
0.419739 0.654388 0.478424
0.567383 0.672668 0.500610
0.681366 0.688446 0.519623
0.768799 0.701477 0.535217
0.840393 0.712646 0.548584
0.085815 0.712036 0.450195
0.186127 0.721954 0.463196
0.294220 0.732056 0.476349
0.437592 0.746826 0.495483
0.582855 0.763824 0.517303
0.695343 0.778503 0.536041
0.781830 0.790680 0.551392
0.852966 0.801147 0.564545
0.100098 0.781891 0.463989
0.202911 0.791321 0.476807
0.309937 0.800964 0.489777
0.451294 0.815063 0.508667
0.594788 0.831421 0.530212
0.706146 0.845520 0.548706
0.791962 0.857330 0.563934
0.862732 0.867462 0.576904
0.040070 0.023376 0.465576
0.076508 0.026825 0.478363
0.177551 0.035522 0.491333
0.334839 0.050110 0.510162
0.494019 0.069794 0.531677
0.615814 0.089081 0.550171
0.707947 0.106506 0.565338
0.782410 0.122284 0.578308
0.040070 0.101807 0.480255
0.091400 0.115753 0.492859
0.195709 0.130585 0.505646
0.351166 0.153290 0.524261
0.508118 0.180420 0.545471
0.628357 0.204620 0.563660
0.719513 0.224762 0.578674
0.793396 0.242065 0.591492
0.040070 0.210571 0.493683
0.105957 0.226196 0.506134
0.212616 0.242065 0.518768
0.366150 0.265167 0.537109
0.520996 0.291443 0.558075
0.639862 0.313934 0.576080
0.730133 0.332428 0.590912
0.803467 0.348114 0.603546
0.041595 0.355042 0.511505
0.126648 0.368835 0.523743
0.235229 0.382874 0.536163
0.385986 0.403198 0.554230
0.538147 0.426392 0.574860
0.655182 0.446259 0.592560
0.744354 0.462585 0.607147
0.817017 0.476501 0.619659
0.058838 0.500336 0.531616
0.151550 0.512360 0.543610
0.260834 0.524597 0.555817
0.408295 0.542358 0.573578
0.557465 0.562683 0.593781
0.672485 0.580139 0.611176
0.760468 0.594513 0.625519
0.832428 0.606781 0.637787
0.078064 0.624786 0.550873
0.176575 0.635468 0.562622
0.285217 0.646332 0.574615
0.429626 0.662170 0.592010
0.575958 0.680359 0.611908
0.689117 0.696045 0.629028
0.776001 0.708984 0.643127
0.847351 0.720093 0.655182
0.095825 0.719482 0.566803
0.197998 0.729340 0.578400
0.305328 0.739380 0.590179
0.447296 0.754059 0.607330
0.591309 0.770966 0.626953
0.702972 0.785583 0.643829
0.788971 0.797729 0.657715
0.859833 0.808167 0.669617
0.110565 0.789001 0.579102
0.214844 0.798370 0.590576
0.320862 0.807953 0.602234
0.460907 0.822021 0.619202
0.603149 0.838287 0.638580
0.713684 0.852386 0.655304
0.799103 0.864105 0.669067
0.869598 0.874237 0.680817
0.040070 0.024719 0.578979
0.085999 0.032990 0.590393
0.189209 0.042358 0.602051
0.345337 0.058014 0.619049
0.503143 0.078827 0.638428
0.623871 0.098969 0.655151
0.715393 0.116882 0.668945
0.789490 0.133057 0.680664
0.040070 0.112061 0.592102
0.101410 0.126373 0.603424
0.207428 0.141541 0.614929
0.361572 0.164612 0.631714
0.517090 0.191956 0.650909
0.636322 0.216156 0.667419
0.726929 0.236206 0.681030
0.800385 0.253357 0.692688
0.040070 0.222137 0.604187
0.116486 0.237610 0.615387
0.224304 0.253418 0.626770
0.376373 0.276245 0.643341
0.529846 0.302277 0.662323
0.647705 0.324554 0.678680
0.737488 0.342865 0.692169
0.810455 0.358429 0.703705
0.048981 0.365234 0.620209
0.137665 0.378937 0.631226
0.246735 0.392822 0.642456
0.396027 0.412964 0.658875
0.546814 0.435944 0.677551
0.662964 0.455658 0.693665
0.751587 0.471802 0.707001
0.823944 0.485626 0.718414
0.067413 0.509216 0.638367
0.163025 0.521149 0.649231
0.272064 0.533295 0.660248
0.418152 0.550903 0.676361
0.565979 0.571075 0.694794
0.680145 0.588379 0.710693
0.767639 0.602631 0.723816
0.839294 0.614807 0.735077
0.087616 0.632690 0.655762
0.188232 0.643280 0.666443
0.296204 0.654114 0.677307
0.439331 0.669830 0.693176
0.584320 0.687866 0.711365
0.696686 0.703461 0.727081
0.783081 0.716339 0.740021
0.854187 0.727356 0.751160
0.106018 0.726776 0.670197
0.209717 0.736572 0.680786
0.316162 0.746552 0.691498
0.456787 0.761169 0.707184
0.599548 0.778015 0.725159
0.710449 0.792542 0.740662
0.796021 0.804626 0.753510
0.866669 0.815002 0.764526
0.121216 0.795929 0.681427
0.226501 0.805267 0.691864
0.331512 0.814819 0.702515
0.470306 0.828857 0.718018
0.611359 0.845032 0.735870
0.721130 0.859100 0.751251
0.806091 0.870819 0.764008
0.876404 0.880890 0.774933
0.040070 0.030060 0.670105
0.094696 0.038879 0.680664
0.199585 0.048859 0.691437
0.354675 0.065460 0.707062
0.511078 0.087158 0.725067
0.630981 0.107941 0.740570
0.721985 0.126282 0.753418
0.795685 0.142792 0.764465
0.040070 0.121368 0.682251
0.110626 0.135986 0.692688
0.217804 0.151428 0.703308
0.370667 0.174713 0.718842
0.524933 0.202271 0.736633
0.643372 0.226379 0.752045
0.733398 0.246307 0.764801
0.806580 0.263306 0.775726
0.041199 0.232269 0.693359
0.126038 0.247711 0.703705
0.234558 0.263336 0.714233
0.385406 0.285950 0.729614
0.537628 0.311798 0.747284
0.654724 0.333862 0.762543
0.743927 0.352020 0.775208
0.816620 0.367493 0.786041
0.056000 0.374207 0.708221
0.147675 0.387817 0.718414
0.256866 0.401581 0.728851
0.404877 0.421570 0.744019
0.554474 0.444336 0.761505
0.669800 0.463898 0.776611
0.757965 0.479950 0.789185
0.830048 0.493652 0.799957
0.075378 0.517059 0.725006
0.173218 0.528900 0.735077
0.281952 0.540924 0.745361
0.426849 0.558472 0.760406
0.573517 0.578461 0.777679
0.686920 0.595673 0.792694
0.773956 0.609802 0.805054
0.845367 0.621887 0.815735
0.096344 0.639618 0.741180
0.198639 0.650177 0.751160
0.305908 0.660919 0.761322
0.447784 0.676605 0.776154
0.591736 0.694519 0.793274
0.703369 0.710022 0.808105
0.789368 0.722809 0.820404
0.860199 0.733795 0.830994
0.115326 0.733185 0.754669
0.220062 0.742950 0.764526
0.325653 0.752899 0.774597
0.465118 0.767456 0.789337
0.606812 0.784210 0.806305
0.717041 0.798706 0.821014
0.802246 0.810730 0.833221
0.872650 0.821075 0.843750
0.130859 0.802032 0.765137
0.236786 0.811371 0.774933
0.340912 0.820892 0.784912
0.478516 0.834869 0.799561
0.618561 0.851044 0.816467
0.727661 0.865051 0.831085
0.812256 0.876740 0.843231
0.882385 0.886810 0.853729
0.040070 0.034729 0.740448
0.102081 0.043976 0.750427
0.208191 0.054535 0.760590
0.362213 0.071869 0.775452
0.517670 0.094299 0.792572
0.636841 0.115570 0.807404
0.727386 0.134277 0.819702
0.800873 0.151001 0.830292
0.040070 0.129242 0.751923
0.118408 0.144104 0.761780
0.226379 0.159698 0.771881
0.378204 0.183167 0.786652
0.531433 0.210724 0.803619
0.649139 0.234802 0.818359
0.738800 0.254578 0.830597
0.811676 0.271454 0.841125
0.046539 0.240692 0.762421
0.134094 0.255981 0.772278
0.243073 0.271515 0.782257
0.392761 0.293976 0.796936
0.544037 0.319611 0.813812
0.660431 0.341553 0.828461
0.749237 0.359558 0.840607
0.821716 0.374908 0.851135
0.062103 0.381622 0.776520
0.155945 0.395081 0.786255
0.265198 0.408752 0.796143
0.412109 0.428619 0.810699
0.560760 0.451263 0.827454
0.675476 0.470673 0.842041
0.763245 0.486603 0.854126
0.835083 0.500244 0.864532
0.082245 0.523499 0.792511
0.181732 0.535278 0.802124
0.290100 0.547241 0.811981
0.433929 0.564667 0.826385
0.579681 0.584534 0.843018
0.692505 0.601624 0.857483
0.779175 0.615692 0.869537
0.850372 0.627716 0.879913
0.103821 0.645386 0.807983
0.207184 0.655853 0.817505
0.313873 0.666565 0.827271
0.454773 0.682129 0.841583
0.597778 0.699982 0.858093
0.708862 0.715393 0.872498
0.794525 0.728180 0.884460
0.865204 0.739105 0.894806
0.123199 0.738495 0.820892
0.228607 0.748199 0.830353
0.333496 0.758118 0.840057
0.471985 0.772614 0.854279
0.612793 0.789276 0.870728
0.722473 0.803741 0.885040
0.807343 0.815765 0.895416
0.877625 0.826111 0.895416
0.139008 0.807129 0.830963
0.245209 0.816406 0.840363
0.348633 0.825928 0.850037
0.485321 0.839874 0.864197
0.624420 0.855957 0.880646
0.733032 0.869965 0.894928
0.817352 0.881622 0.895416
0.887329 0.891693 0.895416
