testdata/filters/luthouse/VFW04 - Brightwater Keep.CUBE
#Created by: Adobe Photoshop Export Color Lookup Plugin
#Copyright: (C) Copyright 2017 @ 2017 Joseph Angelo Todaro
TITLE "VFW04 - Brightwater Keep"
#LUT size
LUT_3D_SIZE 5
#data domain
#LUT data points
DOMAIN_MIN 0.000000 0.000000 0.000000
DOMAIN_MAX 0.903226 0.903226 0.903226
0.138153 0.138153 0.138153
0.246796 0.138153 0.138153
0.452087 0.138153 0.138153
0.695099 0.138153 0.138153
0.905273 0.138153 0.138153
0.138153 0.240570 0.138153
0.267731 0.250763 0.138153
0.481720 0.253204 0.138153
0.735016 0.251923 0.138153
0.944336 0.245850 0.140076
0.163513 0.423004 0.138153
0.293457 0.452087 0.138153
0.502258 0.461304 0.138153
0.745422 0.465515 0.138153
0.942078 0.467010 0.138153
0.214081 0.639374 0.138153
0.329651 0.684814 0.138153
0.532196 0.700806 0.138153
0.766998 0.708710 0.138153
0.951965 0.713409 0.139496
0.268372 0.843994 0.138153
0.376099 0.887634 0.138153
0.570160 0.904205 0.138153
0.793457 0.912354 0.138153
0.965302 0.917572 0.145966
0.138153 0.138153 0.188751
0.257202 0.138153 0.223328
0.462036 0.138153 0.228149
0.704071 0.138153 0.231232
0.911194 0.138153 0.233643
0.139709 0.236359 0.217682
0.279419 0.253082 0.235809
0.493134 0.256653 0.245361
0.745331 0.255951 0.257324
0.950317 0.250519 0.275055
0.179260 0.424408 0.209076
0.305389 0.457031 0.233734
0.514130 0.467743 0.243469
0.755951 0.472717 0.251343
0.948486 0.474823 0.259338
0.226746 0.648834 0.190094
0.344116 0.693268 0.220520
0.547028 0.710327 0.233459
0.779816 0.719147 0.241058
0.959839 0.724609 0.247192
0.281311 0.859650 0.155182
0.395386 0.898407 0.189911
0.590637 0.915070 0.206085
0.810883 0.923431 0.214294
0.975922 0.928833 0.219238
0.144409 0.138153 0.267731
0.277435 0.138153 0.385620
0.476929 0.138153 0.396454
0.715210 0.138153 0.403076
0.917542 0.138153 0.408203
0.178925 0.222992 0.371277
0.301971 0.248718 0.406281
0.511200 0.255493 0.423676
0.759125 0.255768 0.441986
0.958069 0.250366 0.467712
0.207550 0.413086 0.369751
0.325562 0.452393 0.408447
0.529663 0.466736 0.425659
0.766968 0.473083 0.438446
0.954163 0.475769 0.451294
0.246857 0.639832 0.361389
0.361359 0.688202 0.404907
0.559967 0.708191 0.425415
0.787994 0.717987 0.438507
0.963684 0.724060 0.449554
0.295166 0.851715 0.346130
0.407623 0.892548 0.393555
0.598419 0.910980 0.418762
0.814758 0.920319 0.433472
0.977081 0.925903 0.444946
0.178101 0.138153 0.363464
0.306122 0.138153 0.568146
0.500519 0.138153 0.597107
0.731720 0.138153 0.608002
0.926178 0.138153 0.615662
0.225464 0.207123 0.558044
0.339081 0.238922 0.607880
0.540924 0.250488 0.634125
0.780884 0.252472 0.657684
0.969971 0.246918 0.688873
0.246460 0.397278 0.558716
0.358826 0.442749 0.609894
0.554962 0.462555 0.634674
0.784302 0.471405 0.651581
0.962708 0.475311 0.667419
0.280243 0.626434 0.555878
0.391602 0.679657 0.610107
0.583313 0.704376 0.637512
0.803375 0.716705 0.654480
0.971069 0.723999 0.668274
0.323730 0.843536 0.547485
0.434601 0.887268 0.605011
0.619812 0.908356 0.636383
0.828156 0.919220 0.655243
0.983368 0.925598 0.669220
0.212402 0.138153 0.473328
0.337189 0.138153 0.722961
0.531921 0.138153 0.795044
0.753235 0.138153 0.808105
0.937317 0.138153 0.816864
0.279358 0.188934 0.755463
0.389496 0.224854 0.806702
0.583221 0.240814 0.835602
0.811340 0.244843 0.859222
0.986938 0.239227 0.887451
0.294067 0.378448 0.753662
0.403320 0.428497 0.805054
0.590363 0.454102 0.831696
0.807709 0.466675 0.848785
0.974335 0.472473 0.863312
0.323578 0.609192 0.753906
0.432892 0.666840 0.806610
0.615662 0.697113 0.834473
0.824127 0.712982 0.851196
0.981140 0.722168 0.863861
0.363342 0.832001 0.750641
0.472443 0.879333 0.805359
0.649780 0.903870 0.835541
0.846710 0.916931 0.853424
0.992371 0.924591 0.866180
