testdata/filters/luthouse/VFW09 - Casterly Rock.CUBE
#Created by: Adobe Photoshop Export Color Lookup Plugin
#Copyright: (C) Copyright 2017 @ 2017 Joseph Angelo Todaro
TITLE "VFW09 - Casterly Rock"
#LUT size
LUT_3D_SIZE 32
#data domain
DOMAIN_MIN 0.0 0.0 0.0
DOMAIN_MAX 1.0 1.0 1.0
#LUT data points
0.082397 0.069275 0.137848
0.082397 0.069275 0.137848
0.096771 0.069794 0.137787
0.122437 0.070496 0.138214
0.149292 0.071503 0.138641
0.177338 0.073273 0.138763
0.207031 0.074860 0.139282
0.237823 0.076477 0.140045
0.268585 0.078400 0.140472
0.299866 0.080322 0.141083
0.331299 0.082214 0.142090
0.362488 0.084290 0.142700
0.393158 0.086609 0.143280
0.423462 0.088837 0.143829
0.453949 0.090912 0.144836
0.483307 0.093201 0.145477
0.512329 0.095428 0.146271
0.540375 0.097748 0.146820
0.567749 0.099976 0.147614
0.594543 0.102112 0.148346
0.620575 0.104065 0.149109
0.645447 0.106323 0.149628
0.669373 0.108490 0.150330
0.692474 0.110443 0.150909
0.714539 0.112427 0.151337
0.735718 0.114258 0.152100
0.755951 0.115875 0.152740
0.774414 0.117767 0.152954
0.792419 0.119263 0.153778
0.809204 0.120728 0.154175
0.824951 0.122162 0.154663
0.840454 0.123596 0.155182
0.082397 0.069275 0.137848
0.082397 0.069275 0.137848
0.096771 0.069794 0.137787
0.122437 0.070496 0.138214
0.149292 0.071503 0.138641
0.177338 0.073273 0.138763
0.207031 0.074860 0.139282
0.237823 0.076477 0.140045
0.268585 0.078400 0.140472
0.299866 0.080322 0.141083
0.331299 0.082214 0.142090
0.362488 0.084290 0.142700
0.393158 0.086609 0.143280
0.423462 0.088837 0.143829
0.453949 0.090912 0.144836
0.483307 0.093201 0.145477
0.512329 0.095428 0.146271
0.540375 0.097748 0.146820
0.567749 0.099976 0.147614
0.594543 0.102112 0.148346
0.620575 0.104065 0.149109
0.645447 0.106323 0.149628
0.669373 0.108490 0.150330
0.692474 0.110443 0.150909
0.714539 0.112427 0.151337
0.735718 0.114258 0.152100
0.755951 0.115875 0.152740
0.774414 0.117767 0.152954
0.792419 0.119263 0.153778
0.809204 0.120728 0.154175
0.824951 0.122162 0.154663
0.840454 0.123596 0.155182
0.082611 0.070404 0.137970
0.082611 0.070404 0.137970
0.096344 0.071259 0.137848
0.122101 0.071930 0.138092
0.149017 0.072937 0.138519
0.177490 0.074432 0.138733
0.207672 0.075745 0.139587
0.237946 0.077637 0.140045
0.268738 0.079590 0.140533
0.300385 0.081299 0.141449
0.331421 0.083405 0.142151
0.362640 0.085449 0.142792
0.393616 0.087585 0.143677
0.423615 0.090027 0.144135
0.453918 0.092163 0.144897
0.483521 0.094360 0.145660
0.512543 0.096588 0.146454
0.540588 0.098877 0.147186
0.568207 0.101044 0.147980
0.594604 0.103363 0.148285
0.620605 0.105469 0.149109
0.645569 0.107605 0.149841
0.669708 0.109558 0.150574
0.692841 0.111542 0.151154
0.714752 0.113647 0.151459
0.736084 0.115326 0.152344
0.756073 0.117188 0.152893
0.774933 0.118744 0.153473
0.792725 0.120392 0.153961
0.809357 0.122040 0.154358
0.825226 0.123383 0.154938
0.840546 0.124939 0.155121
0.084351 0.094666 0.139740
0.084351 0.094666 0.139740
0.099274 0.094940 0.139740
0.124054 0.096252 0.139832
0.151459 0.097076 0.140167
0.179901 0.098663 0.140656
0.209991 0.100098 0.141602
0.240692 0.101868 0.142212
0.272034 0.103516 0.142944
0.303009 0.105804 0.143402
0.334625 0.107635 0.144470
0.365845 0.109802 0.145111
0.396912 0.112000 0.145966
0.427368 0.114105 0.146942
0.457581 0.116425 0.147675
0.487305 0.118530 0.148651
0.516510 0.120789 0.149475
0.544708 0.123077 0.150024
0.572449 0.125183 0.150879
0.599304 0.127380 0.151642
0.625092 0.129486 0.152618
0.650238 0.131592 0.153168
0.674286 0.133728 0.153748
0.697479 0.135651 0.154633
0.720001 0.137421 0.155548
0.740997 0.139404 0.155945
0.761261 0.140991 0.156860
0.779999 0.142761 0.157227
0.798065 0.144226 0.158051
0.814545 0.145874 0.158295
0.830536 0.147217 0.158966
0.846130 0.148651 0.159424
0.086151 0.117950 0.141510
0.086151 0.117950 0.141510
0.101196 0.118225 0.141235
0.126038 0.119568 0.141693
0.153839 0.120239 0.142029
0.181976 0.122040 0.142517
0.212402 0.123413 0.143219
0.243103 0.125336 0.143829
0.274445 0.127045 0.144745
0.305878 0.129028 0.145508
0.337463 0.131012 0.146454
0.368866 0.133179 0.147430
0.399902 0.135437 0.148163
0.430542 0.137604 0.149078
0.460907 0.139801 0.149902
0.490814 0.141907 0.151123
0.520142 0.144073 0.151947
0.548309 0.146515 0.152557
0.576263 0.148468 0.153839
0.603027 0.150665 0.154663
0.629059 0.152893 0.155304
0.654449 0.154846 0.156342
0.678619 0.156860 0.157013
0.701904 0.158875 0.157806
0.724304 0.160614 0.158783
0.745544 0.162445 0.159485
0.765533 0.164307 0.160004
0.784576 0.165924 0.160675
0.802612 0.167358 0.161377
0.819336 0.168945 0.161926
0.835419 0.170258 0.162598
0.850983 0.171631 0.163055
0.087921 0.144196 0.143433
0.087921 0.144196 0.143433
0.102509 0.144745 0.143433
0.128845 0.145416 0.143768
0.155853 0.146637 0.144287
0.184784 0.148102 0.144714
0.214844 0.149719 0.145416
0.245850 0.151520 0.146271
0.277191 0.153381 0.147003
0.308868 0.155304 0.147858
0.340485 0.157440 0.148865
0.372009 0.159515 0.149780
0.403290 0.161774 0.150635
0.433899 0.163971 0.151611
0.464752 0.166016 0.152771
0.494354 0.168304 0.153625
0.523987 0.170441 0.154724
0.552277 0.172699 0.155792
0.580170 0.174835 0.156677
0.607086 0.177063 0.157471
0.633392 0.179016 0.158569
0.658600 0.181091 0.159393
0.682861 0.183197 0.160339
0.706421 0.184998 0.161224
0.728760 0.186829 0.162018
0.750183 0.188660 0.162872
0.770325 0.190399 0.163544
0.789368 0.192047 0.164215
0.807465 0.193512 0.165039
0.824371 0.194977 0.165619
0.840363 0.196350 0.166290
0.855988 0.197693 0.166901
0.090118 0.172455 0.145752
0.090118 0.172455 0.145752
0.104767 0.173035 0.145905
0.131195 0.173737 0.146088
0.158020 0.175140 0.146484
0.187592 0.176361 0.147247
0.218018 0.177917 0.147888
0.249023 0.179779 0.148529
0.280365 0.181763 0.149445
0.312012 0.183777 0.150452
0.343933 0.185730 0.151428
0.375519 0.187958 0.152466
0.406952 0.190125 0.153473
0.437805 0.192291 0.154602
0.468170 0.194672 0.155426
0.498199 0.196808 0.156555
0.527863 0.198883 0.157776
0.556458 0.201172 0.158630
0.584167 0.203430 0.159668
0.611450 0.205414 0.160675
0.637695 0.207489 0.161743
0.663116 0.209534 0.162842
0.687347 0.211578 0.163696
0.711029 0.213440 0.164642
0.733276 0.215363 0.165436
0.754883 0.217010 0.166290
0.775085 0.218750 0.167206
0.794067 0.220398 0.167816
0.812256 0.221893 0.168610
0.829315 0.223328 0.169342
0.845245 0.224640 0.170074
0.860840 0.226013 0.170563
0.092316 0.202576 0.148468
0.092316 0.202576 0.148468
0.107544 0.202911 0.148499
0.133362 0.204010 0.148712
0.160950 0.205078 0.149170
0.190613 0.206390 0.149872
0.220856 0.208130 0.150513
0.252136 0.209991 0.151459
0.283539 0.212006 0.152069
0.315521 0.213867 0.153229
0.347321 0.216095 0.154297
0.378998 0.218231 0.155304
0.410583 0.220428 0.156342
0.441467 0.222656 0.157471
0.472351 0.224823 0.158661
0.502228 0.227142 0.159821
0.531860 0.229340 0.160797
0.560547 0.231537 0.161865
0.588440 0.233704 0.163055
0.615631 0.235840 0.163971
0.642120 0.237793 0.165192
0.667603 0.239838 0.166138
0.692017 0.241852 0.167175
0.715607 0.243683 0.168304
0.738129 0.245544 0.169037
0.759521 0.247375 0.169952
0.779877 0.248993 0.170776
0.798981 0.250671 0.171478
0.817230 0.252106 0.172455
0.834106 0.253540 0.172974
0.850220 0.254852 0.173767
0.865906 0.256226 0.174286
0.094452 0.234131 0.151611
0.094452 0.234131 0.151611
0.109772 0.234467 0.151611
0.135864 0.235535 0.151794
0.163940 0.236481 0.152252
0.193207 0.238037 0.152832
0.223755 0.239716 0.153595
0.255341 0.241455 0.154388
0.286957 0.243469 0.155365
0.319031 0.245453 0.156372
0.350952 0.247559 0.157440
0.382843 0.249786 0.158600
0.414520 0.251984 0.159790
0.445374 0.254272 0.160858
0.476227 0.256470 0.161835
0.506378 0.258728 0.162964
0.535919 0.260986 0.164276
0.564819 0.263184 0.165283
0.593048 0.265228 0.166656
0.620087 0.267426 0.167480
0.646606 0.269470 0.168793
0.672119 0.271454 0.169678
0.696625 0.273407 0.170898
0.720215 0.275360 0.171844
0.742798 0.277161 0.172760
0.764252 0.278900 0.173676
0.784760 0.280579 0.174469
0.803833 0.282166 0.175323
0.822174 0.283600 0.176270
0.839142 0.285095 0.176941
0.855164 0.286377 0.177734
0.870819 0.287720 0.178375
0.096832 0.266693 0.155029
0.096832 0.266693 0.155029
0.111908 0.267181 0.155182
0.138641 0.268005 0.155273
0.166656 0.269073 0.155548
0.196320 0.270569 0.156219
0.227173 0.272156 0.156921
0.258636 0.274078 0.157745
0.290497 0.276031 0.158722
0.322449 0.278168 0.159698
0.354584 0.280304 0.160736
0.386627 0.282471 0.161926
0.418274 0.284729 0.163116
0.449371 0.286926 0.164276
0.480438 0.289093 0.165588
0.510437 0.291473 0.166565
0.540253 0.293671 0.167694
0.569061 0.295837 0.169006
0.597107 0.298035 0.170166
0.624695 0.300079 0.171295
0.651031 0.302124 0.172485
0.676666 0.304169 0.173615
0.701355 0.306152 0.174530
0.724823 0.308044 0.175690
0.747437 0.309814 0.176605
0.769135 0.311584 0.177673
0.789551 0.313232 0.178528
0.808777 0.314789 0.179321
0.826965 0.316315 0.180176
0.844025 0.317688 0.180939
0.860138 0.319031 0.181671
0.875977 0.320282 0.182465
0.098938 0.300171 0.159027
0.098938 0.300171 0.159027
0.114441 0.300537 0.158875
0.141479 0.301300 0.158813
0.169586 0.302399 0.159210
0.199524 0.303864 0.159637
0.230499 0.305450 0.160431
0.261993 0.307404 0.161316
0.293976 0.309418 0.162323
0.326080 0.311493 0.163483
0.358459 0.313629 0.164368
0.390350 0.315948 0.165588
0.422302 0.318085 0.166840
0.453491 0.320312 0.168060
0.484497 0.322632 0.169281
0.514740 0.324799 0.170410
0.544525 0.327118 0.171570
0.573425 0.329285 0.172821
0.601746 0.331360 0.173981
0.629089 0.333527 0.175110
0.655487 0.335632 0.176331
0.681152 0.337616 0.177521
0.705963 0.339569 0.178589
0.729553 0.341431 0.179565
0.752075 0.343231 0.180634
0.773773 0.344879 0.181610
0.794281 0.346619 0.182495
0.813660 0.348114 0.183472
0.831848 0.349579 0.184296
0.848907 0.350952 0.185211
0.865051 0.352295 0.185822
0.880890 0.353607 0.186493
0.101013 0.334198 0.163208
0.101013 0.334198 0.163208
0.117096 0.334351 0.162903
0.144104 0.335175 0.162872
0.172302 0.336334 0.163177
0.202698 0.337708 0.163605
0.233704 0.339294 0.164429
0.265594 0.341156 0.165192
0.297607 0.343201 0.166199
0.329956 0.345276 0.167236
0.362305 0.347412 0.168365
0.394196 0.349731 0.169525
0.426331 0.351929 0.170746
0.457642 0.354126 0.171875
0.488617 0.356476 0.173157
0.518951 0.358673 0.174316
0.548920 0.360901 0.175629
0.577881 0.363068 0.176880
0.606049 0.365326 0.178009
0.633575 0.367401 0.179260
0.660065 0.369476 0.180359
0.685669 0.371490 0.181549
0.710419 0.373413 0.182678
0.734131 0.375244 0.183838
0.756775 0.377045 0.184662
0.778473 0.378693 0.185791
0.799042 0.380402 0.186768
0.818329 0.381958 0.187561
0.836548 0.383392 0.188477
0.853699 0.384766 0.189270
0.869812 0.386047 0.189941
0.885651 0.387360 0.190826
0.103027 0.368713 0.167572
0.103027 0.368713 0.167572
0.119019 0.368927 0.167419
0.146698 0.369507 0.167328
0.175385 0.370453 0.167450
0.205719 0.371857 0.167816
0.237061 0.373505 0.168396
0.269043 0.375397 0.169373
0.301117 0.377441 0.170380
0.333588 0.379517 0.171387
0.366089 0.381622 0.172394
0.398254 0.383850 0.173553
0.430359 0.386078 0.174805
0.461670 0.388428 0.175964
0.492889 0.390625 0.177277
0.523102 0.392914 0.178436
0.553070 0.395172 0.179810
0.582184 0.397278 0.181152
0.610413 0.399506 0.182129
0.637909 0.401581 0.183411
0.664551 0.403625 0.184601
0.690186 0.405640 0.185760
0.714966 0.407501 0.186951
0.738678 0.409393 0.187958
0.761444 0.411163 0.189087
0.783112 0.412842 0.189972
0.803650 0.414551 0.190979
0.822968 0.415955 0.191925
0.841156 0.417480 0.192688
0.858398 0.418854 0.193542
0.874542 0.420166 0.194275
0.890411 0.421326 0.195221
0.105255 0.403168 0.172302
0.105255 0.403168 0.172302
0.121185 0.403412 0.171967
0.149414 0.403870 0.171692
0.178131 0.404907 0.171936
0.208679 0.406281 0.172302
0.240265 0.407867 0.172791
0.272552 0.409637 0.173737
0.304840 0.411621 0.174683
0.337402 0.413727 0.175629
0.369904 0.415833 0.176727
0.402100 0.418213 0.177826
0.434174 0.420441 0.179108
0.465759 0.422607 0.180206
0.496887 0.424896 0.181580
0.527252 0.427185 0.182770
0.557434 0.429321 0.184235
0.586517 0.431580 0.185211
0.614807 0.433655 0.186462
0.642395 0.435760 0.187714
0.668945 0.437805 0.188904
0.694672 0.439789 0.190094
0.719482 0.441742 0.191254
0.743164 0.443573 0.192322
0.765961 0.445343 0.193359
0.787628 0.446991 0.194489
0.808197 0.448578 0.195435
0.827576 0.450104 0.196289
0.845825 0.451538 0.197144
0.862854 0.452881 0.198029
0.879089 0.454132 0.198792
0.894989 0.455444 0.199493
0.106415 0.437805 0.177460
0.106415 0.437805 0.177460
0.123535 0.437561 0.176849
0.152069 0.437927 0.176392
0.181213 0.438873 0.176422
0.211761 0.440308 0.176910
0.243408 0.441833 0.177368
0.275848 0.443604 0.178101
0.308228 0.445648 0.179077
0.340912 0.447693 0.180054
0.373688 0.449799 0.181152
0.405945 0.452057 0.182434
0.438232 0.454285 0.183502
0.469788 0.456512 0.184753
0.500946 0.458801 0.186005
0.531555 0.460968 0.187134
0.561523 0.463196 0.188507
0.590637 0.465393 0.189697
0.618988 0.467590 0.190918
0.646576 0.469604 0.192200
0.673218 0.471649 0.193329
0.699066 0.473602 0.194519
0.723785 0.475525 0.195618
0.747528 0.477325 0.196686
0.770294 0.479065 0.197815
0.791962 0.480713 0.198792
0.812561 0.482361 0.199829
0.831879 0.483826 0.200745
0.850250 0.485229 0.201691
0.867371 0.486572 0.202362
0.883575 0.487823 0.203094
0.899414 0.489075 0.203918
0.108276 0.472290 0.182678
0.108276 0.472290 0.182678
0.125366 0.472107 0.181915
0.154114 0.472412 0.181458
0.183594 0.473206 0.181396
0.214935 0.474365 0.181488
0.246613 0.475952 0.182129
0.279053 0.477753 0.182861
0.311707 0.479706 0.183655
0.344635 0.481689 0.184601
0.377258 0.483856 0.185852
0.409790 0.485992 0.186798
0.442078 0.488220 0.188141
0.473663 0.490540 0.189240
0.504944 0.492737 0.190491
0.535492 0.494995 0.191772
0.565643 0.497162 0.193054
0.594818 0.499329 0.194305
0.623169 0.501465 0.195496
0.650696 0.503540 0.196686
0.677399 0.505585 0.197815
0.703278 0.507507 0.199219
0.728027 0.509369 0.200287
0.751801 0.511108 0.201385
0.774536 0.512909 0.202362
0.796265 0.514557 0.203369
0.816925 0.516144 0.204376
0.836304 0.517578 0.205261
0.854492 0.518982 0.206055
0.871765 0.520264 0.207001
0.887848 0.521576 0.207672
0.903778 0.522705 0.208466
0.109467 0.506775 0.188232
0.109467 0.506775 0.188232
0.127075 0.506378 0.187256
0.156769 0.506348 0.186523
0.186279 0.507141 0.186371
0.217804 0.508209 0.186462
0.249786 0.509735 0.187012
0.282318 0.511536 0.187744
0.315155 0.513367 0.188507
0.348053 0.515472 0.189362
0.380859 0.517548 0.190582
0.413422 0.519806 0.191528
0.445770 0.521942 0.192688
0.477478 0.524139 0.194000
0.508881 0.526306 0.195282
0.539459 0.528595 0.196533
0.569641 0.530792 0.197662
0.598816 0.532928 0.199036
0.627136 0.535004 0.200134
0.654877 0.537018 0.201385
0.681458 0.539062 0.202484
0.707306 0.540985 0.203705
0.732178 0.542816 0.204834
0.755951 0.544617 0.205841
0.778717 0.546326 0.206848
0.800537 0.547913 0.208008
0.821045 0.549469 0.208862
0.840363 0.550934 0.209869
0.858734 0.552307 0.210602
0.875916 0.553589 0.211548
0.892090 0.554779 0.212341
0.907990 0.555969 0.213043
0.111237 0.540131 0.193451
0.111237 0.540131 0.193451
0.128876 0.539795 0.192719
0.158691 0.539734 0.191742
0.188904 0.540253 0.191345
0.220398 0.541321 0.191498
0.252838 0.542694 0.191681
0.285522 0.544434 0.192505
0.318451 0.546356 0.193359
0.351410 0.548340 0.194214
0.384430 0.550354 0.195221
0.417175 0.552582 0.196289
0.449493 0.554779 0.197449
0.481171 0.556976 0.198700
0.512543 0.559113 0.199921
0.543243 0.561279 0.201141
0.573395 0.563477 0.202332
0.602661 0.565582 0.203522
0.631104 0.567688 0.204895
0.658691 0.569702 0.205963
0.685516 0.571686 0.207184
0.711304 0.573578 0.208191
0.736023 0.575409 0.209442
0.759857 0.577179 0.210541
0.782684 0.578857 0.211456
0.804413 0.580475 0.212494
0.825043 0.581940 0.213409
0.844299 0.583374 0.214325
0.862610 0.584747 0.215149
0.879791 0.586029 0.215881
0.895966 0.587250 0.216766
0.911896 0.588348 0.217438
0.112183 0.573608 0.199280
0.112183 0.573608 0.199280
0.130554 0.572968 0.198151
0.160522 0.572906 0.197266
0.191071 0.573273 0.196564
0.223053 0.574219 0.196625
0.255432 0.575592 0.196930
0.288574 0.577179 0.197479
0.321594 0.579071 0.198151
0.354858 0.580902 0.199127
0.387817 0.582977 0.200165
0.420532 0.585114 0.201050
0.453003 0.587311 0.202332
0.484802 0.589386 0.203430
0.516266 0.591644 0.204651
0.546906 0.593842 0.205872
0.577148 0.595947 0.207123
0.606415 0.598022 0.208344
0.634857 0.600128 0.209473
0.662476 0.602112 0.210632
0.689117 0.603973 0.211823
0.715027 0.605865 0.212860
0.739960 0.607635 0.213928
0.763672 0.609406 0.215118
0.786499 0.611053 0.216095
0.808228 0.612671 0.217041
0.828796 0.614105 0.217957
0.848083 0.615570 0.218933
0.866425 0.616852 0.219788
0.883698 0.618103 0.220581
0.899841 0.619263 0.221375
0.915649 0.620422 0.221985
0.113586 0.605957 0.204803
0.113586 0.605957 0.204803
0.131622 0.605438 0.203796
0.162445 0.605042 0.202423
0.193237 0.605286 0.201904
0.225433 0.606171 0.201752
0.258240 0.607391 0.201965
0.291382 0.609009 0.202393
0.324615 0.610748 0.203217
0.357941 0.612640 0.203918
0.390991 0.614685 0.204895
0.423767 0.616730 0.205994
0.456360 0.618835 0.207031
0.488190 0.620972 0.208252
0.519653 0.623138 0.209412
0.550446 0.625275 0.210541
0.580719 0.627380 0.211700
0.609955 0.629456 0.212952
0.638458 0.631470 0.214111
0.666046 0.633423 0.215088
0.692749 0.635315 0.216339
0.718628 0.637146 0.217438
0.743500 0.638947 0.218536
0.767273 0.640625 0.219666
0.790131 0.642303 0.220612
0.811798 0.643829 0.221619
0.832367 0.645264 0.222534
0.851746 0.646667 0.223389
0.870087 0.647949 0.224213
0.887177 0.649170 0.225037
0.903442 0.650269 0.225708
0.919220 0.651398 0.226501
0.114136 0.638092 0.210693
0.114136 0.638092 0.210693
0.132751 0.637329 0.209473
0.164246 0.636536 0.207947
0.195679 0.636658 0.207153
0.227905 0.637543 0.206940
0.260864 0.638641 0.206970
0.294250 0.640106 0.207428
0.327606 0.641876 0.207977
0.360901 0.643707 0.208771
0.394135 0.645691 0.209717
0.427124 0.647705 0.210815
0.459747 0.649811 0.211853
0.491425 0.651978 0.212982
0.523071 0.654083 0.214081
0.553833 0.656128 0.215149
0.584015 0.658234 0.216370
0.613403 0.660248 0.217529
0.641846 0.662201 0.218781
0.669556 0.664185 0.219849
0.696289 0.666046 0.220917
0.722107 0.667816 0.222107
0.746948 0.669556 0.223175
0.770752 0.671265 0.224213
0.793518 0.672791 0.225189
0.815216 0.674347 0.226013
0.835876 0.675781 0.227020
0.855164 0.677063 0.227783
0.873535 0.678375 0.228668
0.890594 0.679596 0.229492
0.906769 0.680695 0.230133
0.922668 0.681793 0.230957
0.114502 0.669098 0.216644
0.114502 0.669098 0.216644
0.133850 0.668060 0.215057
0.165955 0.667145 0.213226
0.197510 0.667114 0.212250
0.230042 0.667847 0.211853
0.263184 0.668976 0.212067
0.296661 0.670410 0.212311
0.330322 0.671997 0.212952
0.363770 0.673798 0.213654
0.397034 0.675720 0.214508
0.430115 0.677643 0.215454
0.462708 0.679688 0.216431
0.494659 0.681732 0.217621
0.526093 0.683868 0.218689
0.556915 0.685974 0.219818
0.587250 0.687958 0.221039
0.616547 0.689972 0.222168
0.645172 0.691895 0.223145
0.672699 0.693817 0.224335
0.699493 0.695587 0.225403
0.725311 0.697357 0.226562
0.750183 0.699097 0.227509
0.773956 0.700745 0.228638
0.796753 0.702301 0.229523
0.818481 0.703796 0.230408
0.839020 0.705170 0.231384
0.858368 0.706512 0.232178
0.876617 0.707703 0.233032
0.893768 0.708893 0.233826
0.909943 0.709991 0.234497
0.925751 0.710999 0.235138
0.114777 0.699463 0.222412
0.114777 0.699463 0.222412
0.135132 0.697968 0.220428
0.167267 0.696960 0.218567
0.199310 0.696808 0.217499
0.232269 0.697357 0.216980
0.265472 0.698364 0.216919
0.299194 0.699677 0.217224
0.332916 0.701294 0.217712
0.366516 0.702972 0.218384
0.399750 0.704895 0.219177
0.432892 0.706879 0.220123
0.465607 0.708862 0.221161
0.497559 0.710876 0.222229
0.529175 0.712921 0.223297
0.559967 0.714844 0.224365
0.590302 0.716888 0.225555
0.619537 0.718872 0.226593
0.648132 0.720764 0.227692
0.675842 0.722595 0.228821
0.702515 0.724396 0.229858
0.728333 0.726135 0.230865
0.753235 0.727783 0.232025
0.777008 0.729401 0.232910
0.799835 0.730896 0.233887
0.821442 0.732391 0.234863
0.842102 0.733765 0.235748
0.861359 0.734985 0.236572
0.879700 0.736237 0.237366
0.896729 0.737366 0.238129
0.912903 0.738434 0.238800
0.928741 0.739441 0.239441
0.115295 0.728363 0.228027
0.115295 0.728363 0.228027
0.135406 0.726929 0.226105
0.168518 0.725525 0.223785
0.200592 0.725372 0.222565
0.234161 0.725616 0.222015
0.267639 0.726532 0.221863
0.301514 0.727753 0.222076
0.335297 0.729279 0.222443
0.368958 0.731018 0.223083
0.402374 0.732849 0.223907
0.435577 0.734711 0.224731
0.468414 0.736633 0.225647
0.500275 0.738647 0.226776
0.531982 0.740631 0.227753
0.562805 0.742584 0.228729
0.593140 0.744537 0.229950
0.622437 0.746460 0.231018
0.650940 0.748322 0.232086
0.678650 0.750153 0.233215
0.705353 0.751892 0.234131
0.731140 0.753601 0.235260
0.756042 0.755249 0.236206
0.779785 0.756775 0.237183
0.802612 0.758240 0.238159
0.824310 0.759674 0.239075
0.844849 0.761017 0.239899
0.864166 0.762268 0.240662
0.882355 0.763489 0.241364
0.899475 0.764526 0.242126
0.915588 0.765564 0.242859
0.931427 0.766510 0.243591
0.115204 0.756622 0.233704
0.115204 0.756622 0.233704
0.136322 0.754730 0.231323
0.169556 0.753296 0.229034
0.202301 0.752808 0.227570
0.235840 0.753021 0.226776
0.269592 0.753845 0.226654
0.303589 0.755066 0.226685
0.337646 0.756439 0.227081
0.371338 0.758057 0.227600
0.404938 0.759766 0.228363
0.438049 0.761719 0.229187
0.470856 0.763580 0.230194
0.502869 0.765533 0.231110
0.534637 0.767395 0.232056
0.565460 0.769348 0.233154
0.595734 0.771271 0.234131
0.625061 0.773163 0.235291
0.653687 0.774994 0.236359
0.681305 0.776764 0.237305
0.708069 0.778503 0.238403
0.733948 0.780121 0.239410
0.758698 0.781708 0.240387
0.782410 0.783234 0.241302
0.805176 0.784668 0.242279
0.826813 0.786072 0.243073
0.847473 0.787384 0.243988
0.866669 0.788574 0.244690
0.885010 0.789703 0.245483
0.902069 0.790771 0.246155
0.918182 0.791718 0.246948
0.933960 0.792725 0.247498
0.115143 0.783325 0.239136
0.115143 0.783325 0.239136
0.136505 0.781433 0.236694
0.170624 0.779510 0.234039
0.203461 0.779053 0.232483
0.237427 0.779083 0.231537
0.271393 0.779785 0.231232
0.305603 0.780884 0.231201
0.339783 0.782196 0.231476
0.373535 0.783813 0.232056
0.407166 0.785431 0.232758
0.440460 0.787323 0.233521
0.473206 0.789124 0.234375
0.505310 0.791016 0.235321
0.536987 0.792877 0.236359
0.567810 0.794769 0.237244
0.598236 0.796600 0.238312
0.627625 0.798431 0.239410
0.656067 0.800262 0.240356
0.683716 0.801971 0.241364
0.710480 0.803650 0.242401
0.736359 0.805206 0.243408
0.761108 0.806793 0.244293
0.784790 0.808289 0.245270
0.807617 0.809692 0.246155
0.829254 0.811066 0.246948
0.849823 0.812286 0.247864
0.869049 0.813446 0.248657
0.887238 0.814575 0.249329
0.904358 0.815613 0.250000
0.920471 0.816589 0.250641
0.936249 0.817505 0.251343
0.114410 0.809021 0.244598
0.114410 0.809021 0.244598
0.136932 0.806580 0.241638
0.171082 0.804749 0.238892
0.204865 0.803772 0.236969
0.238861 0.803802 0.236145
0.273163 0.804382 0.235657
0.307495 0.805389 0.235596
0.341553 0.806641 0.235870
0.375580 0.808167 0.236389
0.409149 0.809875 0.236908
0.442505 0.811493 0.237610
0.475403 0.813324 0.238525
0.507477 0.815186 0.239349
0.539246 0.816986 0.240417
0.570160 0.818848 0.241302
0.600555 0.820648 0.242279
0.629883 0.822418 0.243256
0.658386 0.824188 0.244354
0.686005 0.825867 0.245300
0.712738 0.827484 0.246277
0.738525 0.829071 0.247223
0.763336 0.830627 0.248169
0.787079 0.832031 0.248993
0.809814 0.833435 0.249908
0.831451 0.834686 0.250793
0.851959 0.835907 0.251556
0.871246 0.837097 0.252411
0.889435 0.838135 0.253052
0.906494 0.839142 0.253754
0.922546 0.840057 0.254333
0.938324 0.841034 0.255005
0.113953 0.833435 0.249725
0.113953 0.833435 0.249725
0.136627 0.830933 0.246796
0.171936 0.828552 0.243408
0.205688 0.827606 0.241638
0.240234 0.827423 0.240479
0.274597 0.827881 0.239777
0.309174 0.828766 0.239777
0.343445 0.830017 0.239929
0.377380 0.831421 0.240356
0.411102 0.833069 0.241028
0.444458 0.834717 0.241699
0.477386 0.836517 0.242432
0.509613 0.838226 0.243378
0.541290 0.840057 0.244171
