testdata/filters/luthouse/VFW09 - Casterly Rock.CUBE
#Created by: Adobe Photoshop Export Color Lookup Plugin
#Copyright: (C) Copyright 2017 @ 2017 Joseph Angelo Todaro
TITLE "VFW09 - Casterly Rock"
#LUT size
LUT_3D_SIZE 8
#data domain
#LUT data points
DOMAIN_MIN 0.000000 0.000000 0.000000
DOMAIN_MAX 0.903226 0.903226 0.903226
0.082397 0.069275 0.137848
0.149292 0.071503 0.138641
0.268585 0.078400 0.140472
0.393158 0.086609 0.143280
0.512329 0.095428 0.146271
0.620575 0.104065 0.149109
0.714539 0.112427 0.151337
0.792419 0.119263 0.153778
0.086151 0.117950 0.141510
0.153839 0.120239 0.142029
0.274445 0.127045 0.144745
0.399902 0.135437 0.148163
0.520142 0.144073 0.151947
0.629059 0.152893 0.155304
0.724304 0.160614 0.158783
0.802612 0.167358 0.161377
0.094452 0.234131 0.151611
0.163940 0.236481 0.152252
0.286957 0.243469 0.155365
0.414520 0.251984 0.159790
0.535919 0.260986 0.164276
0.646606 0.269470 0.168793
0.742798 0.277161 0.172760
0.822174 0.283600 0.176270
0.103027 0.368713 0.167572
0.175385 0.370453 0.167450
0.301117 0.377441 0.170380
0.430359 0.386078 0.174805
0.553070 0.395172 0.179810
0.664551 0.403625 0.184601
0.761444 0.411163 0.189087
0.841156 0.417480 0.192688
0.109467 0.506775 0.188232
0.186279 0.507141 0.186371
0.315155 0.513367 0.188507
0.445770 0.521942 0.192688
0.569641 0.530792 0.197662
0.681458 0.539062 0.202484
0.778717 0.546326 0.206848
0.858734 0.552307 0.210602
0.114136 0.638092 0.210693
0.195679 0.636658 0.207153
0.327606 0.641876 0.207977
0.459747 0.649811 0.211853
0.584015 0.658234 0.216370
0.696289 0.666046 0.220917
0.793518 0.672791 0.225189
0.873535 0.678375 0.228668
0.115204 0.756622 0.233704
0.202301 0.752808 0.227570
0.337646 0.756439 0.227081
0.470856 0.763580 0.230194
0.595734 0.771271 0.234131
0.708069 0.778503 0.238403
0.805176 0.784668 0.242279
0.885010 0.789703 0.245483
0.113098 0.856354 0.254761
0.206818 0.849640 0.245758
0.344971 0.851807 0.243835
0.479248 0.858032 0.246124
0.604431 0.864960 0.249695
0.716644 0.871429 0.253326
0.813690 0.877014 0.256866
0.893127 0.881531 0.259827
0.081696 0.069733 0.144836
0.148407 0.072144 0.145233
0.268890 0.078369 0.147552
0.393402 0.086639 0.150360
0.512329 0.095673 0.152924
0.620300 0.104553 0.155457
0.714569 0.112610 0.157928
0.792450 0.119598 0.160156
0.085571 0.118317 0.148285
0.153442 0.120544 0.149048
0.274170 0.127350 0.151611
0.399902 0.135590 0.154907
0.520111 0.144348 0.158569
0.629150 0.152985 0.162048
0.724365 0.160858 0.165192
0.802795 0.167572 0.167999
0.093842 0.234558 0.158722
0.163696 0.236755 0.159027
0.286865 0.243774 0.162048
0.414398 0.252228 0.166412
0.536102 0.261169 0.170837
0.646729 0.269653 0.175232
0.742889 0.277405 0.179260
0.822052 0.283936 0.182617
0.102692 0.369049 0.174255
0.175293 0.370789 0.174103
0.301331 0.377655 0.176727
0.430481 0.386292 0.181396
0.553284 0.395355 0.186279
0.664612 0.403870 0.191071
0.761597 0.411499 0.195251
0.841461 0.417664 0.199127
0.109619 0.507050 0.194366
0.186310 0.507446 0.192688
0.315216 0.513763 0.194733
0.445923 0.522186 0.199005
0.569733 0.531097 0.203766
0.681671 0.539307 0.208740
0.778961 0.546570 0.212982
0.858917 0.552612 0.216644
0.113556 0.638641 0.217041
0.195343 0.637146 0.213165
0.327576 0.642242 0.214050
0.459869 0.650085 0.217804
0.584229 0.658508 0.222351
0.696442 0.666382 0.226776
0.793732 0.673126 0.230957
0.873627 0.678650 0.234436
0.114777 0.757141 0.239624
0.202362 0.753174 0.233337
0.337708 0.756866 0.232727
0.471100 0.763916 0.235779
0.596008 0.771576 0.239777
0.708191 0.778778 0.243958
0.805450 0.785004 0.247803
0.885193 0.789978 0.251038
0.113190 0.856842 0.260284
0.206604 0.850281 0.251434
0.345154 0.852142 0.249329
0.479462 0.858368 0.251587
0.604706 0.865326 0.255096
0.716888 0.871796 0.258881
0.813904 0.877380 0.262360
0.893372 0.881805 0.265106
0.074524 0.074005 0.223602
0.144592 0.075104 0.222656
0.267456 0.080505 0.224121
0.392731 0.088745 0.226135
0.512207 0.097748 0.228271
0.620758 0.106567 0.230438
0.715546 0.114655 0.232635
0.793396 0.121643 0.234344
0.079224 0.122437 0.226929
0.149811 0.123657 0.226227
0.273071 0.129578 0.228027
0.399597 0.137726 0.230835
0.520233 0.146515 0.233856
0.629852 0.155029 0.236908
0.725098 0.163086 0.239380
0.803864 0.169769 0.241760
0.087860 0.238983 0.236664
0.161255 0.239807 0.235504
0.286041 0.246246 0.237610
0.414703 0.254456 0.241333
0.536774 0.263397 0.245392
0.647552 0.271942 0.249298
0.744019 0.279694 0.252716
0.823517 0.286255 0.255646
0.097321 0.373840 0.250580
0.173309 0.374176 0.248779
0.301208 0.380341 0.250793
0.431061 0.388885 0.254608
0.554291 0.397827 0.259033
0.665924 0.406372 0.263275
0.763062 0.413910 0.267181
0.842926 0.420227 0.270325
0.105103 0.512085 0.268219
0.184937 0.511169 0.265137
0.315521 0.516846 0.266296
0.446869 0.525146 0.269989
0.571075 0.533844 0.274353
0.683258 0.542023 0.278717
0.780701 0.549316 0.282562
0.860718 0.555237 0.286041
0.109161 0.644257 0.288239
0.194305 0.641327 0.282959
0.328339 0.645630 0.282928
0.461151 0.653320 0.286255
0.585785 0.661530 0.290344
0.698242 0.669281 0.294434
0.795593 0.675995 0.298218
0.875641 0.681549 0.301422
0.110504 0.763153 0.308502
0.201660 0.757629 0.300629
0.338623 0.760559 0.299255
0.472626 0.767365 0.301819
0.597839 0.774811 0.305450
0.710205 0.781860 0.309326
0.807465 0.787994 0.312775
0.887238 0.792969 0.315674
0.108398 0.863312 0.327332
0.206360 0.854736 0.316467
0.346161 0.856140 0.313843
0.481232 0.861847 0.315552
0.606567 0.868683 0.318695
0.718842 0.875031 0.322174
0.815979 0.880432 0.325256
0.895477 0.884857 0.327942
0.054077 0.084564 0.340729
0.135010 0.081299 0.334991
0.262695 0.084961 0.334259
0.390137 0.092590 0.335480
0.511200 0.101044 0.337433
0.620209 0.109955 0.339050
0.715424 0.117981 0.340790
0.793945 0.124786 0.342316
0.059692 0.132874 0.344208
0.140717 0.129852 0.338959
0.269012 0.133850 0.338470
0.397888 0.141205 0.340576
0.519531 0.149872 0.342987
0.629578 0.158417 0.345490
0.725433 0.166290 0.347778
0.804413 0.173065 0.349670
0.070984 0.248749 0.352966
0.153259 0.245911 0.347839
0.283173 0.250397 0.347900
0.413452 0.258118 0.350769
0.536591 0.266815 0.354187
0.647888 0.275269 0.357452
0.744751 0.282959 0.360474
0.824463 0.289551 0.363098
0.081360 0.383850 0.365601
0.166565 0.380341 0.359833
0.298645 0.384857 0.359924
0.430298 0.392822 0.362885
0.554474 0.401520 0.366699
0.666534 0.409882 0.370392
0.764130 0.417267 0.373840
0.844238 0.423584 0.376678
0.089813 0.522339 0.381470
0.178680 0.517639 0.374329
0.313782 0.521454 0.373718
0.446716 0.529175 0.376495
0.571594 0.537659 0.380249
0.684174 0.545685 0.384033
0.781891 0.552765 0.387543
0.862122 0.558624 0.390442
0.093719 0.655060 0.399658
0.189056 0.647827 0.390015
0.326752 0.650604 0.388275
0.461090 0.657654 0.390594
0.586609 0.665527 0.394135
0.699371 0.672974 0.397736
0.796997 0.679626 0.401062
0.877075 0.684998 0.403839
0.094177 0.774750 0.418304
0.196289 0.764526 0.405579
0.337524 0.765533 0.402313
0.472748 0.771790 0.404053
0.598755 0.778900 0.407166
0.711456 0.785675 0.410461
0.808838 0.791595 0.413452
0.888733 0.796417 0.416046
0.088593 0.876740 0.436676
0.200989 0.861969 0.419586
0.345245 0.861298 0.414856
0.481567 0.866425 0.415802
0.607574 0.872742 0.418396
0.720154 0.878845 0.421387
0.817413 0.884033 0.424072
0.896881 0.888214 0.426361
0.023865 0.100189 0.480865
0.113617 0.093231 0.471802
0.253082 0.092255 0.465942
0.385040 0.098145 0.466125
0.507416 0.106323 0.467072
0.618225 0.114563 0.468781
0.714050 0.122528 0.470123
0.792908 0.129272 0.471283
0.027740 0.149170 0.486481
0.121399 0.140961 0.476044
0.260895 0.140472 0.470856
0.393219 0.146637 0.471497
0.516602 0.154785 0.473236
0.627777 0.163025 0.475311
0.724518 0.170685 0.477356
0.803894 0.177307 0.479004
0.034302 0.267609 0.497986
0.136078 0.256531 0.484924
0.276123 0.256866 0.480652
0.409851 0.263397 0.481995
0.534668 0.271545 0.484589
0.646881 0.279694 0.487396
0.744385 0.287262 0.490082
0.824463 0.293640 0.492371
0.041443 0.404572 0.512299
0.150879 0.390808 0.496063
0.292450 0.391418 0.492096
0.427368 0.398102 0.493591
0.553040 0.406219 0.496613
0.666016 0.414246 0.499756
0.764008 0.421570 0.502808
0.844482 0.427673 0.505371
0.048523 0.544128 0.528015
0.164337 0.528015 0.509369
0.308258 0.528046 0.504730
0.444092 0.534607 0.506226
0.570526 0.542328 0.509155
0.683868 0.550079 0.512390
0.781952 0.556946 0.515472
0.862457 0.562714 0.518036
0.055145 0.676056 0.543915
0.175323 0.658173 0.523560
0.321838 0.657227 0.517975
0.458801 0.662964 0.518890
0.585693 0.670197 0.521606
0.699127 0.677338 0.524689
0.797119 0.683655 0.527527
0.877411 0.688873 0.529999
0.060974 0.793640 0.558868
0.183228 0.774719 0.537506
0.332825 0.772156 0.530457
0.470764 0.777100 0.530853
0.597809 0.783569 0.533173
0.711151 0.789886 0.535858
0.808990 0.795532 0.538483
0.889038 0.800110 0.540680
0.065674 0.891357 0.571594
0.188080 0.872223 0.550110
0.340515 0.867889 0.541565
0.479462 0.871735 0.541199
0.606689 0.877380 0.542999
0.719910 0.882935 0.545410
0.817383 0.887848 0.547638
0.897034 0.891754 0.549591
0.020813 0.104614 0.615570
0.062744 0.118378 0.627014
0.237396 0.102570 0.606750
0.376007 0.105743 0.604614
0.501495 0.112946 0.604736
0.613770 0.120667 0.605896
0.710693 0.128174 0.606995
0.790466 0.134735 0.608185
0.025543 0.153320 0.622070
0.074921 0.164185 0.630707
0.246521 0.150238 0.612488
0.385162 0.153931 0.610748
0.511383 0.161041 0.611481
0.624207 0.168732 0.612976
0.721771 0.176086 0.614624
0.801636 0.182648 0.615936
0.033569 0.271332 0.634979
0.098083 0.276367 0.637909
0.263824 0.265991 0.622803
0.402924 0.270355 0.621674
0.530334 0.277496 0.623260
0.644104 0.285095 0.625488
0.742371 0.292389 0.627716
0.822998 0.298584 0.629700
0.041229 0.408508 0.649384
0.117767 0.408936 0.647400
0.281464 0.400208 0.633972
0.421509 0.404785 0.633270
0.549377 0.412048 0.635132
0.663696 0.419525 0.637695
0.762451 0.426483 0.640259
0.843323 0.432373 0.642456
0.048676 0.548279 0.664795
0.134491 0.545044 0.659058
0.297974 0.536774 0.646057
0.438873 0.541107 0.645294
0.567291 0.548065 0.647186
0.681854 0.555145 0.649780
0.780609 0.561676 0.652313
0.861481 0.567169 0.654572
0.055542 0.680267 0.680084
0.147675 0.674377 0.671692
0.312042 0.665771 0.658356
0.453766 0.669464 0.657166
0.582581 0.675720 0.658813
0.697174 0.682251 0.661163
0.795715 0.688171 0.663574
0.876373 0.693085 0.665649
0.061523 0.797882 0.694153
0.156097 0.790771 0.684601
0.323303 0.780609 0.669891
0.465729 0.783417 0.668152
0.594727 0.788879 0.669342
0.709076 0.794647 0.671478
0.807434 0.799805 0.673584
0.887756 0.804047 0.675385
0.066315 0.895538 0.705994
0.161011 0.888184 0.696350
0.331207 0.876129 0.679993
0.474426 0.877899 0.677551
0.603485 0.882507 0.678284
0.717651 0.887390 0.679932
0.815643 0.891846 0.681732
0.895599 0.895447 0.683350
0.017212 0.109436 0.744415
0.037354 0.132690 0.765778
0.215088 0.115753 0.744537
0.363342 0.115204 0.738342
0.493164 0.120514 0.737427
0.607208 0.127686 0.737701
0.705811 0.134613 0.738708
0.786346 0.140778 0.739716
0.023132 0.157684 0.752136
0.043213 0.181274 0.773529
0.225464 0.162964 0.750916
0.373749 0.162750 0.745331
0.503815 0.168274 0.744781
0.618622 0.175293 0.745575
0.717468 0.182190 0.746887
0.798279 0.188293 0.748077
0.032562 0.275269 0.766449
0.052856 0.299377 0.788269
0.245514 0.277618 0.761841
0.393219 0.278503 0.757172
0.524078 0.284210 0.757324
0.639648 0.291229 0.758850
0.739014 0.298004 0.760620
0.820282 0.303894 0.762299
0.040833 0.412445 0.781342
0.061279 0.437012 0.803375
0.264771 0.411377 0.772888
0.412689 0.412598 0.768829
0.543884 0.418488 0.769348
0.659912 0.425293 0.771179
0.759583 0.431763 0.773224
0.840973 0.437408 0.775055
0.048645 0.552277 0.796692
0.069153 0.577057 0.818909
0.282654 0.547394 0.784424
0.430664 0.548706 0.780579
0.562134 0.554260 0.781067
0.678162 0.560669 0.782898
0.777802 0.566742 0.784973
0.859192 0.571899 0.786804
0.055725 0.684326 0.811615
0.079498 0.707764 0.832489
0.297760 0.675934 0.796051
0.445984 0.676788 0.791931
0.577576 0.681702 0.792175
0.693512 0.687500 0.793854
0.792908 0.692871 0.795654
0.874054 0.697479 0.797424
0.061859 0.801880 0.825195
0.090668 0.822876 0.843781
0.309174 0.790619 0.806976
0.458008 0.790466 0.802307
0.589722 0.794586 0.802185
0.705383 0.799622 0.803467
0.804474 0.804230 0.805054
0.885193 0.808075 0.806458
0.066742 0.899414 0.836487
0.093994 0.920898 0.855652
0.317474 0.885834 0.816345
0.466797 0.884735 0.811096
0.598450 0.887939 0.810486
0.713776 0.892059 0.811340
0.812408 0.895935 0.812592
0.892822 0.899109 0.813812
0.013550 0.114166 0.856628
0.033722 0.137512 0.878021
0.186127 0.131683 0.868439
0.348724 0.125061 0.856262
0.483307 0.128540 0.853760
0.600067 0.134552 0.853546
0.699951 0.141022 0.854095
0.781311 0.146881 0.854767
0.020660 0.161743 0.865570
0.040894 0.185364 0.887115
0.198456 0.177887 0.875153
0.360413 0.171967 0.864014
0.494995 0.175812 0.861816
0.611908 0.181976 0.861847
0.712219 0.188171 0.862762
0.793793 0.194122 0.863678
0.031342 0.278961 0.881134
0.051636 0.303162 0.902924
0.221741 0.291229 0.886383
0.381744 0.286926 0.876709
0.516571 0.291107 0.875183
0.634186 0.297180 0.875854
0.734650 0.303528 0.877136
0.816711 0.309143 0.878510
0.040314 0.416077 0.896637
0.060822 0.440674 0.918762
0.243500 0.424011 0.897125
0.402222 0.420685 0.888550
0.537109 0.424957 0.887451
0.654968 0.430939 0.888397
0.755676 0.436920 0.889893
0.837769 0.442261 0.891418
0.048462 0.555908 0.912140
0.069000 0.580658 0.934387
0.263367 0.559235 0.908112
0.420715 0.556458 0.900055
0.555756 0.560455 0.899048
0.673553 0.566071 0.900024
0.774109 0.571594 0.901550
0.856079 0.576355 0.903046
0.055756 0.687866 0.926941
0.076263 0.712646 0.949158
0.279266 0.687286 0.919067
0.436432 0.684265 0.911102
0.571411 0.687653 0.909943
0.688934 0.692566 0.910675
0.789215 0.697510 0.911987
0.870880 0.701630 0.913330
0.062012 0.805328 0.940216
0.082428 0.829926 0.962341
0.291382 0.801544 0.929504
0.448822 0.797638 0.921021
0.583466 0.800232 0.919495
0.700714 0.804352 0.919891
0.800629 0.808411 0.920898
0.881836 0.811951 0.922028
0.066925 0.902710 0.951172
0.087341 0.927094 0.973175
0.299927 0.896423 0.938385
0.457428 0.891632 0.929382
0.592102 0.893341 0.927368
0.708984 0.896576 0.927368
0.808441 0.899811 0.928101
0.889282 0.902588 0.928925
