testdata/filters/luthouse/VFW04 - Brightwater Keep.CUBE
#Created by: Adobe Photoshop Export Color Lookup Plugin
#Copyright: (C) Copyright 2017 @ 2017 Joseph Angelo Todaro
TITLE "VFW04 - Brightwater Keep"
#LUT size
LUT_3D_SIZE 32
#data domain
DOMAIN_MIN 0.0 0.0 0.0
DOMAIN_MAX 1.0 1.0 1.0
#LUT data points
0.138153 0.138153 0.138153
0.138153 0.138153 0.138153
0.138153 0.138153 0.138153
0.151825 0.138153 0.138153
0.175140 0.138153 0.138153
0.198303 0.138153 0.138153
0.222260 0.138153 0.138153
0.246796 0.138153 0.138153
0.272614 0.138153 0.138153
0.299194 0.138153 0.138153
0.327332 0.138153 0.138153
0.356964 0.138153 0.138153
0.387604 0.138153 0.138153
0.419586 0.138153 0.138153
0.452087 0.138153 0.138153
0.485748 0.138153 0.138153
0.520020 0.138153 0.138153
0.554596 0.138153 0.138153
0.589874 0.138153 0.138153
0.625336 0.138153 0.138153
0.660492 0.138153 0.138153
0.695099 0.138153 0.138153
0.729187 0.138153 0.138153
0.762299 0.138153 0.138153
0.793945 0.138153 0.138153
0.824432 0.138153 0.138153
0.853149 0.138153 0.138153
0.880249 0.138153 0.138153
0.905273 0.138153 0.138153
0.928406 0.138153 0.138153
0.949524 0.138153 0.138153
0.968872 0.138153 0.138153
0.138153 0.138153 0.138153
0.138153 0.138153 0.138153
0.138153 0.138153 0.138153
0.157074 0.138153 0.138153
0.181091 0.138153 0.138153
0.204926 0.138153 0.138153
0.229736 0.138153 0.138153
0.256012 0.138153 0.138153
0.283325 0.138153 0.138153
0.312225 0.138153 0.138153
0.343475 0.138153 0.138153
0.376221 0.138153 0.138153
0.407532 0.138153 0.138153
0.439972 0.138153 0.138153
0.473022 0.138153 0.138153
0.507080 0.138153 0.138153
0.541718 0.138153 0.138153
0.576569 0.138153 0.138153
0.611908 0.138153 0.138153
0.647308 0.138153 0.138153
0.682312 0.138153 0.138153
0.716492 0.138153 0.138153
0.749908 0.138153 0.138153
0.782318 0.138153 0.138153
0.813110 0.138153 0.138153
0.842621 0.138153 0.138153
0.870209 0.138153 0.138153
0.896179 0.138153 0.138153
0.920013 0.138153 0.138153
0.941864 0.138153 0.138153
0.961884 0.138153 0.138153
0.980316 0.138153 0.138153
0.138153 0.138153 0.138153
0.138153 0.138153 0.138153
0.138153 0.138153 0.138153
0.160400 0.138153 0.138153
0.183258 0.138153 0.138153
0.207611 0.138153 0.138153
0.232391 0.138153 0.138153
0.258240 0.138153 0.138153
0.285858 0.138153 0.138153
0.315033 0.138153 0.138153
0.346252 0.138153 0.138153
0.379211 0.138153 0.138153
0.413544 0.138153 0.138153
0.449402 0.138153 0.138153
0.486908 0.138153 0.138153
0.525360 0.138153 0.138153
0.563599 0.138153 0.138153
0.598755 0.138153 0.138153
0.634033 0.138153 0.138153
0.669189 0.138153 0.138153
0.703857 0.138153 0.138153
0.737427 0.138153 0.138153
0.770264 0.138153 0.138153
0.801910 0.138153 0.138153
0.831726 0.138153 0.138153
0.860138 0.138153 0.138153
0.886597 0.138153 0.138153
0.911163 0.138153 0.138153
0.933990 0.138153 0.138153
0.954620 0.138153 0.138153
0.973663 0.138153 0.138153
0.991272 0.138153 0.138153
0.138153 0.150940 0.138153
0.138153 0.152069 0.138153
0.139526 0.153198 0.138153
0.162262 0.153870 0.138153
0.185669 0.154205 0.138153
0.208893 0.154755 0.138153
0.233643 0.154785 0.138153
0.259125 0.155029 0.138153
0.285858 0.155060 0.138153
0.314453 0.155029 0.138153
0.344818 0.154694 0.138153
0.377197 0.154205 0.138153
0.410706 0.153656 0.138153
0.446167 0.152740 0.138153
0.482391 0.151917 0.138153
0.520721 0.150543 0.138153
0.559448 0.149200 0.138153
0.600647 0.147186 0.138153
0.641235 0.145264 0.138153
0.682343 0.143066 0.138153
0.722931 0.140594 0.138153
0.758270 0.140106 0.140106
0.790100 0.140656 0.140656
0.820831 0.141174 0.141174
0.849670 0.141724 0.141724
0.876953 0.142242 0.142242
0.902283 0.142822 0.142822
0.925629 0.143341 0.143341
0.947021 0.143860 0.143860
0.966553 0.144409 0.144409
0.984650 0.144958 0.144958
1.000000 0.146454 0.146454
0.138153 0.173645 0.138153
0.138153 0.174500 0.138153
0.143158 0.175690 0.138153
0.164825 0.176788 0.138153
0.187561 0.177521 0.138153
0.210876 0.178009 0.138153
0.235474 0.178223 0.138153
0.260437 0.178680 0.138153
0.287445 0.178650 0.138153
0.315979 0.178680 0.138153
0.345398 0.178925 0.138153
0.377258 0.178680 0.138153
0.409943 0.178497 0.138153
0.444153 0.178192 0.138153
0.479919 0.177612 0.138153
0.515900 0.177155 0.138153
0.553802 0.176270 0.138153
0.592072 0.175385 0.138153
0.631195 0.174286 0.138153
0.670532 0.172852 0.138153
0.709717 0.171234 0.138153
0.748657 0.169220 0.138153
0.787689 0.166382 0.138580
0.824860 0.163422 0.144196
0.860077 0.160248 0.150055
0.892731 0.156616 0.156281
0.917206 0.156952 0.156952
0.939301 0.157501 0.157501
0.959503 0.158051 0.158051
0.978119 0.158569 0.158569
0.995422 0.159180 0.159180
1.000000 0.167114 0.167114
0.138153 0.195679 0.138153
0.138153 0.196686 0.138153
0.145935 0.198669 0.138153
0.168121 0.199615 0.138153
0.190643 0.200378 0.138153
0.213470 0.201202 0.138153
0.237518 0.201782 0.138153
0.262787 0.202118 0.138153
0.289154 0.202423 0.138153
0.317505 0.202606 0.138153
0.347168 0.202759 0.138153
0.378357 0.202820 0.138153
0.410828 0.202789 0.138153
0.444550 0.202728 0.138153
0.479523 0.202545 0.138153
0.515045 0.202332 0.138153
0.551849 0.201904 0.138153
0.589111 0.201416 0.138153
0.627075 0.200775 0.138153
0.664978 0.200043 0.138153
0.703186 0.198975 0.138153
0.740326 0.197876 0.138153
0.776184 0.196716 0.138153
0.811371 0.195190 0.138153
0.844910 0.193451 0.138153
0.876892 0.191345 0.141785
0.907135 0.188538 0.147064
0.935242 0.185364 0.152924
0.961517 0.180847 0.160583
0.985107 0.176666 0.167786
1.000000 0.177063 0.177063
1.000000 0.187714 0.187714
0.138153 0.217773 0.138153
0.138153 0.219208 0.138153
0.150635 0.221222 0.138153
0.171753 0.222717 0.138153
0.193329 0.223969 0.138153
0.216370 0.224670 0.138153
0.239990 0.225525 0.138153
0.265137 0.225983 0.138153
0.291656 0.226746 0.138153
0.319611 0.227051 0.138153
0.349091 0.227295 0.138153
0.380096 0.227509 0.138153
0.412262 0.227631 0.138153
0.445709 0.227783 0.138153
0.480347 0.227661 0.138153
0.515472 0.227631 0.138153
0.551849 0.227448 0.138153
0.588745 0.227173 0.138153
0.625946 0.226898 0.138153
0.663361 0.226074 0.138153
0.700104 0.225677 0.138153
0.736298 0.224915 0.138153
0.771729 0.224152 0.138153
0.805969 0.223236 0.138153
0.838623 0.222168 0.138153
0.869232 0.220947 0.138153
0.898224 0.219482 0.138336
0.924774 0.217926 0.141937
0.949158 0.216095 0.145782
0.971954 0.213776 0.150360
0.993073 0.210999 0.155518
1.000000 0.215729 0.170959
0.138153 0.240570 0.138153
0.138153 0.242218 0.138153
0.154572 0.244843 0.138153
0.175018 0.246674 0.138153
0.196777 0.247925 0.138153
0.219147 0.249298 0.138153
0.242798 0.250092 0.138153
0.267731 0.250763 0.138153
0.294159 0.251343 0.138153
0.321869 0.251892 0.138153
0.351349 0.252136 0.138153
0.382172 0.252625 0.138153
0.414307 0.252777 0.138153
0.447571 0.253052 0.138153
0.481720 0.253204 0.138153
0.516785 0.253174 0.138153
0.552795 0.253143 0.138153
0.589203 0.253113 0.138153
0.626251 0.252808 0.138153
0.662933 0.252686 0.138153
0.699493 0.252319 0.138153
0.735016 0.251923 0.138153
0.769745 0.251526 0.138153
0.803436 0.250885 0.138153
0.835358 0.250122 0.138153
0.865784 0.249329 0.138153
0.894073 0.248383 0.138153
0.920319 0.247131 0.138153
0.944336 0.245850 0.140076
0.966187 0.244537 0.143188
0.986420 0.242981 0.146606
1.000000 0.244537 0.154938
0.138153 0.263336 0.138153
0.141205 0.265991 0.138153
0.159180 0.268921 0.138153
0.179016 0.271423 0.138153
0.200134 0.273071 0.138153
0.222321 0.274353 0.138153
0.246002 0.275330 0.138153
0.270844 0.276123 0.138153
0.297089 0.276794 0.138153
0.324707 0.277496 0.138153
0.353943 0.277985 0.138153
0.384796 0.278442 0.138153
0.416626 0.278778 0.138153
0.449768 0.279114 0.138153
0.483887 0.279358 0.138153
0.518768 0.279480 0.138153
0.554291 0.279663 0.138153
0.590515 0.279694 0.138153
0.627075 0.279663 0.138153
0.663696 0.279572 0.138153
0.699799 0.279388 0.138153
0.734924 0.279114 0.138153
0.769470 0.278839 0.138153
0.802704 0.278473 0.138153
0.834167 0.278046 0.138153
0.864197 0.277496 0.138153
0.892090 0.276794 0.138153
0.918060 0.276093 0.138153
0.941803 0.275238 0.138153
0.963379 0.274323 0.139435
0.983307 0.273285 0.142151
1.000000 0.273224 0.146820
0.138153 0.287354 0.138153
0.146912 0.290527 0.138153
0.164337 0.294250 0.138153
0.183319 0.296967 0.138153
0.203918 0.298859 0.138153
0.225677 0.300568 0.138153
0.249359 0.301666 0.138153
0.273865 0.302734 0.138153
0.300049 0.303528 0.138153
0.327728 0.304291 0.138153
0.356995 0.304962 0.138153
0.387512 0.305511 0.138153
0.419617 0.305939 0.138153
0.452209 0.306458 0.138153
0.486328 0.306702 0.138153
0.521118 0.306976 0.138153
0.556305 0.307312 0.138153
0.592560 0.307373 0.138153
0.628876 0.307465 0.138153
0.664948 0.307587 0.138153
0.700867 0.307495 0.138153
0.735779 0.307373 0.138153
0.769897 0.307251 0.138153
0.802734 0.307037 0.138153
0.834015 0.306732 0.138153
0.863617 0.306427 0.138153
0.891235 0.305939 0.138153
0.917084 0.305420 0.138153
0.940521 0.304840 0.138153
0.961945 0.304077 0.138153
0.981720 0.303375 0.139679
1.000000 0.302490 0.142059
0.138153 0.312225 0.138153
0.152802 0.316345 0.138153
0.169495 0.320343 0.138153
0.188385 0.323303 0.138153
0.208313 0.325806 0.138153
0.230133 0.327545 0.138153
0.252960 0.329163 0.138153
0.277283 0.330414 0.138153
0.303223 0.331451 0.138153
0.330963 0.332275 0.138153
0.360107 0.333099 0.138153
0.390717 0.334015 0.138153
0.422363 0.334686 0.138153
0.455200 0.335175 0.138153
0.489044 0.335571 0.138153
0.523590 0.336090 0.138153
0.558838 0.336304 0.138153
0.594604 0.336639 0.138153
0.630768 0.336792 0.138153
0.666779 0.336975 0.138153
0.702301 0.337097 0.138153
0.736938 0.337128 0.138153
0.770905 0.337036 0.138153
0.803619 0.336945 0.138153
0.834412 0.336823 0.138153
0.863861 0.336639 0.138153
0.891174 0.336395 0.138153
0.916748 0.336029 0.138153
0.940002 0.335571 0.138153
0.961273 0.335114 0.138153
0.980835 0.334503 0.138184
0.999084 0.333832 0.140350
0.143158 0.338348 0.138153
0.158661 0.343079 0.138153
0.174683 0.347656 0.138153
0.192780 0.351227 0.138153
0.212585 0.353943 0.138153
0.233826 0.356445 0.138153
0.256683 0.358124 0.138153
0.280884 0.359589 0.138153
0.306946 0.360626 0.138153
0.334625 0.361816 0.138153
0.363617 0.362671 0.138153
0.393738 0.363617 0.138153
0.425659 0.364258 0.138153
0.458466 0.364899 0.138153
0.491821 0.365509 0.138153
0.526459 0.365967 0.138153
0.561737 0.366394 0.138153
0.597107 0.366760 0.138153
0.633087 0.367065 0.138153
0.668945 0.367279 0.138153
0.704193 0.367493 0.138153
0.738892 0.367645 0.138153
0.772278 0.367798 0.138153
0.804688 0.367828 0.138153
0.835297 0.367859 0.138153
0.864655 0.367645 0.138153
0.891754 0.367432 0.138153
0.917053 0.367310 0.138153
0.940063 0.367035 0.138153
0.961090 0.366730 0.138153
0.980560 0.366302 0.138153
0.998596 0.365814 0.139282
0.149750 0.365662 0.138153
0.164978 0.370850 0.138153
0.180206 0.376129 0.138153
0.197754 0.380096 0.138153
0.217102 0.383301 0.138153
0.238037 0.385834 0.138153
0.260590 0.387787 0.138153
0.284668 0.389526 0.138153
0.310547 0.390869 0.138153
0.338104 0.392151 0.138153
0.367004 0.393219 0.138153
0.397491 0.394165 0.138153
0.428925 0.394989 0.138153
0.461731 0.395721 0.138153
0.494995 0.396667 0.138153
0.529480 0.397247 0.138153
0.564545 0.397858 0.138153
0.600006 0.398254 0.138153
0.635773 0.398621 0.138153
0.671234 0.399048 0.138153
0.706512 0.399261 0.138153
0.740845 0.399506 0.138153
0.774078 0.399719 0.138153
0.806152 0.399872 0.138153
0.836853 0.399933 0.138153
0.865631 0.399933 0.138153
0.892456 0.399933 0.138153
0.917633 0.399841 0.138153
0.940552 0.399628 0.138153
0.961395 0.399475 0.138153
0.980621 0.399231 0.138153
0.998535 0.398987 0.138763
0.156708 0.393646 0.138153
0.171265 0.399628 0.138153
0.185974 0.405365 0.138153
0.202820 0.409760 0.138153
0.221985 0.413177 0.138153
0.242554 0.416046 0.138153
0.264893 0.418579 0.138153
0.288940 0.420441 0.138153
0.314636 0.422150 0.138153
0.341858 0.423645 0.138153
0.370667 0.424805 0.138153
0.401245 0.425873 0.138153
0.432587 0.426880 0.138153
0.465179 0.427704 0.138153
0.498383 0.428467 0.138153
0.532806 0.429169 0.138153
0.567657 0.429779 0.138153
0.603149 0.430267 0.138153
0.638458 0.430847 0.138153
0.673981 0.431274 0.138153
0.708832 0.431671 0.138153
0.743164 0.431976 0.138153
0.775940 0.432343 0.138153
0.807983 0.432526 0.138153
0.838379 0.432709 0.138153
0.866852 0.432861 0.138153
0.893585 0.432861 0.138153
0.918549 0.432892 0.138153
0.941193 0.432861 0.138153
0.961945 0.432770 0.138153
0.981079 0.432617 0.138153
0.998810 0.432495 0.138641
0.163513 0.423004 0.138153
0.177338 0.429199 0.138153
0.192108 0.434998 0.138153
0.208496 0.440247 0.138153
0.227264 0.444092 0.138153
0.247192 0.447388 0.138153
0.269562 0.449890 0.138153
0.293457 0.452087 0.138153
0.318878 0.453949 0.138153
0.346130 0.455536 0.138153
0.374908 0.456848 0.138153
0.404999 0.458374 0.138153
0.436340 0.459412 0.138153
0.468719 0.460480 0.138153
0.502258 0.461304 0.138153
0.536102 0.462158 0.138153
0.571045 0.462830 0.138153
0.606415 0.463440 0.138153
0.641846 0.463989 0.138153
0.676727 0.464600 0.138153
0.711487 0.465088 0.138153
0.745422 0.465515 0.138153
0.778473 0.465820 0.138153
0.810028 0.466156 0.138153
0.840118 0.466461 0.138153
0.868408 0.466675 0.138153
0.895142 0.466797 0.138153
0.919617 0.466949 0.138153
0.942078 0.467010 0.138153
0.962708 0.467010 0.138153
0.981659 0.466949 0.138153
0.999268 0.466888 0.138733
0.170654 0.452454 0.138153
0.183990 0.459534 0.138153
0.197754 0.465942 0.138153
0.214050 0.471222 0.138153
0.232117 0.475647 0.138153
0.252319 0.479309 0.138153
0.274292 0.482056 0.138153
0.297882 0.484497 0.138153
0.323303 0.486603 0.138153
0.350281 0.488403 0.138153
0.379120 0.489960 0.138153
0.409180 0.491241 0.138153
0.440430 0.492523 0.138153
0.472717 0.493561 0.138153
0.506012 0.494537 0.138153
0.540039 0.495422 0.138153
0.574615 0.496277 0.138153
0.609650 0.497009 0.138153
0.644958 0.497711 0.138153
0.680023 0.498260 0.138153
0.714294 0.498962 0.138153
0.748047 0.499603 0.138153
0.780823 0.500092 0.138153
0.812103 0.500488 0.138153
0.842102 0.500763 0.138153
0.870209 0.501068 0.138153
0.896606 0.501343 0.138153
0.920929 0.501556 0.138153
0.943207 0.501740 0.138153
0.963593 0.501770 0.138153
0.982422 0.501862 0.138153
0.999908 0.501892 0.139008
0.177490 0.483032 0.138153
0.190460 0.490234 0.138153
0.204071 0.497040 0.138153
0.219818 0.502960 0.138153
0.237488 0.507751 0.138153
0.257416 0.511505 0.138153
0.279022 0.514709 0.138153
0.302460 0.517334 0.138153
0.327911 0.519775 0.138153
0.355164 0.521729 0.138153
0.383392 0.523529 0.138153
0.413483 0.524933 0.138153
0.444641 0.526306 0.138153
0.476746 0.527496 0.138153
0.509918 0.528564 0.138153
0.543884 0.529572 0.138153
0.578278 0.530487 0.138153
0.613159 0.531403 0.138153
0.648376 0.532104 0.138153
0.683289 0.532776 0.138153
0.717346 0.533447 0.138153
0.750824 0.534088 0.138153
0.783478 0.534515 0.138153
0.814392 0.535034 0.138153
0.844177 0.535461 0.138153
0.872040 0.535858 0.138153
0.898254 0.536194 0.138153
0.922363 0.536438 0.138153
0.944397 0.536713 0.138153
0.964630 0.536865 0.138153
0.983276 0.537109 0.138153
1.000000 0.537567 0.140778
0.184509 0.513977 0.138153
0.197021 0.521729 0.138153
0.210419 0.528931 0.138153
0.225525 0.535034 0.138153
0.243073 0.540283 0.138153
0.262573 0.544434 0.138153
0.284149 0.547791 0.138153
0.307465 0.550690 0.138153
0.332550 0.553192 0.138153
0.359741 0.555359 0.138153
0.388092 0.557190 0.138153
0.418060 0.558838 0.138153
0.448944 0.560577 0.138153
0.481140 0.561951 0.138153
0.514038 0.563080 0.138153
0.547821 0.564178 0.138153
0.582336 0.565155 0.138153
0.616852 0.566193 0.138153
0.651886 0.566956 0.138153
0.686584 0.567719 0.138153
0.720795 0.568390 0.138153
0.753784 0.569122 0.138153
0.786102 0.569733 0.138153
0.817139 0.570251 0.138153
0.846466 0.570740 0.138153
0.874023 0.571228 0.138153
0.899994 0.571594 0.138153
0.923859 0.571960 0.138153
0.945740 0.572296 0.138153
0.965790 0.572540 0.138153
0.984314 0.572815 0.138763
1.000000 0.573822 0.143280
0.191803 0.544983 0.138153
0.203613 0.553436 0.138153
0.216766 0.561188 0.138153
0.232025 0.567535 0.138153
0.249268 0.572845 0.138153
0.268280 0.577332 0.138153
0.289490 0.581238 0.138153
0.312866 0.584442 0.138153
0.337860 0.587128 0.138153
0.364655 0.589325 0.138153
0.392853 0.591461 0.138153
0.422668 0.593262 0.138153
0.453491 0.594849 0.138153
0.485596 0.596283 0.138153
0.518219 0.597656 0.138153
0.552032 0.598785 0.138153
0.586365 0.599976 0.138153
0.621033 0.601135 0.138153
0.655457 0.602142 0.138153
0.690002 0.602905 0.138153
0.723969 0.603668 0.138153
0.756927 0.604401 0.138153
0.788940 0.605103 0.138153
0.819702 0.605743 0.138153
0.848724 0.606323 0.138153
0.876343 0.606812 0.138153
0.901917 0.607300 0.138153
0.925507 0.607727 0.138153
0.947205 0.608093 0.138153
0.967010 0.608490 0.138153
0.985413 0.608734 0.139404
1.000000 0.610168 0.146332
0.199097 0.576294 0.138153
0.210541 0.585663 0.138153
0.223236 0.593384 0.138153
0.238220 0.600250 0.138153
0.255096 0.605988 0.138153
0.274261 0.610626 0.138153
0.295288 0.614594 0.138153
0.318268 0.617981 0.138153
0.343079 0.621155 0.138153
0.369720 0.623566 0.138153
0.397980 0.625793 0.138153
0.427521 0.627686 0.138153
0.458374 0.629395 0.138153
0.490082 0.630981 0.138153
0.522827 0.632355 0.138153
0.556152 0.633636 0.138153
0.590454 0.634857 0.138153
0.625092 0.635834 0.138153
0.659424 0.636871 0.138153
0.693634 0.637848 0.138153
0.727295 0.638733 0.138153
0.760223 0.639404 0.138153
0.791901 0.640411 0.138153
0.822327 0.641113 0.138153
0.851257 0.641724 0.138153
0.878601 0.642365 0.138153
0.903870 0.642883 0.138153
0.927277 0.643341 0.138153
0.948700 0.643768 0.138153
0.968414 0.644165 0.138977
0.986603 0.644501 0.140198
1.000000 0.646423 0.150208
0.206696 0.608002 0.138153
0.217194 0.617889 0.138153
0.229797 0.626160 0.138153
0.244324 0.632965 0.138153
0.261261 0.638733 0.138153
0.279938 0.643951 0.138153
0.300934 0.648010 0.138153
0.323944 0.651520 0.138153
0.348602 0.654602 0.138153
0.375000 0.657318 0.138153
0.403198 0.659698 0.138153
0.432556 0.661926 0.138153
0.463226 0.663727 0.138153
0.494751 0.665405 0.138153
0.527435 0.666870 0.138153
0.560913 0.668182 0.138153
0.594696 0.669434 0.138153
0.629120 0.670624 0.138153
0.663544 0.671692 0.138153
0.697357 0.672668 0.138153
0.730896 0.673553 0.138153
0.763580 0.674377 0.138153
0.794952 0.675201 0.138153
0.825256 0.675903 0.138153
0.853790 0.676575 0.138153
0.880890 0.677185 0.138153
0.906006 0.677734 0.138153
0.929108 0.678253 0.138153
0.950287 0.678772 0.138580
0.969849 0.679291 0.139832
0.987885 0.679871 0.140961
1.000000 0.682007 0.154724
0.214081 0.639374 0.138153
0.223999 0.650208 0.138153
0.236755 0.658173 0.138153
0.251312 0.665405 0.138153
0.267487 0.671448 0.138153
0.286255 0.676514 0.138153
0.306946 0.681061 0.138153
0.329651 0.684814 0.138153
0.354309 0.687927 0.138153
0.380737 0.690765 0.138153
0.408569 0.693146 0.138153
0.437958 0.695312 0.138153
0.468292 0.697235 0.138153
0.499939 0.699188 0.138153
0.532196 0.700806 0.138153
0.565552 0.702240 0.138153
0.599213 0.703491 0.138153
0.633453 0.704681 0.138153
0.667542 0.705841 0.138153
0.701477 0.706818 0.138153
0.734406 0.707764 0.138153
0.766998 0.708710 0.138153
0.798340 0.709534 0.138153
0.828186 0.710266 0.138153
0.856628 0.710999 0.138153
0.883270 0.711700 0.138153
0.908081 0.712311 0.138153
0.931000 0.712921 0.138336
0.951965 0.713409 0.139496
0.971527 0.713898 0.140656
0.989227 0.714355 0.141815
1.000000 0.716553 0.160339
0.221375 0.671082 0.138153
0.231018 0.682190 0.138153
0.243286 0.690247 0.138153
0.257904 0.697266 0.138153
0.274292 0.703552 0.138153
0.292755 0.708832 0.138153
0.313354 0.713287 0.138153
0.335907 0.717133 0.138153
0.360229 0.720673 0.138153
0.386353 0.723541 0.138153
0.414093 0.726044 0.138153
0.443268 0.728271 0.138153
0.473511 0.730255 0.138153
0.504913 0.732086 0.138153
0.537079 0.733734 0.138153
0.570251 0.735168 0.138153
0.604004 0.736542 0.138153
0.637878 0.737762 0.138153
0.671844 0.739136 0.138153
0.705353 0.740204 0.138153
0.738251 0.741180 0.138153
0.770447 0.742126 0.138153
0.801575 0.742920 0.138153
0.831177 0.743713 0.138153
0.859406 0.744507 0.138153
0.885773 0.745239 0.138153
0.910278 0.745911 0.138153
0.933105 0.746582 0.139252
0.953918 0.747101 0.140381
0.973053 0.747650 0.141541
0.990814 0.748169 0.142700
1.000000 0.750122 0.166626
0.229431 0.701904 0.138153
0.238312 0.713287 0.138153
0.250580 0.721649 0.138153
0.264679 0.728668 0.138153
0.280823 0.734863 0.138153
0.299255 0.740356 0.138153
0.319550 0.744934 0.138153
0.341980 0.748871 0.138153
0.366180 0.752258 0.138153
0.392181 0.755219 0.138153
0.419983 0.757782 0.138153
0.448792 0.760284 0.138153
0.479065 0.762360 0.138153
0.510162 0.764160 0.138153
0.542450 0.765869 0.138153
0.575195 0.767303 0.138153
0.608704 0.768707 0.138153
0.642548 0.770020 0.138153
0.676117 0.771210 0.138153
0.709595 0.772278 0.138153
0.742249 0.773346 0.138153
0.774017 0.774261 0.138153
0.804840 0.775146 0.138153
0.834198 0.776001 0.138153
0.862152 0.776703 0.138153
0.888245 0.777466 0.138153
0.912537 0.778351 0.139038
0.935181 0.778992 0.140167
0.955688 0.779572 0.141266
0.974670 0.780151 0.142456
0.992279 0.780670 0.143555
1.000000 0.782318 0.173920
0.236877 0.732208 0.138153
0.245422 0.743958 0.138153
0.257568 0.752045 0.138153
0.271637 0.759338 0.138153
0.287659 0.765411 0.138153
0.305725 0.770782 0.138153
0.326141 0.775269 0.138153
0.348419 0.779480 0.138153
0.372467 0.782928 0.138153
0.398560 0.785858 0.138153
0.425842 0.788513 0.138153
0.454498 0.790833 0.138153
0.484619 0.792938 0.138153
0.515564 0.794861 0.138153
0.547729 0.796478 0.138153
0.580444 0.798309 0.138153
0.613586 0.799683 0.138153
0.647247 0.800964 0.138153
0.680695 0.802155 0.138153
0.713684 0.803253 0.138153
0.746185 0.804321 0.138153
0.777832 0.805267 0.138153
0.808289 0.806152 0.138153
0.837555 0.807037 0.138153
0.865051 0.807831 0.138153
0.890808 0.808563 0.138916
0.915131 0.809204 0.140015
0.937225 0.809906 0.141113
0.957520 0.810486 0.142242
0.976288 0.811066 0.143341
0.993744 0.811584 0.144470
1.000000 0.812653 0.182922
0.244476 0.761902 0.138153
0.252686 0.773712 0.138153
0.264679 0.781677 0.138153
0.278625 0.788666 0.138153
0.294800 0.794647 0.138153
0.312714 0.800232 0.138153
0.332825 0.804749 0.138153
0.355164 0.808716 0.138153
0.379181 0.812073 0.138153
0.404724 0.815125 0.138153
0.431824 0.817993 0.138153
0.460602 0.820343 0.138153
0.490295 0.822418 0.138153
0.521271 0.824310 0.138153
0.552979 0.825989 0.138153
0.585541 0.827576 0.138153
0.618591 0.828979 0.138153
0.651978 0.830231 0.138153
0.685394 0.831421 0.138153
0.717957 0.832550 0.138153
0.750244 0.833588 0.138153
0.781647 0.834564 0.138153
0.811768 0.835449 0.138153
0.840698 0.836456 0.138153
0.867889 0.837341 0.138641
0.893463 0.838104 0.139862
0.917480 0.838776 0.140961
0.939331 0.839478 0.142059
0.959442 0.840057 0.143158
0.978027 0.840668 0.144318
0.995270 0.841187 0.145386
1.000000 0.841370 0.193207
0.252502 0.790344 0.138153
0.260071 0.802307 0.138153
0.272095 0.810028 0.138153
0.285797 0.817047 0.138153
0.301849 0.822937 0.138153
0.319794 0.828125 0.138153
0.339844 0.832581 0.138153
0.361908 0.836700 0.138153
0.385773 0.840057 0.138153
0.411133 0.843079 0.138153
0.438385 0.845734 0.138153
0.466675 0.848053 0.138153
0.496277 0.850067 0.138153
0.526978 0.852020 0.138153
0.558441 0.853729 0.138153
0.590942 0.855255 0.138153
0.623932 0.856873 0.138153
0.656860 0.858093 0.138153
0.690002 0.859375 0.138153
0.722626 0.860443 0.138153
0.754425 0.861511 0.138153
0.785553 0.862427 0.138153
0.815369 0.863281 0.138153
0.843994 0.864136 0.138489
0.870911 0.864960 0.139587
0.896423 0.865723 0.140747
0.919861 0.866394 0.141907
0.941528 0.867065 0.143005
0.961334 0.867676 0.144104
0.979767 0.868286 0.145233
0.996857 0.868805 0.146301
1.000000 0.867859 0.205750
0.260345 0.817932 0.138153
0.267914 0.829193 0.138153
0.279449 0.837341 0.138153
0.293549 0.843750 0.138153
0.309204 0.849518 0.138153
0.327026 0.854523 0.138153
0.347046 0.859131 0.138153
0.368866 0.862946 0.138153
0.392395 0.866302 0.138153
0.417847 0.869263 0.138153
0.444580 0.871918 0.138153
0.472870 0.874115 0.138153
0.502380 0.876404 0.138153
0.532806 0.878265 0.138153
0.564392 0.879913 0.138153
