testdata/filters/luthouse/VFW09 - Casterly Rock.CUBE
#Created by: Adobe Photoshop Export Color Lookup Plugin
#Copyright: (C) Copyright 2017 @ 2017 Joseph Angelo Todaro
TITLE "VFW09 - Casterly Rock"
#LUT size
LUT_3D_SIZE 5
#data domain
#LUT data points
DOMAIN_MIN 0.000000 0.000000 0.000000
DOMAIN_MAX 0.903226 0.903226 0.903226
0.082397 0.069275 0.137848
0.237823 0.076477 0.140045
0.453949 0.090912 0.144836
0.645447 0.106323 0.149628
0.792419 0.119263 0.153778
0.092316 0.202576 0.148468
0.252136 0.209991 0.151459
0.472351 0.224823 0.158661
0.667603 0.239838 0.166138
0.817230 0.252106 0.172455
0.106415 0.437805 0.177460
0.275848 0.443604 0.178101
0.500946 0.458801 0.186005
0.699066 0.473602 0.194519
0.850250 0.485229 0.201691
0.114502 0.669098 0.216644
0.296661 0.670410 0.212311
0.526093 0.683868 0.218689
0.725311 0.697357 0.226562
0.876617 0.707703 0.233032
0.113098 0.856354 0.254761
0.310516 0.850739 0.243744
0.543182 0.861481 0.247772
0.742432 0.872925 0.254303
0.893127 0.881531 0.259827
0.077148 0.072510 0.200348
0.236542 0.078217 0.200958
0.453766 0.092560 0.205078
0.645782 0.108063 0.208984
0.793243 0.121063 0.212341
0.088287 0.205658 0.210602
0.251343 0.211914 0.212006
0.472534 0.226624 0.218170
0.668243 0.241669 0.224915
0.818237 0.253998 0.230408
0.103180 0.441528 0.236511
0.275818 0.446045 0.235748
0.501953 0.460938 0.242859
0.700317 0.475708 0.250671
0.851715 0.487396 0.257141
0.111328 0.673676 0.271973
0.297485 0.673218 0.266083
0.527557 0.686432 0.271820
0.726990 0.699829 0.279053
0.878387 0.710114 0.285095
0.109955 0.861481 0.306946
0.311554 0.853943 0.294159
0.544830 0.864349 0.297668
0.744263 0.875610 0.303772
0.894928 0.884033 0.308838
0.032928 0.094971 0.411926
0.225586 0.087128 0.398376
0.449890 0.099243 0.399811
0.644958 0.114075 0.402802
0.793701 0.126831 0.405212
0.048279 0.227203 0.421997
0.243011 0.220398 0.409729
0.470734 0.233002 0.413239
0.668671 0.247650 0.418488
0.819580 0.259827 0.422729
0.068115 0.462677 0.443695
0.269897 0.455078 0.430298
0.501434 0.467896 0.434387
0.701538 0.482086 0.440643
0.853699 0.493439 0.445770
0.076111 0.696381 0.473969
0.292847 0.682831 0.454559
0.528015 0.693848 0.457428
0.728790 0.706421 0.463135
0.880676 0.716248 0.467926
0.068848 0.887634 0.505737
0.307678 0.863922 0.476532
0.545563 0.871948 0.477417
0.746155 0.882202 0.481903
0.897186 0.890015 0.485901
0.019714 0.106018 0.648407
0.194824 0.106262 0.644135
0.437744 0.111237 0.638458
0.638397 0.124146 0.640015
0.789520 0.136261 0.641754
0.031403 0.240204 0.665283
0.217377 0.237701 0.657318
0.461609 0.243927 0.653839
0.664307 0.256866 0.657074
0.817169 0.268372 0.660309
0.044983 0.479584 0.690857
0.248474 0.471436 0.676666
0.494568 0.478333 0.674438
0.698639 0.490814 0.678497
0.852295 0.501373 0.682465
0.057251 0.712219 0.717407
0.273743 0.698761 0.697968
0.521729 0.703949 0.694794
0.725952 0.714630 0.698273
0.879059 0.723419 0.701813
0.066467 0.896545 0.739380
0.289154 0.879456 0.716736
0.539398 0.881531 0.711578
0.743011 0.889679 0.713898
0.895050 0.896362 0.716614
0.013550 0.114166 0.856628
0.130768 0.139954 0.877655
0.418457 0.126160 0.854584
0.626709 0.136230 0.853668
0.781311 0.146881 0.854767
0.028870 0.246887 0.877289
0.165192 0.266235 0.891022
0.446014 0.257141 0.872437
0.655334 0.267426 0.872711
0.811035 0.277802 0.874969
0.044464 0.486145 0.904388
0.206390 0.496094 0.908203
0.481354 0.490570 0.893433
0.691437 0.500305 0.894684
0.847351 0.509705 0.897430
0.057404 0.718750 0.930389
0.236359 0.721222 0.926910
0.509369 0.715302 0.912628
0.719025 0.723206 0.913391
0.873962 0.730713 0.915649
0.066925 0.902710 0.951172
0.253082 0.900909 0.943848
0.526978 0.892151 0.927979
0.735565 0.897430 0.927551
0.889282 0.902588 0.928925
