testdata/filters/luthouse/VFW04 - Brightwater Keep.CUBE
#Created by: Adobe Photoshop Export Color Lookup Plugin
#Copyright: (C) Copyright 2017 @ 2017 Joseph Angelo Todaro
TITLE "VFW04 - Brightwater Keep"
#LUT size
LUT_3D_SIZE 8
#data domain
#LUT data points
DOMAIN_MIN 0.000000 0.000000 0.000000
DOMAIN_MAX 0.903226 0.903226 0.903226
0.138153 0.138153 0.138153
0.175140 0.138153 0.138153
0.272614 0.138153 0.138153
0.387604 0.138153 0.138153
0.520020 0.138153 0.138153
0.660492 0.138153 0.138153
0.793945 0.138153 0.138153
0.905273 0.138153 0.138153
0.138153 0.173645 0.138153
0.187561 0.177521 0.138153
0.287445 0.178650 0.138153
0.409943 0.178497 0.138153
0.553802 0.176270 0.138153
0.709717 0.171234 0.138153
0.860077 0.160248 0.150055
0.959503 0.158051 0.158051
0.138153 0.263336 0.138153
0.200134 0.273071 0.138153
0.297089 0.276794 0.138153
0.416626 0.278778 0.138153
0.554291 0.279663 0.138153
0.699799 0.279388 0.138153
0.834167 0.278046 0.138153
0.941803 0.275238 0.138153
0.149750 0.365662 0.138153
0.217102 0.383301 0.138153
0.310547 0.390869 0.138153
0.428925 0.394989 0.138153
0.564545 0.397858 0.138153
0.706512 0.399261 0.138153
0.836853 0.399933 0.138153
0.940552 0.399628 0.138153
0.177490 0.483032 0.138153
0.237488 0.507751 0.138153
0.327911 0.519775 0.138153
0.444641 0.526306 0.138153
0.578278 0.530487 0.138153
0.717346 0.533447 0.138153
0.844177 0.535461 0.138153
0.944397 0.536713 0.138153
0.206696 0.608002 0.138153
0.261261 0.638733 0.138153
0.348602 0.654602 0.138153
0.463226 0.663727 0.138153
0.594696 0.669434 0.138153
0.730896 0.673553 0.138153
0.853790 0.676575 0.138153
0.950287 0.678772 0.138580
0.236877 0.732208 0.138153
0.287659 0.765411 0.138153
0.372467 0.782928 0.138153
0.484619 0.792938 0.138153
0.613586 0.799683 0.138153
0.746185 0.804321 0.138153
0.865051 0.807831 0.138153
0.957520 0.810486 0.142242
0.268372 0.843994 0.138153
0.316833 0.874603 0.138153
0.399536 0.890930 0.138153
0.508575 0.900757 0.138153
0.634644 0.906982 0.138153
0.763184 0.911407 0.138153
0.877319 0.914917 0.141388
0.965302 0.917572 0.145966
0.138153 0.138153 0.152405
0.181366 0.138153 0.160858
0.277618 0.138153 0.163239
0.392975 0.138153 0.165131
0.525635 0.138153 0.166626
0.666138 0.138153 0.167419
0.799347 0.138153 0.167999
0.909485 0.138153 0.167999
0.138153 0.172638 0.161133
0.194366 0.178802 0.168396
0.293457 0.180878 0.173370
0.416138 0.180969 0.179230
0.560669 0.178925 0.187378
0.716309 0.174011 0.199158
0.865936 0.162994 0.219727
0.963013 0.162109 0.224823
0.138153 0.263733 0.156677
0.207214 0.275421 0.167419
0.303253 0.279999 0.172882
0.423462 0.282379 0.176819
0.561615 0.283417 0.181274
0.706604 0.283478 0.186096
0.840363 0.282379 0.191711
0.946106 0.279999 0.198547
0.158844 0.368866 0.147400
0.224548 0.387665 0.161957
0.318115 0.396301 0.168457
0.436890 0.400818 0.172729
0.572937 0.403717 0.176361
0.714569 0.405609 0.179535
0.843964 0.406586 0.183167
0.945801 0.406952 0.186401
0.187042 0.490021 0.138153
0.246490 0.515350 0.148743
0.337769 0.528015 0.157257
0.454987 0.535095 0.162170
0.589478 0.539978 0.165741
0.728241 0.543427 0.168060
0.853394 0.545990 0.170074
0.951385 0.547943 0.171661
0.217407 0.622192 0.138153
0.273987 0.651611 0.138153
0.362579 0.668030 0.138153
0.478302 0.677307 0.139954
0.610809 0.683685 0.143341
0.746155 0.688263 0.145782
0.866730 0.691803 0.147400
0.959930 0.694702 0.149170
0.247437 0.749756 0.138153
0.302185 0.779419 0.138153
0.388733 0.796478 0.138153
0.501770 0.806763 0.138153
0.631073 0.813263 0.138641
0.762207 0.818085 0.143646
0.878021 0.821564 0.148285
0.966644 0.824249 0.152740
0.277649 0.860443 0.138153
0.331787 0.886047 0.138153
0.415833 0.901947 0.138153
0.525848 0.911346 0.138153
0.652008 0.917694 0.141479
0.778839 0.922028 0.147064
0.889587 0.925232 0.151886
0.974335 0.927765 0.156464
0.138153 0.138153 0.199249
0.191650 0.138153 0.240540
0.284515 0.138153 0.245148
0.399323 0.138153 0.248474
0.531128 0.138153 0.250793
0.670898 0.138153 0.252777
0.802948 0.138153 0.254456
0.911926 0.138153 0.255920
0.138153 0.165955 0.238220
0.205719 0.176483 0.251129
0.301727 0.180176 0.258545
0.424438 0.180725 0.266113
0.568146 0.178955 0.276215
0.723663 0.173859 0.291229
0.871582 0.162537 0.317017
0.964874 0.163116 0.321930
0.149017 0.258759 0.237335
0.216858 0.273315 0.252075
0.310516 0.279541 0.259583
0.430054 0.282410 0.265198
0.567383 0.283813 0.271179
0.711456 0.283966 0.277527
0.843964 0.282867 0.285248
0.948486 0.280243 0.295074
0.170624 0.364288 0.233521
0.232880 0.385223 0.250854
0.324554 0.394989 0.259521
0.442505 0.400421 0.265289
0.577637 0.403625 0.270569
0.718170 0.405640 0.275513
0.846405 0.406616 0.280792
0.947235 0.406738 0.286621
0.194885 0.485168 0.226929
0.253113 0.511627 0.246185
0.342529 0.525543 0.256927
0.458923 0.533173 0.263458
0.592133 0.538116 0.268555
0.729858 0.541779 0.273315
0.854187 0.544128 0.277832
0.951508 0.545715 0.282532
0.221405 0.614807 0.217163
0.276917 0.645294 0.238373
0.364197 0.662476 0.250946
0.478760 0.672180 0.258514
0.609955 0.678467 0.264160
0.744507 0.683319 0.268829
0.864746 0.686737 0.273224
0.958160 0.689362 0.277252
0.250458 0.743500 0.204346
0.304352 0.773651 0.226746
0.389679 0.791748 0.240753
0.501923 0.802490 0.249878
0.630615 0.809479 0.256073
0.761383 0.814362 0.260986
0.877136 0.818420 0.265076
0.966034 0.821411 0.268768
0.281769 0.857819 0.187103
0.335693 0.883942 0.210144
0.419373 0.900269 0.225525
0.528473 0.910065 0.235840
0.654053 0.916718 0.242676
0.780426 0.921265 0.248199
0.890747 0.924683 0.252441
0.975220 0.927490 0.255798
0.138153 0.138153 0.243561
0.205963 0.138153 0.327545
0.295135 0.138153 0.336975
0.408051 0.138153 0.342010
0.538788 0.138153 0.345612
0.677429 0.138153 0.348694
0.807983 0.138153 0.351318
0.915558 0.138153 0.353668
0.158051 0.157257 0.323273
0.221924 0.172058 0.343414
0.315002 0.177765 0.355469
0.436249 0.179352 0.366180
0.579407 0.177856 0.379333
0.735565 0.171967 0.399902
0.879150 0.161713 0.428497
0.967621 0.164246 0.431122
0.170410 0.251556 0.323517
0.231384 0.269226 0.344635
0.322052 0.277832 0.356201
0.440094 0.281799 0.364319
0.576385 0.283569 0.372040
0.719391 0.283997 0.380798
0.849701 0.283081 0.390533
0.952606 0.280518 0.402802
0.188049 0.357697 0.322205
0.246002 0.381195 0.344971
0.335480 0.393127 0.357727
0.451721 0.399780 0.365845
0.585907 0.403595 0.372589
0.725128 0.405914 0.379517
0.851257 0.407104 0.386444
0.950500 0.407349 0.394135
0.209076 0.479523 0.318359
0.264923 0.507751 0.342804
0.352478 0.523468 0.357239
0.467468 0.532288 0.366211
0.599518 0.537872 0.373138
0.735931 0.541840 0.379578
0.858673 0.544525 0.385681
0.954529 0.546204 0.391907
0.233368 0.609619 0.311920
0.287506 0.641479 0.338013
0.373260 0.660217 0.354218
0.486450 0.670898 0.364624
0.616516 0.677826 0.372131
0.749512 0.682983 0.378693
0.868317 0.686646 0.384430
0.960419 0.689362 0.390137
0.260071 0.738953 0.303436
0.313873 0.769928 0.330414
0.398010 0.789062 0.348572
0.508575 0.800690 0.360474
0.635834 0.808197 0.368835
0.765381 0.813416 0.375732
0.879822 0.817596 0.381653
0.967590 0.820618 0.387085
0.289124 0.853516 0.292816
0.343262 0.880310 0.320312
0.425537 0.897461 0.340149
0.533569 0.907806 0.353210
0.657715 0.914856 0.362885
0.782990 0.919617 0.370117
0.892242 0.923218 0.376465
0.975922 0.926025 0.382050
0.153961 0.138153 0.293549
0.220154 0.138153 0.406769
0.309113 0.138153 0.441132
0.420197 0.138153 0.448730
0.549011 0.138153 0.454132
0.685852 0.138153 0.458557
0.814178 0.138153 0.462189
0.919800 0.138153 0.465393
0.185974 0.147583 0.422638
0.243713 0.165283 0.449646
0.333435 0.173431 0.466736
0.453674 0.175934 0.481384
0.596649 0.174683 0.498108
0.751648 0.168488 0.523346
0.884460 0.162445 0.546570
0.971039 0.165161 0.550018
0.194427 0.242920 0.422180
0.250946 0.263275 0.449341
0.338348 0.274261 0.465454
0.454102 0.279663 0.476440
0.588531 0.282501 0.486328
0.729370 0.283264 0.496613
0.857452 0.282623 0.508392
0.957672 0.280060 0.522552
0.209015 0.349274 0.422272
0.263977 0.374969 0.450348
0.350494 0.389526 0.467316
0.464935 0.397766 0.478210
0.596954 0.402557 0.487122
0.734009 0.405579 0.495239
0.858093 0.407074 0.503845
0.955048 0.407501 0.512909
0.227692 0.471558 0.420349
0.281555 0.501984 0.449799
0.366821 0.520050 0.468170
0.479889 0.530334 0.479950
0.610138 0.536865 0.488708
0.744385 0.541534 0.496368
0.864655 0.544678 0.503906
0.958344 0.546631 0.511383
0.249603 0.603119 0.416138
0.302917 0.636047 0.446930
0.387085 0.656555 0.467102
0.498016 0.669006 0.480072
0.626312 0.676880 0.489441
0.757233 0.682617 0.497192
0.873749 0.686646 0.504364
0.963928 0.689575 0.511230
0.274445 0.733612 0.410034
0.327759 0.765717 0.441925
0.410553 0.786255 0.463684
0.519592 0.799042 0.477966
0.645203 0.807159 0.488464
0.772369 0.812927 0.496643
0.884674 0.817413 0.504028
0.970703 0.820709 0.510590
0.302124 0.849609 0.401794
0.355988 0.877228 0.434479
0.437012 0.895233 0.457855
0.543732 0.906281 0.473907
0.666260 0.913818 0.485535
0.789093 0.919006 0.494354
0.896759 0.922821 0.502014
0.978607 0.925842 0.508789
0.173340 0.138153 0.348877
0.236694 0.138153 0.484955
0.326691 0.138153 0.552917
0.434875 0.138153 0.563721
0.561737 0.138153 0.570923
0.696045 0.138153 0.576477
0.821991 0.138153 0.581299
0.924835 0.138153 0.585266
0.216156 0.138153 0.533295
0.270721 0.156311 0.565735
0.358032 0.166870 0.587769
0.476807 0.170563 0.606415
0.620178 0.169189 0.627960
0.772949 0.162628 0.656586
0.890900 0.162750 0.668304
0.975281 0.165710 0.672302
0.220306 0.233978 0.530029
0.274231 0.255981 0.562042
0.358826 0.268951 0.582336
0.472198 0.276184 0.596436
0.604553 0.279907 0.608490
0.742371 0.281494 0.620392
0.867035 0.281036 0.633423
0.963959 0.278717 0.648773
0.232666 0.340057 0.530701
0.285828 0.367279 0.563171
0.369720 0.384460 0.583984
0.481567 0.394196 0.597626
0.611359 0.400391 0.608490
0.745575 0.404175 0.617920
0.866241 0.406281 0.627533
0.960358 0.407043 0.637512
0.249420 0.462616 0.530182
0.302063 0.494385 0.563629
0.385345 0.514709 0.585419
0.495575 0.527100 0.599670
0.623535 0.534943 0.610382
0.754669 0.540436 0.619293
0.872162 0.544037 0.627899
0.963135 0.546448 0.636108
0.269043 0.594910 0.528076
0.322327 0.629272 0.562286
0.404724 0.651794 0.585541
0.513214 0.665985 0.600952
0.639069 0.675018 0.612061
0.767242 0.681580 0.621246
0.880920 0.686127 0.629150
0.968323 0.689575 0.636810
0.292694 0.727051 0.523865
0.345825 0.760406 0.558929
0.427094 0.782471 0.583832
0.533752 0.796295 0.600647
0.657074 0.805634 0.612457
0.781738 0.812073 0.622101
0.891113 0.817017 0.630096
0.975006 0.820587 0.637512
0.319214 0.844788 0.517670
0.372711 0.873077 0.553680
0.452637 0.892120 0.580170
0.557068 0.904419 0.598145
0.677368 0.912415 0.611298
0.797821 0.918274 0.621552
0.902527 0.922455 0.630005
0.982330 0.925690 0.637482
0.192780 0.138153 0.409149
0.254944 0.138153 0.561951
0.343872 0.138153 0.654785
0.452789 0.138153 0.680603
0.576569 0.138153 0.689545
0.708252 0.138153 0.695984
0.830750 0.138153 0.701599
0.930603 0.138153 0.706055
0.249725 0.138153 0.652222
0.303436 0.145264 0.687256
0.389465 0.157410 0.712585
0.507935 0.162170 0.734589
0.650848 0.160706 0.759003
0.790436 0.158508 0.778473
0.898529 0.162598 0.783325
0.979950 0.165863 0.787567
0.248932 0.224030 0.643402
0.301300 0.247253 0.677460
0.383636 0.262482 0.700684
0.494019 0.271454 0.716705
0.623566 0.276245 0.729919
0.758057 0.278412 0.742706
0.878632 0.278473 0.755768
0.971802 0.276245 0.771057
0.258972 0.329742 0.643707
0.311127 0.358490 0.677887
0.392822 0.377777 0.701263
0.501740 0.389496 0.716675
0.628479 0.397186 0.728577
0.759277 0.401764 0.738922
0.876282 0.404480 0.748657
0.966614 0.405731 0.758759
0.274048 0.452332 0.644043
0.326294 0.485596 0.678864
0.407227 0.508179 0.702820
0.514648 0.522583 0.718536
0.639709 0.531799 0.730286
0.767456 0.538116 0.739990
0.881287 0.542633 0.748596
0.968781 0.545532 0.756897
0.292480 0.585541 0.643341
0.345398 0.621155 0.678650
0.425659 0.645782 0.703674
0.531616 0.661713 0.720367
0.654297 0.672241 0.732269
0.779266 0.679718 0.741943
0.889099 0.684967 0.750092
0.973785 0.688873 0.757782
0.314606 0.719208 0.640900
0.367584 0.753479 0.677002
0.447266 0.777161 0.703156
0.551483 0.792725 0.720856
0.671814 0.803253 0.733429
0.792786 0.810516 0.743408
0.898865 0.815857 0.751648
0.979889 0.820129 0.759277
0.339783 0.838989 0.636566
0.393250 0.868195 0.673676
0.471802 0.888458 0.700958
0.573944 0.901855 0.719971
0.691315 0.910706 0.733459
0.808228 0.917145 0.744019
0.909607 0.921753 0.752594
0.986908 0.925293 0.760254
0.212402 0.138153 0.473328
0.274536 0.138153 0.637329
0.361908 0.138153 0.743439
0.473389 0.138153 0.789856
0.594208 0.138153 0.799622
0.722229 0.138153 0.806610
0.840973 0.138153 0.812164
0.937317 0.138153 0.816864
0.289276 0.138153 0.772003
0.345184 0.138153 0.806183
0.431702 0.144073 0.832062
0.549652 0.149353 0.854156
0.682617 0.151855 0.870911
0.803253 0.157318 0.877228
0.906891 0.161957 0.881989
0.985199 0.165741 0.885925
0.280029 0.213684 0.754303
0.332184 0.237823 0.787384
0.412720 0.254608 0.810333
0.520233 0.264984 0.826691
0.646301 0.271240 0.839752
0.776215 0.274200 0.851624
0.891876 0.274597 0.863983
0.980713 0.272522 0.877777
0.287750 0.319183 0.753326
0.340118 0.348511 0.786438
0.419922 0.369598 0.809387
0.525299 0.383514 0.825043
0.648651 0.392334 0.836914
0.774963 0.398254 0.846649
0.887329 0.401764 0.855774
0.973999 0.403412 0.864777
0.301331 0.441437 0.753937
0.353821 0.475403 0.787384
0.432831 0.500244 0.810516
0.537109 0.516357 0.826355
0.658478 0.527496 0.837952
0.782166 0.534943 0.847107
0.891418 0.540283 0.855133
0.975555 0.543793 0.862854
0.318634 0.574890 0.754089
0.371552 0.611633 0.787781
0.450043 0.638184 0.811584
0.553009 0.656097 0.827881
0.672394 0.668274 0.839722
0.792877 0.676666 0.848724
0.898804 0.682983 0.856598
0.979858 0.687439 0.863525
0.339386 0.710144 0.753082
0.392700 0.745605 0.787231
0.470520 0.770996 0.811737
0.571991 0.788300 0.828857
0.688904 0.800049 0.841034
0.805908 0.808258 0.850342
0.907715 0.814270 0.858154
0.985565 0.819092 0.864929
0.363342 0.832001 0.750641
0.417236 0.862396 0.785400
0.493896 0.883972 0.810913
0.593689 0.898529 0.828766
0.707550 0.908386 0.841705
0.820496 0.915527 0.851318
0.918060 0.920654 0.859436
0.992371 0.924591 0.866180
