testdata/bw01-bogart.cube
#Created by: Adobe Photoshop Export Color Lookup Plugin
#Copyright: (C) Copyright 2017 @ 2017 Joseph Angelo Todaro
TITLE "BW01 - Bogart"
#LUT size
LUT_3D_SIZE 8
#data domain
#LUT data points
DOMAIN_MIN 0.000000 0.000000 0.000000
DOMAIN_MAX 0.903226 0.903226 0.903226
0.235168 0.235168 0.235168
0.234314 0.234314 0.234314
0.234283 0.234283 0.234283
0.235779 0.235779 0.235779
0.239807 0.239807 0.239807
0.247314 0.247314 0.247314
0.259216 0.259216 0.259216
0.276642 0.276642 0.276642
0.234253 0.234253 0.234253
0.235687 0.235687 0.235687
0.239624 0.239624 0.239624
0.246948 0.246948 0.246948
0.258759 0.258759 0.258759
0.276031 0.276031 0.276031
0.299530 0.299530 0.299530
0.330231 0.330231 0.330231
0.239441 0.239441 0.239441
0.246674 0.246674 0.246674
0.258331 0.258331 0.258331
0.275269 0.275269 0.275269
0.298676 0.298676 0.298676
0.328949 0.328949 0.328949
0.366730 0.366730 0.366730
0.411621 0.411621 0.411621
0.257782 0.257782 0.257782
0.274628 0.274628 0.274628
0.297821 0.297821 0.297821
0.327850 0.327850 0.327850
0.365448 0.365448 0.365448
0.409821 0.409821 0.409821
0.460785 0.460785 0.460785
0.516388 0.516388 0.516388
0.296814 0.296814 0.296814
0.326813 0.326813 0.326813
0.363922 0.363922 0.363922
0.408325 0.408325 0.408325
0.459106 0.459106 0.459106
0.514587 0.514587 0.514587
0.573944 0.573944 0.573944
0.634613 0.634613 0.634613
0.362610 0.362610 0.362610
0.406799 0.406799 0.406799
0.457062 0.457062 0.457062
0.512787 0.512787 0.512787
0.571686 0.571686 0.571686
0.632721 0.632721 0.632721
0.693604 0.693604 0.693604
0.752075 0.752075 0.752075
0.455414 0.455414 0.455414
0.510956 0.510956 0.510956
0.569794 0.569794 0.569794
0.630768 0.630768 0.630768
0.691345 0.691345 0.691345
0.750275 0.750275 0.750275
0.805206 0.805206 0.805206
0.855316 0.855316 0.855316
0.567871 0.567871 0.567871
0.628479 0.628479 0.628479
0.689453 0.689453 0.689453
0.748444 0.748444 0.748444
0.803528 0.803528 0.803528
0.853851 0.853851 0.853851
0.897675 0.897675 0.897675
0.934937 0.934937 0.934937
0.234802 0.234802 0.234802
0.234161 0.234161 0.234161
0.234589 0.234589 0.234589
0.236908 0.236908 0.236908
0.242065 0.242065 0.242065
0.251129 0.251129 0.251129
0.264893 0.264893 0.264893
0.284607 0.284607 0.284607
0.234558 0.234558 0.234558
0.236786 0.236786 0.236786
0.241852 0.241852 0.241852
0.250763 0.250763 0.250763
0.264374 0.264374 0.264374
0.283875 0.283875 0.283875
0.309845 0.309845 0.309845
0.343262 0.343262 0.343262
0.241638 0.241638 0.241638
0.250336 0.250336 0.250336
0.263855 0.263855 0.263855
0.282990 0.282990 0.282990
0.308929 0.308929 0.308929
0.342133 0.342133 0.342133
0.382355 0.382355 0.382355
0.429626 0.429626 0.429626
0.263336 0.263336 0.263336
0.282318 0.282318 0.282318
0.308014 0.308014 0.308014
0.340729 0.340729 0.340729
0.380951 0.380951 0.380951
0.427765 0.427765 0.427765
0.480652 0.480652 0.480652
0.537781 0.537781 0.537781
0.307098 0.307098 0.307098
0.339569 0.339569 0.339569
0.379578 0.379578 0.379578
0.426117 0.426117 0.426117
0.478943 0.478943 0.478943
0.535950 0.535950 0.535950
0.596161 0.596161 0.596161
0.656952 0.656952 0.656952
0.377960 0.377960 0.377960
0.424591 0.424591 0.424591
0.476837 0.476837 0.476837
0.534058 0.534058 0.534058
0.594238 0.594238 0.594238
0.655060 0.655060 0.655060
0.715424 0.715424 0.715424
0.772675 0.772675 0.772675
0.475098 0.475098 0.475098
0.532227 0.532227 0.532227
0.591888 0.591888 0.591888
0.653168 0.653168 0.653168
0.713165 0.713165 0.713165
0.770935 0.770935 0.770935
0.824158 0.824158 0.824158
0.872131 0.872131 0.872131
0.589996 0.589996 0.589996
0.651245 0.651245 0.651245
0.711304 0.711304 0.711304
0.769196 0.769196 0.769196
0.822571 0.822571 0.822571
0.870728 0.870728 0.870728
0.912079 0.912079 0.912079
0.946838 0.946838 0.946838
0.234467 0.234467 0.234467
0.234161 0.234161 0.234161
0.235168 0.235168 0.235168
0.238434 0.238434 0.238434
0.244873 0.244873 0.244873
0.255585 0.255585 0.255585
0.271454 0.271454 0.271454
0.293396 0.293396 0.293396
0.235107 0.235107 0.235107
0.238281 0.238281 0.238281
0.244629 0.244629 0.244629
0.255157 0.255157 0.255157
0.270752 0.270752 0.270752
0.292633 0.292633 0.292633
0.321198 0.321198 0.321198
0.357330 0.357330 0.357330
0.244354 0.244354 0.244354
0.254669 0.254669 0.254669
0.270172 0.270172 0.270172
0.291809 0.291809 0.291809
0.320190 0.320190 0.320190
0.356079 0.356079 0.356079
0.398834 0.398834 0.398834
0.448425 0.448425 0.448425
0.269592 0.269592 0.269592
0.290863 0.290863 0.290863
0.319214 0.319214 0.319214
0.354553 0.354553 0.354553
0.397339 0.397339 0.397339
0.446411 0.446411 0.446411
0.501190 0.501190 0.501190
0.559937 0.559937 0.559937
0.318207 0.318207 0.318207
0.353302 0.353302 0.353302
0.395905 0.395905 0.395905
0.444794 0.444794 0.444794
0.499420 0.499420 0.499420
0.557678 0.557678 0.557678
0.618439 0.618439 0.618439
0.679199 0.679199 0.679199
0.394196 0.394196 0.394196
0.443176 0.443176 0.443176
0.497620 0.497620 0.497620
0.555756 0.555756 0.555756
0.616516 0.616516 0.616516
0.677277 0.677277 0.677277
0.736816 0.736816 0.736816
0.792755 0.792755 0.792755
0.495514 0.495514 0.495514
0.553925 0.553925 0.553925
0.614227 0.614227 0.614227
0.675354 0.675354 0.675354
0.734985 0.734985 0.734985
0.791077 0.791077 0.791077
0.842682 0.842682 0.842682
0.888000 0.888000 0.888000
0.612305 0.612305 0.612305
0.673462 0.673462 0.673462
0.732788 0.732788 0.732788
0.789337 0.789337 0.789337
0.840820 0.840820 0.840820
0.886688 0.886688 0.886688
0.925537 0.925537 0.925537
0.957977 0.957977 0.957977
0.234253 0.234253 0.234253
0.234344 0.234344 0.234344
0.236023 0.236023 0.236023
0.240356 0.240356 0.240356
0.248291 0.248291 0.248291
0.260712 0.260712 0.260712
0.278748 0.278748 0.278748
0.303162 0.303162 0.303162
0.235931 0.235931 0.235931
0.240173 0.240173 0.240173
0.247925 0.247925 0.247925
0.260223 0.260223 0.260223
0.277954 0.277954 0.277954
0.302277 0.302277 0.302277
0.333740 0.333740 0.333740
0.372284 0.372284 0.372284
0.247620 0.247620 0.247620
0.259766 0.259766 0.259766
0.277313 0.277313 0.277313
0.301392 0.301392 0.301392
0.332428 0.332428 0.332428
0.370941 0.370941 0.370941
0.416199 0.416199 0.416199
0.467896 0.467896 0.467896
0.276642 0.276642 0.276642
0.300385 0.300385 0.300385
0.331329 0.331329 0.331329
0.369629 0.369629 0.369629
0.414673 0.414673 0.414673
0.466217 0.466217 0.466217
0.522247 0.522247 0.522247
0.582001 0.582001 0.582001
0.330231 0.330231 0.330231
0.368042 0.368042 0.368042
0.413116 0.413116 0.413116
0.464142 0.464142 0.464142
0.520416 0.520416 0.520416
0.580048 0.580048 0.580048
0.640808 0.640808 0.640808
0.701538 0.701538 0.701538
0.411621 0.411621 0.411621
0.462433 0.462433 0.462433
0.518616 0.518616 0.518616
0.577789 0.577789 0.577789
0.638885 0.638885 0.638885
0.699249 0.699249 0.699249
0.757812 0.757812 0.757812
0.812134 0.812134 0.812134
0.516388 0.516388 0.516388
0.575897 0.575897 0.575897
0.636993 0.636993 0.636993
0.697357 0.697357 0.697357
0.756012 0.756012 0.756012
0.810516 0.810516 0.810516
0.860046 0.860046 0.860046
0.903015 0.903015 0.903015
0.634613 0.634613 0.634613
0.695526 0.695526 0.695526
0.753845 0.753845 0.753845
0.808868 0.808868 0.808868
0.858276 0.858276 0.858276
0.901764 0.901764 0.901764
0.938293 0.938293 0.938293
0.968414 0.968414 0.968414
0.234161 0.234161 0.234161
0.234741 0.234741 0.234741
0.237274 0.237274 0.237274
0.242798 0.242798 0.242798
0.252289 0.252289 0.252289
0.266602 0.266602 0.266602
0.286926 0.286926 0.286926
0.313843 0.313843 0.313843
0.237152 0.237152 0.237152
0.242554 0.242554 0.242554
0.251831 0.251831 0.251831
0.266052 0.266052 0.266052
0.286163 0.286163 0.286163
0.312927 0.312927 0.312927
0.347046 0.347046 0.347046
0.388214 0.388214 0.388214
0.251465 0.251465 0.251465
0.265533 0.265533 0.265533
0.285309 0.285309 0.285309
0.311951 0.311951 0.311951
0.345642 0.345642 0.345642
0.386810 0.386810 0.386810
0.434418 0.434418 0.434418
0.488068 0.488068 0.488068
0.284607 0.284607 0.284607
0.310974 0.310974 0.310974
0.344452 0.344452 0.344452
0.385406 0.385406 0.385406
0.432831 0.432831 0.432831
0.486298 0.486298 0.486298
0.543762 0.543762 0.543762
0.604187 0.604187 0.604187
0.343262 0.343262 0.343262
0.383698 0.383698 0.383698
0.431183 0.431183 0.431183
0.484558 0.484558 0.484558
0.541901 0.541901 0.541901
0.602325 0.602325 0.602325
0.663086 0.663086 0.663086
0.723206 0.723206 0.723206
0.429626 0.429626 0.429626
0.482452 0.482452 0.482452
0.540009 0.540009 0.540009
0.599976 0.599976 0.599976
0.661194 0.661194 0.661194
0.720978 0.720978 0.720978
0.778259 0.778259 0.778259
0.831146 0.831146 0.831146
0.538147 0.538147 0.538147
0.598053 0.598053 0.598053
0.659271 0.659271 0.659271
0.719086 0.719086 0.719086
0.776550 0.776550 0.776550
0.829285 0.829285 0.829285
0.876617 0.876617 0.876617
0.917084 0.917084 0.917084
0.656952 0.656952 0.656952
0.717224 0.717224 0.717224
0.774475 0.774475 0.774475
0.827637 0.827637 0.827637
0.875183 0.875183 0.875183
0.915894 0.915894 0.915894
0.950012 0.950012 0.950012
0.978149 0.978149 0.978149
0.234192 0.234192 0.234192
0.235382 0.235382 0.235382
0.238892 0.238892 0.238892
0.245758 0.245758 0.245758
0.256927 0.256927 0.256927
0.273285 0.273285 0.273285
0.296021 0.296021 0.296021
0.325562 0.325562 0.325562
0.238708 0.238708 0.238708
0.245483 0.245483 0.245483
0.256470 0.256470 0.256470
0.272644 0.272644 0.272644
0.295166 0.295166 0.295166
0.324524 0.324524 0.324524
0.361328 0.361328 0.361328
0.405029 0.405029 0.405029
0.255981 0.255981 0.255981
0.272064 0.272064 0.272064
0.294189 0.294189 0.294189
0.323456 0.323456 0.323456
0.360077 0.360077 0.360077
0.403534 0.403534 0.403534
0.453735 0.453735 0.453735
0.508789 0.508789 0.508789
0.293396 0.293396 0.293396
0.322418 0.322418 0.322418
0.358551 0.358551 0.358551
0.402039 0.402039 0.402039
0.451691 0.451691 0.451691
0.506958 0.506958 0.506958
0.565613 0.565613 0.565613
0.626556 0.626556 0.626556
0.357330 0.357330 0.357330
0.400574 0.400574 0.400574
0.450043 0.450043 0.450043
0.505157 0.505157 0.505157
0.563751 0.563751 0.563751
0.624634 0.624634 0.624634
0.685272 0.685272 0.685272
0.744507 0.744507 0.744507
0.448425 0.448425 0.448425
0.503021 0.503021 0.503021
0.561829 0.561829 0.561829
0.622681 0.622681 0.622681
0.683380 0.683380 0.683380
0.742645 0.742645 0.742645
0.798157 0.798157 0.798157
0.849030 0.849030 0.849030
0.559937 0.559937 0.559937
0.620361 0.620361 0.620361
0.681427 0.681427 0.681427
0.740448 0.740448 0.740448
0.796509 0.796509 0.796509
0.847290 0.847290 0.847290
0.892242 0.892242 0.892242
0.930420 0.930420 0.930420
0.679565 0.679565 0.679565
0.738678 0.738678 0.738678
0.794739 0.794739 0.794739
0.845703 0.845703 0.845703
0.890900 0.890900 0.890900
0.929108 0.929108 0.929108
0.960938 0.960938 0.960938
0.987335 0.987335 0.987335
0.234406 0.234406 0.234406
0.236328 0.236328 0.236328
0.240997 0.240997 0.240997
0.249268 0.249268 0.249268
0.262238 0.262238 0.262238
0.280914 0.280914 0.280914
0.306000 0.306000 0.306000
0.338440 0.338440 0.338440
0.240784 0.240784 0.240784
0.248932 0.248932 0.248932
0.261749 0.261749 0.261749
0.280090 0.280090 0.280090
0.305115 0.305115 0.305115
0.337067 0.337067 0.337067
0.376587 0.376587 0.376587
0.422729 0.422729 0.422729
0.261169 0.261169 0.261169
0.279449 0.279449 0.279449
0.304199 0.304199 0.304199
0.335968 0.335968 0.335968
0.375244 0.375244 0.375244
0.421143 0.421143 0.421143
0.473389 0.473389 0.473389
0.530029 0.530029 0.530029
0.303162 0.303162 0.303162
0.334869 0.334869 0.334869
0.373627 0.373627 0.373627
0.419617 0.419617 0.419617
0.471313 0.471313 0.471313
0.528137 0.528137 0.528137
0.588074 0.588074 0.588074
0.648865 0.648865 0.648865
0.372284 0.372284 0.372284
0.418091 0.418091 0.418091
0.469604 0.469604 0.469604
0.526337 0.526337 0.526337
0.585815 0.585815 0.585815
0.647003 0.647003 0.647003
0.707153 0.707153 0.707153
0.765289 0.765289 0.765289
0.467896 0.467896 0.467896
0.524506 0.524506 0.524506
0.583923 0.583923 0.583923
0.645050 0.645050 0.645050
0.705292 0.705292 0.705292
0.763550 0.763550 0.763550
0.817383 0.817383 0.817383
0.866150 0.866150 0.866150
0.582001 0.582001 0.582001
0.642761 0.642761 0.642761
0.703369 0.703369 0.703369
0.761353 0.761353 0.761353
0.815735 0.815735 0.815735
0.864716 0.864716 0.864716
0.906982 0.906982 0.906982
0.942657 0.942657 0.942657
0.701538 0.701538 0.701538
0.759613 0.759613 0.759613
0.814148 0.814148 0.814148
0.863007 0.863007 0.863007
0.905762 0.905762 0.905762
0.941406 0.941406 0.941406
0.971161 0.971161 0.971161
0.995911 0.995911 0.995911
0.234863 0.234863 0.234863
0.237671 0.237671 0.237671
0.243561 0.243561 0.243561
0.253479 0.253479 0.253479
0.268372 0.268372 0.268372
0.289337 0.289337 0.289337
0.317017 0.317017 0.317017
0.352112 0.352112 0.352112
0.243317 0.243317 0.243317
0.253021 0.253021 0.253021
0.267792 0.267792 0.267792
0.288391 0.288391 0.288391
0.316010 0.316010 0.316010
0.350647 0.350647 0.350647
0.392761 0.392761 0.392761
0.441498 0.441498 0.441498
0.267242 0.267242 0.267242
0.287659 0.287659 0.287659
0.315002 0.315002 0.315002
0.349426 0.349426 0.349426
0.391296 0.391296 0.391296
0.439575 0.439575 0.439575
0.493713 0.493713 0.493713
0.551605 0.551605 0.551605
0.313843 0.313843 0.313843
0.348267 0.348267 0.348267
0.389618 0.389618 0.389618
0.437958 0.437958 0.437958
0.491974 0.491974 0.491974
0.549774 0.549774 0.549774
0.610382 0.610382 0.610382
0.671143 0.671143 0.671143
0.388214 0.388214 0.388214
0.436371 0.436371 0.436371
0.489838 0.489838 0.489838
0.547882 0.547882 0.547882
0.608459 0.608459 0.608459
0.669281 0.669281 0.669281
0.729126 0.729126 0.729126
0.785583 0.785583 0.785583
0.488068 0.488068 0.488068
0.546021 0.546021 0.546021
0.606140 0.606140 0.606140
0.667297 0.667297 0.667297
0.726929 0.726929 0.726929
0.783813 0.783813 0.783813
0.835876 0.835876 0.835876
0.882385 0.882385 0.882385
0.604187 0.604187 0.604187
0.665039 0.665039 0.665039
0.725037 0.725037 0.725037
0.782074 0.782074 0.782074
0.834290 0.834290 0.834290
0.880981 0.880981 0.880981
0.920776 0.920776 0.920776
0.954041 0.954041 0.954041
0.723206 0.723206 0.723206
0.779999 0.779999 0.779999
0.832703 0.832703 0.832703
0.879303 0.879303 0.879303
0.919647 0.919647 0.919647
0.953094 0.953094 0.953094
0.980743 0.980743 0.980743
0.999969 0.999969 0.999969
