testdata/bw01-bogart.cube
#Created by: Adobe Photoshop Export Color Lookup Plugin
#Copyright: (C) Copyright 2017 @ 2017 Joseph Angelo Todaro
TITLE "BW01 - Bogart"
#LUT size
LUT_3D_SIZE 32
#data domain
DOMAIN_MIN 0.0 0.0 0.0
DOMAIN_MAX 1.0 1.0 1.0
#LUT data points
0.235168 0.235168 0.235168
0.234894 0.234894 0.234894
0.234680 0.234680 0.234680
0.234467 0.234467 0.234467
0.234314 0.234314 0.234314
0.234222 0.234222 0.234222
0.234131 0.234131 0.234131
0.234161 0.234161 0.234161
0.234283 0.234283 0.234283
0.234467 0.234467 0.234467
0.234772 0.234772 0.234772
0.235199 0.235199 0.235199
0.235779 0.235779 0.235779
0.236481 0.236481 0.236481
0.237396 0.237396 0.237396
0.238495 0.238495 0.238495
0.239807 0.239807 0.239807
0.241302 0.241302 0.241302
0.243042 0.243042 0.243042
0.245026 0.245026 0.245026
0.247314 0.247314 0.247314
0.249817 0.249817 0.249817
0.252655 0.252655 0.252655
0.255798 0.255798 0.255798
0.259216 0.259216 0.259216
0.263031 0.263031 0.263031
0.267242 0.267242 0.267242
0.271698 0.271698 0.271698
0.276642 0.276642 0.276642
0.281891 0.281891 0.281891
0.287659 0.287659 0.287659
0.293854 0.293854 0.293854
0.234680 0.234680 0.234680
0.234467 0.234467 0.234467
0.234314 0.234314 0.234314
0.234222 0.234222 0.234222
0.234131 0.234131 0.234131
0.234161 0.234161 0.234161
0.234283 0.234283 0.234283
0.234467 0.234467 0.234467
0.234741 0.234741 0.234741
0.235199 0.235199 0.235199
0.235748 0.235748 0.235748
0.236481 0.236481 0.236481
0.237396 0.237396 0.237396
0.238464 0.238464 0.238464
0.239777 0.239777 0.239777
0.241241 0.241241 0.241241
0.242981 0.242981 0.242981
0.244995 0.244995 0.244995
0.247192 0.247192 0.247192
0.249725 0.249725 0.249725
0.252594 0.252594 0.252594
0.255646 0.255646 0.255646
0.259125 0.259125 0.259125
0.262939 0.262939 0.262939
0.267029 0.267029 0.267029
0.271576 0.271576 0.271576
0.276520 0.276520 0.276520
0.281769 0.281769 0.281769
0.287537 0.287537 0.287537
0.293549 0.293549 0.293549
0.300201 0.300201 0.300201
0.307281 0.307281 0.307281
0.234314 0.234314 0.234314
0.234222 0.234222 0.234222
0.234131 0.234131 0.234131
0.234161 0.234161 0.234161
0.234253 0.234253 0.234253
0.234436 0.234436 0.234436
0.234741 0.234741 0.234741
0.235168 0.235168 0.235168
0.235718 0.235718 0.235718
0.236450 0.236450 0.236450
0.237305 0.237305 0.237305
0.238434 0.238434 0.238434
0.239716 0.239716 0.239716
0.241211 0.241211 0.241211
0.242950 0.242950 0.242950
0.244873 0.244873 0.244873
0.247131 0.247131 0.247131
0.249664 0.249664 0.249664
0.252411 0.252411 0.252411
0.255585 0.255585 0.255585
0.259033 0.259033 0.259033
0.262756 0.262756 0.262756
0.266907 0.266907 0.266907
0.271454 0.271454 0.271454
0.276276 0.276276 0.276276
0.281647 0.281647 0.281647
0.287231 0.287231 0.287231
0.293396 0.293396 0.293396
0.300049 0.300049 0.300049
0.306915 0.306915 0.306915
0.314423 0.314423 0.314423
0.322418 0.322418 0.322418
0.234161 0.234161 0.234161
0.234161 0.234161 0.234161
0.234253 0.234253 0.234253
0.234436 0.234436 0.234436
0.234741 0.234741 0.234741
0.235138 0.235138 0.235138
0.235718 0.235718 0.235718
0.236420 0.236420 0.236420
0.237305 0.237305 0.237305
0.238373 0.238373 0.238373
0.239655 0.239655 0.239655
0.241150 0.241150 0.241150
0.242889 0.242889 0.242889
0.244812 0.244812 0.244812
0.247070 0.247070 0.247070
0.249542 0.249542 0.249542
0.252350 0.252350 0.252350
0.255463 0.255463 0.255463
0.258850 0.258850 0.258850
0.262665 0.262665 0.262665
0.266815 0.266815 0.266815
0.271210 0.271210 0.271210
0.276154 0.276154 0.276154
0.281464 0.281464 0.281464
0.287079 0.287079 0.287079
0.293243 0.293243 0.293243
0.299683 0.299683 0.299683
0.306763 0.306763 0.306763
0.314270 0.314270 0.314270
0.322052 0.322052 0.322052
0.330444 0.330444 0.330444
0.339355 0.339355 0.339355
0.234253 0.234253 0.234253
0.234436 0.234436 0.234436
0.234741 0.234741 0.234741
0.235138 0.235138 0.235138
0.235687 0.235687 0.235687
0.236389 0.236389 0.236389
0.237274 0.237274 0.237274
0.238312 0.238312 0.238312
0.239624 0.239624 0.239624
0.241119 0.241119 0.241119
0.242798 0.242798 0.242798
0.244781 0.244781 0.244781
0.246948 0.246948 0.246948
0.249481 0.249481 0.249481
0.252289 0.252289 0.252289
0.255310 0.255310 0.255310
0.258759 0.258759 0.258759
0.262573 0.262573 0.262573
0.266602 0.266602 0.266602
0.271088 0.271088 0.271088
0.276031 0.276031 0.276031
0.281158 0.281158 0.281158
0.286926 0.286926 0.286926
0.292908 0.292908 0.292908
0.299530 0.299530 0.299530
0.306549 0.306549 0.306549
0.313843 0.313843 0.313843
0.321838 0.321838 0.321838
0.330231 0.330231 0.330231
0.338898 0.338898 0.338898
0.348267 0.348267 0.348267
0.358032 0.358032 0.358032
0.234711 0.234711 0.234711
0.235107 0.235107 0.235107
0.235657 0.235657 0.235657
0.236389 0.236389 0.236389
0.237244 0.237244 0.237244
0.238312 0.238312 0.238312
0.239563 0.239563 0.239563
0.241028 0.241028 0.241028
0.242737 0.242737 0.242737
0.244720 0.244720 0.244720
0.246918 0.246918 0.246918
0.249420 0.249420 0.249420
0.252136 0.252136 0.252136
0.255249 0.255249 0.255249
0.258667 0.258667 0.258667
0.262360 0.262360 0.262360
0.266479 0.266479 0.266479
0.270996 0.270996 0.270996
0.275787 0.275787 0.275787
0.281036 0.281036 0.281036
0.286774 0.286774 0.286774
0.292786 0.292786 0.292786
0.299347 0.299347 0.299347
0.306213 0.306213 0.306213
0.313690 0.313690 0.313690
0.321625 0.321625 0.321625
0.329834 0.329834 0.329834
0.338654 0.338654 0.338654
0.347992 0.347992 0.347992
0.357574 0.357574 0.357574
0.367798 0.367798 0.367798
0.378479 0.378479 0.378479
0.235657 0.235657 0.235657
0.236328 0.236328 0.236328
0.237213 0.237213 0.237213
0.238281 0.238281 0.238281
0.239502 0.239502 0.239502
0.240997 0.240997 0.240997
0.242706 0.242706 0.242706
0.244629 0.244629 0.244629
0.246826 0.246826 0.246826
0.249268 0.249268 0.249268
0.252045 0.252045 0.252045
0.255157 0.255157 0.255157
0.258484 0.258484 0.258484
0.262238 0.262238 0.262238
0.266388 0.266388 0.266388
0.270752 0.270752 0.270752
0.275635 0.275635 0.275635
0.280914 0.280914 0.280914
0.286499 0.286499 0.286499
0.292633 0.292633 0.292633
0.299011 0.299011 0.299011
0.306000 0.306000 0.306000
0.313507 0.313507 0.313507
0.321198 0.321198 0.321198
0.329590 0.329590 0.329590
0.338440 0.338440 0.338440
0.347534 0.347534 0.347534
0.357330 0.357330 0.357330
0.367523 0.367523 0.367523
0.377960 0.377960 0.377960
0.389038 0.389038 0.389038
0.400299 0.400299 0.400299
0.237183 0.237183 0.237183
0.238220 0.238220 0.238220
0.239471 0.239471 0.239471
0.240936 0.240936 0.240936
0.242615 0.242615 0.242615
0.244568 0.244568 0.244568
0.246796 0.246796 0.246796
0.249207 0.249207 0.249207
0.251984 0.251984 0.251984
0.255005 0.255005 0.255005
0.258392 0.258392 0.258392
0.262146 0.262146 0.262146
0.266174 0.266174 0.266174
0.270630 0.270630 0.270630
0.275482 0.275482 0.275482
0.280640 0.280640 0.280640
0.286316 0.286316 0.286316
0.292450 0.292450 0.292450
0.298828 0.298828 0.298828
0.305817 0.305817 0.305817
0.313110 0.313110 0.313110
0.320984 0.320984 0.320984
0.329376 0.329376 0.329376
0.337952 0.337952 0.337952
0.347260 0.347260 0.347260
0.357056 0.357056 0.357056
0.367004 0.367004 0.367004
0.377686 0.377686 0.377686
0.388733 0.388733 0.388733
0.399994 0.399994 0.399994
0.411926 0.411926 0.411926
0.423950 0.423950 0.423950
0.239441 0.239441 0.239441
0.240875 0.240875 0.240875
0.242554 0.242554 0.242554
0.244507 0.244507 0.244507
0.246674 0.246674 0.246674
0.249146 0.249146 0.249146
0.251831 0.251831 0.251831
0.254913 0.254913 0.254913
0.258331 0.258331 0.258331
0.261963 0.261963 0.261963
0.266052 0.266052 0.266052
0.270538 0.270538 0.270538
0.275269 0.275269 0.275269
0.280487 0.280487 0.280487
0.286163 0.286163 0.286163
0.292145 0.292145 0.292145
0.298676 0.298676 0.298676
0.305664 0.305664 0.305664
0.312927 0.312927 0.312927
0.320770 0.320770 0.320770
0.328949 0.328949 0.328949
0.337769 0.337769 0.337769
0.347046 0.347046 0.347046
0.356537 0.356537 0.356537
0.366730 0.366730 0.366730
0.377411 0.377411 0.377411
0.388214 0.388214 0.388214
0.399719 0.399719 0.399719
0.411621 0.411621 0.411621
0.423645 0.423645 0.423645
0.436371 0.436371 0.436371
0.449066 0.449066 0.449066
0.242523 0.242523 0.242523
0.244415 0.244415 0.244415
0.246613 0.246613 0.246613
0.249054 0.249054 0.249054
0.251770 0.251770 0.251770
0.254822 0.254822 0.254822
0.258148 0.258148 0.258148
0.261841 0.261841 0.261841
0.265961 0.265961 0.265961
0.270294 0.270294 0.270294
0.275146 0.275146 0.275146
0.280365 0.280365 0.280365
0.285889 0.285889 0.285889
0.291992 0.291992 0.291992
0.298492 0.298492 0.298492
0.305298 0.305298 0.305298
0.312714 0.312714 0.312714
0.320404 0.320404 0.320404
0.328705 0.328705 0.328705
0.337555 0.337555 0.337555
0.346558 0.346558 0.346558
0.356293 0.356293 0.356293
0.366486 0.366486 0.366486
0.376831 0.376831 0.376831
0.387909 0.387909 0.387909
0.399414 0.399414 0.399414
0.411011 0.411011 0.411011
0.423340 0.423340 0.423340
0.435669 0.435669 0.435669
0.448730 0.448730 0.448730
0.462097 0.462097 0.462097
0.475494 0.475494 0.475494
0.246552 0.246552 0.246552
0.248932 0.248932 0.248932
0.251709 0.251709 0.251709
0.254669 0.254669 0.254669
0.258026 0.258026 0.258026
0.261749 0.261749 0.261749
0.265747 0.265747 0.265747
0.270172 0.270172 0.270172
0.275024 0.275024 0.275024
0.280090 0.280090 0.280090
0.285736 0.285736 0.285736
0.291809 0.291809 0.291809
0.298157 0.298157 0.298157
0.305115 0.305115 0.305115
0.312317 0.312317 0.312317
0.320190 0.320190 0.320190
0.328522 0.328522 0.328522
0.337067 0.337067 0.337067
0.346313 0.346313 0.346313
0.356079 0.356079 0.356079
0.365967 0.365967 0.365967
0.376587 0.376587 0.376587
0.387634 0.387634 0.387634
0.398834 0.398834 0.398834
0.410736 0.410736 0.410736
0.423035 0.423035 0.423035
0.435364 0.435364 0.435364
0.448425 0.448425 0.448425
0.461426 0.461426 0.461426
0.475098 0.475098 0.475098
0.489105 0.489105 0.489105
0.503021 0.503021 0.503021
0.251617 0.251617 0.251617
0.254578 0.254578 0.254578
0.257965 0.257965 0.257965
0.261566 0.261566 0.261566
0.265625 0.265625 0.265625
0.270050 0.270050 0.270050
0.274750 0.274750 0.274750
0.279968 0.279968 0.279968
0.285583 0.285583 0.285583
0.291504 0.291504 0.291504
0.298004 0.298004 0.298004
0.304932 0.304932 0.304932
0.312134 0.312134 0.312134
0.319977 0.319977 0.319977
0.328064 0.328064 0.328064
0.336853 0.336853 0.336853
0.346100 0.346100 0.346100
0.355560 0.355560 0.355560
0.365692 0.365692 0.365692
0.376312 0.376312 0.376312
0.387085 0.387085 0.387085
0.398560 0.398560 0.398560
0.410431 0.410431 0.410431
0.422363 0.422363 0.422363
0.435059 0.435059 0.435059
0.447784 0.447784 0.447784
0.461090 0.461090 0.461090
0.474792 0.474792 0.474792
0.488403 0.488403 0.488403
0.502655 0.502655 0.502655
0.517151 0.517151 0.517151
0.531525 0.531525 0.531525
0.257782 0.257782 0.257782
0.261475 0.261475 0.261475
0.265533 0.265533 0.265533
0.269836 0.269836 0.269836
0.274628 0.274628 0.274628
0.279846 0.279846 0.279846
0.285309 0.285309 0.285309
0.291351 0.291351 0.291351
0.297821 0.297821 0.297821
0.304565 0.304565 0.304565
0.311951 0.311951 0.311951
0.319580 0.319580 0.319580
0.327850 0.327850 0.327850
0.336670 0.336670 0.336670
0.345642 0.345642 0.345642
0.355286 0.355286 0.355286
0.365448 0.365448 0.365448
0.375763 0.375763 0.375763
0.386810 0.386810 0.386810
0.398254 0.398254 0.398254
0.409821 0.409821 0.409821
0.422058 0.422058 0.422058
0.434723 0.434723 0.434723
0.447449 0.447449 0.447449
0.460785 0.460785 0.460785
0.474091 0.474091 0.474091
0.488068 0.488068 0.488068
0.502319 0.502319 0.502319
0.516388 0.516388 0.516388
0.531097 0.531097 0.531097
0.546021 0.546021 0.546021
0.560638 0.560638 0.560638
0.265320 0.265320 0.265320
0.269714 0.269714 0.269714
0.274506 0.274506 0.274506
0.279572 0.279572 0.279572
0.285156 0.285156 0.285156
0.291168 0.291168 0.291168
0.297485 0.297485 0.297485
0.304413 0.304413 0.304413
0.311737 0.311737 0.311737
0.319397 0.319397 0.319397
0.327667 0.327667 0.327667
0.336182 0.336182 0.336182
0.345428 0.345428 0.345428
0.355072 0.355072 0.355072
0.364929 0.364929 0.364929
0.375488 0.375488 0.375488
0.386505 0.386505 0.386505
0.397675 0.397675 0.397675
0.409515 0.409515 0.409515
0.421783 0.421783 0.421783
0.434082 0.434082 0.434082
0.447052 0.447052 0.447052
0.460114 0.460114 0.460114
0.473724 0.473724 0.473724
0.487701 0.487701 0.487701
0.501556 0.501556 0.501556
0.516022 0.516022 0.516022
0.530731 0.530731 0.530731
0.545227 0.545227 0.545227
0.560303 0.560303 0.560303
0.575531 0.575531 0.575531
0.590424 0.590424 0.590424
0.274231 0.274231 0.274231
0.279449 0.279449 0.279449
0.285034 0.285034 0.285034
0.290863 0.290863 0.290863
0.297333 0.297333 0.297333
0.304199 0.304199 0.304199
0.311371 0.311371 0.311371
0.319214 0.319214 0.319214
0.327240 0.327240 0.327240
0.335968 0.335968 0.335968
0.345154 0.345154 0.345154
0.354553 0.354553 0.354553
0.364655 0.364655 0.364655
0.375244 0.375244 0.375244
0.385986 0.385986 0.385986
0.397339 0.397339 0.397339
0.409210 0.409210 0.409210
0.421143 0.421143 0.421143
0.433777 0.433777 0.433777
0.446747 0.446747 0.446747
0.459747 0.459747 0.459747
0.473389 0.473389 0.473389
0.487000 0.487000 0.487000
0.501190 0.501190 0.501190
0.515686 0.515686 0.515686
0.530029 0.530029 0.530029
0.544861 0.544861 0.544861
0.559937 0.559937 0.559937
0.574738 0.574738 0.574738
0.589996 0.589996 0.589996
0.605347 0.605347 0.605347
0.620361 0.620361 0.620361
0.284729 0.284729 0.284729
0.290710 0.290710 0.290710
0.297150 0.297150 0.297150
0.303864 0.303864 0.303864
0.311188 0.311188 0.311188
0.319000 0.319000 0.319000
0.327026 0.327026 0.327026
0.335754 0.335754 0.335754
0.344696 0.344696 0.344696
0.354309 0.354309 0.354309
0.364410 0.364410 0.364410
0.374695 0.374695 0.374695
0.385681 0.385681 0.385681
0.397064 0.397064 0.397064
0.408630 0.408630 0.408630
0.420837 0.420837 0.420837
0.433441 0.433441 0.433441
0.446075 0.446075 0.446075
0.459442 0.459442 0.459442
0.472687 0.472687 0.472687
0.486664 0.486664 0.486664
0.500854 0.500854 0.500854
0.514923 0.514923 0.514923
0.529633 0.529633 0.529633
0.544525 0.544525 0.544525
0.559204 0.559204 0.559204
0.574310 0.574310 0.574310
0.589630 0.589630 0.589630
0.604614 0.604614 0.604614
0.620026 0.620026 0.620026
0.635040 0.635040 0.635040
0.650391 0.650391 0.650391
0.296814 0.296814 0.296814
0.303680 0.303680 0.303680
0.310974 0.310974 0.310974
0.318573 0.318573 0.318573
0.326813 0.326813 0.326813
0.335510 0.335510 0.335510
0.344452 0.344452 0.344452
0.354065 0.354065 0.354065
0.363922 0.363922 0.363922
0.374420 0.374420 0.374420
0.385406 0.385406 0.385406
0.396484 0.396484 0.396484
0.408325 0.408325 0.408325
0.420532 0.420532 0.420532
0.432831 0.432831 0.432831
0.445770 0.445770 0.445770
0.459106 0.459106 0.459106
0.472351 0.472351 0.472351
0.486298 0.486298 0.486298
0.500549 0.500549 0.500549
0.514587 0.514587 0.514587
0.529266 0.529266 0.529266
0.543762 0.543762 0.543762
0.558777 0.558777 0.558777
0.573944 0.573944 0.573944
0.588867 0.588867 0.588867
0.604187 0.604187 0.604187
0.619629 0.619629 0.619629
0.634613 0.634613 0.634613
0.650024 0.650024 0.650024
0.665405 0.665405 0.665405
0.680298 0.680298 0.680298
0.310608 0.310608 0.310608
0.318359 0.318359 0.318359
0.326599 0.326599 0.326599
0.335052 0.335052 0.335052
0.344208 0.344208 0.344208
0.353821 0.353821 0.353821
0.363647 0.363647 0.363647
0.374146 0.374146 0.374146
0.384827 0.384827 0.384827
0.396179 0.396179 0.396179
0.408051 0.408051 0.408051
0.419891 0.419891 0.419891
0.432526 0.432526 0.432526
0.445435 0.445435 0.445435
0.458405 0.458405 0.458405
0.472046 0.472046 0.472046
0.485901 0.485901 0.485901
0.499817 0.499817 0.499817
0.514221 0.514221 0.514221
0.528534 0.528534 0.528534
0.543396 0.543396 0.543396
0.558411 0.558411 0.558411
0.573181 0.573181 0.573181
0.588501 0.588501 0.588501
0.603790 0.603790 0.603790
0.618835 0.618835 0.618835
0.634247 0.634247 0.634247
0.649628 0.649628 0.649628
0.664581 0.664581 0.664581
0.679932 0.679932 0.679932
0.694702 0.694702 0.694702
0.709808 0.709808 0.709808
0.326172 0.326172 0.326172
0.334869 0.334869 0.334869
0.343994 0.343994 0.343994
0.353302 0.353302 0.353302
0.363403 0.363403 0.363403
0.373627 0.373627 0.373627
0.384521 0.384521 0.384521
0.395905 0.395905 0.395905
0.407410 0.407410 0.407410
0.419617 0.419617 0.419617
0.432190 0.432190 0.432190
0.444794 0.444794 0.444794
0.458069 0.458069 0.458069
0.471680 0.471680 0.471680
0.485260 0.485260 0.485260
0.499420 0.499420 0.499420
0.513885 0.513885 0.513885
0.528137 0.528137 0.528137
0.542999 0.542999 0.542999
0.557678 0.557678 0.557678
0.572845 0.572845 0.572845
0.588074 0.588074 0.588074
0.603058 0.603058 0.603058
0.618439 0.618439 0.618439
0.633881 0.633881 0.633881
0.648865 0.648865 0.648865
0.664215 0.664215 0.664215
0.679565 0.679565 0.679565
0.694336 0.694336 0.694336
0.709412 0.709412 0.709412
0.723907 0.723907 0.723907
0.738678 0.738678 0.738678
0.343506 0.343506 0.343506
0.353088 0.353088 0.353088
0.363129 0.363129 0.363129
0.373352 0.373352 0.373352
0.384277 0.384277 0.384277
0.395355 0.395355 0.395355
0.407104 0.407104 0.407104
0.419281 0.419281 0.419281
0.431549 0.431549 0.431549
0.444458 0.444458 0.444458
0.457733 0.457733 0.457733
0.471008 0.471008 0.471008
0.484894 0.484894 0.484894
0.499054 0.499054 0.499054
0.513153 0.513153 0.513153
0.527802 0.527802 0.527802
0.542297 0.542297 0.542297
0.557281 0.557281 0.557281
0.572418 0.572418 0.572418
0.587341 0.587341 0.587341
0.602692 0.602692 0.602692
0.618103 0.618103 0.618103
0.633118 0.633118 0.633118
0.648529 0.648529 0.648529
0.663849 0.663849 0.663849
0.678772 0.678772 0.678772
0.693970 0.693970 0.693970
0.708679 0.708679 0.708679
0.723572 0.723572 0.723572
0.738281 0.738281 0.738281
0.752411 0.752411 0.752411
0.766663 0.766663 0.766663
0.362610 0.362610 0.362610
0.373108 0.373108 0.373108
0.383698 0.383698 0.383698
0.395050 0.395050 0.395050
0.406799 0.406799 0.406799
0.418671 0.418671 0.418671
0.431183 0.431183 0.431183
0.444122 0.444122 0.444122
0.457062 0.457062 0.457062
0.470642 0.470642 0.470642
0.484558 0.484558 0.484558
0.498352 0.498352 0.498352
0.512787 0.512787 0.512787
0.527039 0.527039 0.527039
0.541901 0.541901 0.541901
0.556915 0.556915 0.556915
0.571686 0.571686 0.571686
0.586945 0.586945 0.586945
0.602325 0.602325 0.602325
0.617340 0.617340 0.617340
0.632721 0.632721 0.632721
0.648163 0.648163 0.648163
0.663086 0.663086 0.663086
0.678406 0.678406 0.678406
0.693604 0.693604 0.693604
0.708282 0.708282 0.708282
0.723206 0.723206 0.723206
0.737610 0.737610 0.737610
0.752075 0.752075 0.752075
0.766357 0.766357 0.766357
0.779999 0.779999 0.779999
0.793732 0.793732 0.793732
0.383423 0.383423 0.383423
0.394775 0.394775 0.394775
0.406189 0.406189 0.406189
0.418365 0.418365 0.418365
0.430878 0.430878 0.430878
0.443481 0.443481 0.443481
0.456757 0.456757 0.456757
0.470306 0.470306 0.470306
0.483856 0.483856 0.483856
0.497955 0.497955 0.497955
0.512451 0.512451 0.512451
0.526703 0.526703 0.526703
0.541504 0.541504 0.541504
0.556152 0.556152 0.556152
0.571320 0.571320 0.571320
0.586548 0.586548 0.586548
0.601532 0.601532 0.601532
0.616943 0.616943 0.616943
0.632294 0.632294 0.632294
0.647400 0.647400 0.647400
0.662720 0.662720 0.662720
0.678040 0.678040 0.678040
0.692810 0.692810 0.692810
0.707886 0.707886 0.707886
0.722443 0.722443 0.722443
0.737183 0.737183 0.737183
0.751709 0.751709 0.751709
0.765625 0.765625 0.765625
0.779694 0.779694 0.779694
0.793457 0.793457 0.793457
0.806519 0.806519 0.806519
0.819672 0.819672 0.819672
0.405914 0.405914 0.405914
0.418091 0.418091 0.418091
0.430237 0.430237 0.430237
0.443176 0.443176 0.443176
0.456360 0.456360 0.456360
0.469604 0.469604 0.469604
0.483459 0.483459 0.483459
0.497620 0.497620 0.497620
0.511688 0.511688 0.511688
0.526337 0.526337 0.526337
0.540802 0.540802 0.540802
0.555756 0.555756 0.555756
0.570892 0.570892 0.570892
0.585815 0.585815 0.585815
0.601135 0.601135 0.601135
0.616516 0.616516 0.616516
0.631561 0.631561 0.631561
0.647003 0.647003 0.647003
0.662323 0.662323 0.662323
0.677277 0.677277 0.677277
0.692444 0.692444 0.692444
0.707520 0.707520 0.707520
0.722076 0.722076 0.722076
0.736816 0.736816 0.736816
0.751007 0.751007 0.751007
0.765289 0.765289 0.765289
0.779358 0.779358 0.779358
0.792755 0.792755 0.792755
0.806183 0.806183 0.806183
0.819336 0.819336 0.819336
0.831787 0.831787 0.831787
0.844177 0.844177 0.844177
0.429932 0.429932 0.429932
0.442810 0.442810 0.442810
0.455719 0.455719 0.455719
0.469269 0.469269 0.469269
0.483124 0.483124 0.483124
0.496948 0.496948 0.496948
0.511292 0.511292 0.511292
0.525940 0.525940 0.525940
0.540405 0.540405 0.540405
0.555389 0.555389 0.555389
0.570190 0.570190 0.570190
0.585419 0.585419 0.585419
0.600769 0.600769 0.600769
0.615784 0.615784 0.615784
0.631165 0.631165 0.631165
0.646576 0.646576 0.646576
0.661591 0.661591 0.661591
0.676880 0.676880 0.676880
0.692078 0.692078 0.692078
0.706787 0.706787 0.706787
0.721741 0.721741 0.721741
0.736084 0.736084 0.736084
0.750671 0.750671 0.750671
0.764954 0.764954 0.764954
0.778656 0.778656 0.778656
0.792389 0.792389 0.792389
0.805847 0.805847 0.805847
0.818665 0.818665 0.818665
0.831482 0.831482 0.831482
0.843903 0.843903 0.843903
0.855621 0.855621 0.855621
0.867279 0.867279 0.867279
0.455414 0.455414 0.455414
0.468933 0.468933 0.468933
0.482452 0.482452 0.482452
0.496613 0.496613 0.496613
0.510956 0.510956 0.510956
0.525208 0.525208 0.525208
0.540009 0.540009 0.540009
0.555054 0.555054 0.555054
0.569794 0.569794 0.569794
0.584991 0.584991 0.584991
0.599976 0.599976 0.599976
0.615356 0.615356 0.615356
0.630768 0.630768 0.630768
0.645813 0.645813 0.645813
0.661194 0.661194 0.661194
0.676453 0.676453 0.676453
0.691345 0.691345 0.691345
0.706390 0.706390 0.706390
0.721344 0.721344 0.721344
0.735748 0.735748 0.735748
0.750275 0.750275 0.750275
0.764252 0.764252 0.764252
0.778259 0.778259 0.778259
0.792053 0.792053 0.792053
0.805206 0.805206 0.805206
0.818359 0.818359 0.818359
0.831146 0.831146 0.831146
0.843262 0.843262 0.843262
0.855316 0.855316 0.855316
0.867004 0.867004 0.867004
0.877991 0.877991 0.877991
0.888855 0.888855 0.888855
0.482056 0.482056 0.482056
0.496216 0.496216 0.496216
0.510254 0.510254 0.510254
0.524841 0.524841 0.524841
0.539612 0.539612 0.539612
0.554291 0.554291 0.554291
0.569427 0.569427 0.569427
0.584259 0.584259 0.584259
0.599609 0.599609 0.599609
0.614960 0.614960 0.614960
0.630035 0.630035 0.630035
0.645447 0.645447 0.645447
0.660828 0.660828 0.660828
0.675720 0.675720 0.675720
0.690918 0.690918 0.690918
0.706024 0.706024 0.706024
0.720612 0.720612 0.720612
0.735352 0.735352 0.735352
0.749603 0.749603 0.749603
0.763855 0.763855 0.763855
0.777954 0.777954 0.777954
0.791382 0.791382 0.791382
0.804840 0.804840 0.804840
0.817993 0.817993 0.817993
0.830505 0.830505 0.830505
0.842957 0.842957 0.842957
0.855042 0.855042 0.855042
0.866486 0.866486 0.866486
0.877686 0.877686 0.877686
0.888306 0.888306 0.888306
0.898712 0.898712 0.898712
0.908691 0.908691 0.908691
0.509857 0.509857 0.509857
0.524506 0.524506 0.524506
0.538910 0.538910 0.538910
0.553925 0.553925 0.553925
0.569031 0.569031 0.569031
0.583923 0.583923 0.583923
0.599213 0.599213 0.599213
0.614227 0.614227 0.614227
0.629608 0.629608 0.629608
0.645050 0.645050 0.645050
0.660065 0.660065 0.660065
0.675354 0.675354 0.675354
0.690552 0.690552 0.690552
0.705292 0.705292 0.705292
0.720215 0.720215 0.720215
0.734985 0.734985 0.734985
0.749207 0.749207 0.749207
0.763550 0.763550 0.763550
0.777222 0.777222 0.777222
0.791077 0.791077 0.791077
0.804535 0.804535 0.804535
0.817383 0.817383 0.817383
0.830200 0.830200 0.830200
0.842682 0.842682 0.842682
0.854462 0.854462 0.854462
0.866150 0.866150 0.866150
0.877411 0.877411 0.877411
0.888000 0.888000 0.888000
0.898468 0.898468 0.898468
0.908234 0.908234 0.908234
0.917755 0.917755 0.917755
0.926880 0.926880 0.926880
0.538544 0.538544 0.538544
0.553528 0.553528 0.553528
0.568237 0.568237 0.568237
0.583466 0.583466 0.583466
0.598450 0.598450 0.598450
0.613861 0.613861 0.613861
0.629242 0.629242 0.629242
0.644287 0.644287 0.644287
0.659698 0.659698 0.659698
0.674957 0.674957 0.674957
0.689819 0.689819 0.689819
0.704895 0.704895 0.704895
0.719849 0.719849 0.719849
0.734222 0.734222 0.734222
0.748840 0.748840 0.748840
0.762817 0.762817 0.762817
