testdata/bw01-bogart.cube
#Created by: Adobe Photoshop Export Color Lookup Plugin
#Copyright: (C) Copyright 2017 @ 2017 Joseph Angelo Todaro
TITLE "BW01 - Bogart"
#LUT size
LUT_3D_SIZE 5
#data domain
#LUT data points
DOMAIN_MIN 0.000000 0.000000 0.000000
DOMAIN_MAX 0.903226 0.903226 0.903226
0.235168 0.235168 0.235168
0.234161 0.234161 0.234161
0.237396 0.237396 0.237396
0.249817 0.249817 0.249817
0.276642 0.276642 0.276642
0.237183 0.237183 0.237183
0.249207 0.249207 0.249207
0.275482 0.275482 0.275482
0.320984 0.320984 0.320984
0.388733 0.388733 0.388733
0.274231 0.274231 0.274231
0.319214 0.319214 0.319214
0.385986 0.385986 0.385986
0.473389 0.473389 0.473389
0.574738 0.574738 0.574738
0.383423 0.383423 0.383423
0.470306 0.470306 0.470306
0.571320 0.571320 0.571320
0.678040 0.678040 0.678040
0.779694 0.779694 0.779694
0.567871 0.567871 0.567871
0.674225 0.674225 0.674225
0.776550 0.776550 0.776550
0.865295 0.865295 0.865295
0.934937 0.934937 0.934937
0.234558 0.234558 0.234558
0.234619 0.234619 0.234619
0.240631 0.240631 0.240631
0.257690 0.257690 0.257690
0.291168 0.291168 0.291168
0.240234 0.240234 0.240234
0.256927 0.256927 0.256927
0.289642 0.289642 0.289642
0.343262 0.343262 0.343262
0.418671 0.418671 0.418671
0.288269 0.288269 0.288269
0.341217 0.341217 0.341217
0.415863 0.415863 0.415863
0.509491 0.509491 0.509491
0.613861 0.613861 0.613861
0.413116 0.413116 0.413116
0.505920 0.505920 0.505920
0.610382 0.610382 0.610382
0.716095 0.716095 0.716095
0.814148 0.814148 0.814148
0.606903 0.606903 0.606903
0.712799 0.712799 0.712799
0.811188 0.811188 0.811188
0.893280 0.893280 0.893280
0.955200 0.955200 0.955200
0.234192 0.234192 0.234192
0.235870 0.235870 0.235870
0.245300 0.245300 0.245300
0.267792 0.267792 0.267792
0.308380 0.308380 0.308380
0.244812 0.244812 0.244812
0.266815 0.266815 0.266815
0.306763 0.306763 0.306763
0.368561 0.368561 0.368561
0.451385 0.451385 0.451385
0.305115 0.305115 0.305115
0.365967 0.365967 0.365967
0.448425 0.448425 0.448425
0.546753 0.546753 0.546753
0.653168 0.653168 0.653168
0.445435 0.445435 0.445435
0.543396 0.543396 0.543396
0.649628 0.649628 0.649628
0.753510 0.753510 0.753510
0.846039 0.846039 0.846039
0.645813 0.645813 0.645813
0.750275 0.750275 0.750275
0.843262 0.843262 0.843262
0.918457 0.918457 0.918457
0.973358 0.973358 0.973358
0.234253 0.234253 0.234253
0.238159 0.238159 0.238159
0.251770 0.251770 0.251770
0.280365 0.280365 0.280365
0.328705 0.328705 0.328705
0.251129 0.251129 0.251129
0.279022 0.279022 0.279022
0.326813 0.326813 0.326813
0.396484 0.396484 0.396484
0.486298 0.486298 0.486298
0.324921 0.324921 0.324921
0.393890 0.393890 0.393890
0.482788 0.482788 0.482788
0.585419 0.585419 0.585419
0.691711 0.691711 0.691711
0.479645 0.479645 0.479645
0.582001 0.582001 0.582001
0.688293 0.688293 0.688293
0.789337 0.789337 0.789337
0.875763 0.875763 0.875763
0.684906 0.684906 0.684906
0.786224 0.786224 0.786224
0.873260 0.873260 0.873260
0.940582 0.940582 0.940582
0.989563 0.989563 0.989563
0.234863 0.234863 0.234863
0.241730 0.241730 0.241730
0.260223 0.260223 0.260223
0.295502 0.295502 0.295502
0.352112 0.352112 0.352112
0.259399 0.259399 0.259399
0.294037 0.294037 0.294037
0.349915 0.349915 0.349915
0.427399 0.427399 0.427399
0.522614 0.522614 0.522614
0.347534 0.347534 0.347534
0.424591 0.424591 0.424591
0.519379 0.519379 0.519379
0.624634 0.624634 0.624634
0.729858 0.729858 0.729858
0.516022 0.516022 0.516022
0.621155 0.621155 0.621155
0.726562 0.726562 0.726562
0.822845 0.822845 0.822845
0.902740 0.902740 0.902740
0.723206 0.723206 0.723206
0.819946 0.819946 0.819946
0.900452 0.900452 0.900452
0.960388 0.960388 0.960388
0.999969 0.999969 0.999969
