testdata/wa09.cube
#Created by: Adobe Photoshop Export Color Lookup Plugin
#Copyright: (C) Copyright 2017 @ 2017 Joseph Angelo Todaro
TITLE "WA09 - Ascara"
#LUT size
LUT_3D_SIZE 8
#data domain
#LUT data points
DOMAIN_MIN 0.000000 0.000000 0.000000
DOMAIN_MAX 0.903226 0.903226 0.903226
0.000000 0.000000 0.050995
0.110168 0.000000 0.050995
0.246979 0.000000 0.050995
0.397522 0.000000 0.050995
0.545471 0.000000 0.050995
0.679474 0.000000 0.050995
0.801666 0.000000 0.050995
0.916321 0.000000 0.050995
0.000000 0.133301 0.050995
0.110168 0.133301 0.050995
0.246979 0.133301 0.050995
0.397522 0.133301 0.050995
0.545471 0.133301 0.050995
0.679474 0.133301 0.050995
0.801666 0.133301 0.050995
0.916321 0.133301 0.050995
0.000000 0.263855 0.050995
0.110168 0.263855 0.050995
0.246979 0.263855 0.050995
0.397522 0.263855 0.050995
0.545471 0.263855 0.050995
0.679474 0.263855 0.050995
0.801666 0.263855 0.050995
0.916321 0.263855 0.050995
0.000000 0.383362 0.050995
0.110168 0.383362 0.050995
0.246979 0.383362 0.050995
0.397522 0.383362 0.050995
0.545471 0.383362 0.050995
0.679474 0.383362 0.050995
0.801666 0.383362 0.050995
0.916321 0.383362 0.050995
0.000000 0.509857 0.050995
0.110168 0.509857 0.050995
0.246979 0.509857 0.050995
0.397522 0.509857 0.050995
0.545471 0.509857 0.050995
0.679474 0.509857 0.050995
0.801666 0.509857 0.050995
0.916321 0.509857 0.050995
0.000000 0.645416 0.050995
0.110168 0.645416 0.050995
0.246979 0.645416 0.050995
0.397522 0.645416 0.050995
0.545471 0.645416 0.050995
0.679474 0.645416 0.050995
0.801666 0.645416 0.050995
0.916321 0.645416 0.050995
0.000000 0.777924 0.050995
0.110168 0.777924 0.050995
0.246979 0.777924 0.050995
0.397522 0.777924 0.050995
0.545471 0.777924 0.050995
0.679474 0.777924 0.050995
0.801666 0.777924 0.050995
0.916321 0.777924 0.050995
0.000000 0.905579 0.050995
0.110168 0.905579 0.050995
0.246979 0.905579 0.050995
0.397522 0.905579 0.050995
0.545471 0.905579 0.050995
0.679474 0.905579 0.050995
0.801666 0.905579 0.050995
0.916321 0.905579 0.050995
0.000000 0.000000 0.157288
0.110168 0.000000 0.157288
0.246979 0.000000 0.157288
0.397522 0.000000 0.157288
0.545471 0.000000 0.157288
0.679474 0.000000 0.157288
0.801666 0.000000 0.157288
0.916321 0.000000 0.157288
0.000000 0.133301 0.157288
0.110168 0.133301 0.157288
0.246979 0.133301 0.157288
0.397522 0.133301 0.157288
0.545471 0.133301 0.157288
0.679474 0.133301 0.157288
0.801666 0.133301 0.157288
0.916321 0.133301 0.157288
0.000000 0.263855 0.157288
0.110168 0.263855 0.157288
0.246979 0.263855 0.157288
0.397522 0.263855 0.157288
0.545471 0.263855 0.157288
0.679474 0.263855 0.157288
0.801666 0.263855 0.157288
0.916321 0.263855 0.157288
0.000000 0.383362 0.157288
0.110168 0.383362 0.157288
0.246979 0.383362 0.157288
0.397522 0.383362 0.157288
0.545471 0.383362 0.157288
0.679474 0.383362 0.157288
0.801666 0.383362 0.157288
0.916321 0.383362 0.157288
0.000000 0.509857 0.157288
0.110168 0.509857 0.157288
0.246979 0.509857 0.157288
0.397522 0.509857 0.157288
0.545471 0.509857 0.157288
0.679474 0.509857 0.157288
0.801666 0.509857 0.157288
0.916321 0.509857 0.157288
0.000000 0.645416 0.157288
0.110168 0.645416 0.157288
0.246979 0.645416 0.157288
0.397522 0.645416 0.157288
0.545471 0.645416 0.157288
0.679474 0.645416 0.157288
0.801666 0.645416 0.157288
0.916321 0.645416 0.157288
0.000000 0.777924 0.157288
0.110168 0.777924 0.157288
0.246979 0.777924 0.157288
0.397522 0.777924 0.157288
0.545471 0.777924 0.157288
0.679474 0.777924 0.157288
0.801666 0.777924 0.157288
0.916321 0.777924 0.157288
0.000000 0.905579 0.157288
0.110168 0.905579 0.157288
0.246979 0.905579 0.157288
0.397522 0.905579 0.157288
0.545471 0.905579 0.157288
0.679474 0.905579 0.157288
0.801666 0.905579 0.157288
0.916321 0.905579 0.157288
0.000000 0.000000 0.292267
0.110168 0.000000 0.292267
0.246979 0.000000 0.292267
0.397522 0.000000 0.292267
0.545471 0.000000 0.292267
0.679474 0.000000 0.292267
0.801666 0.000000 0.292267
0.916321 0.000000 0.292267
0.000000 0.133301 0.292267
0.110168 0.133301 0.292267
0.246979 0.133301 0.292267
0.397522 0.133301 0.292267
0.545471 0.133301 0.292267
0.679474 0.133301 0.292267
0.801666 0.133301 0.292267
0.916321 0.133301 0.292267
0.000000 0.263855 0.292267
0.110168 0.263855 0.292267
0.246979 0.263855 0.292267
0.397522 0.263855 0.292267
0.545471 0.263855 0.292267
0.679474 0.263855 0.292267
0.801666 0.263855 0.292267
0.916321 0.263855 0.292267
0.000000 0.383362 0.292267
0.110168 0.383362 0.292267
0.246979 0.383362 0.292267
0.397522 0.383362 0.292267
0.545471 0.383362 0.292267
0.679474 0.383362 0.292267
0.801666 0.383362 0.292267
0.916321 0.383362 0.292267
0.000000 0.509857 0.292267
0.110168 0.509857 0.292267
0.246979 0.509857 0.292267
0.397522 0.509857 0.292267
0.545471 0.509857 0.292267
0.679474 0.509857 0.292267
0.801666 0.509857 0.292267
0.916321 0.509857 0.292267
0.000000 0.645416 0.292267
0.110168 0.645416 0.292267
0.246979 0.645416 0.292267
0.397522 0.645416 0.292267
0.545471 0.645416 0.292267
0.679474 0.645416 0.292267
0.801666 0.645416 0.292267
0.916321 0.645416 0.292267
0.000000 0.777924 0.292267
0.110168 0.777924 0.292267
0.246979 0.777924 0.292267
0.397522 0.777924 0.292267
0.545471 0.777924 0.292267
0.679474 0.777924 0.292267
0.801666 0.777924 0.292267
0.916321 0.777924 0.292267
0.000000 0.905579 0.292267
0.110168 0.905579 0.292267
0.246979 0.905579 0.292267
0.397522 0.905579 0.292267
0.545471 0.905579 0.292267
0.679474 0.905579 0.292267
0.801666 0.905579 0.292267
0.916321 0.905579 0.292267
0.000000 0.000000 0.412689
0.110168 0.000000 0.412689
0.246979 0.000000 0.412689
0.397522 0.000000 0.412689
0.545471 0.000000 0.412689
0.679474 0.000000 0.412689
0.801666 0.000000 0.412689
0.916321 0.000000 0.412689
0.000000 0.133301 0.412689
0.110168 0.133301 0.412689
0.246979 0.133301 0.412689
0.397522 0.133301 0.412689
0.545471 0.133301 0.412689
0.679474 0.133301 0.412689
0.801666 0.133301 0.412689
0.916321 0.133301 0.412689
0.000000 0.263855 0.412689
0.110168 0.263855 0.412689
0.246979 0.263855 0.412689
0.397522 0.263855 0.412689
0.545471 0.263855 0.412689
0.679474 0.263855 0.412689
0.801666 0.263855 0.412689
0.916321 0.263855 0.412689
0.000000 0.383362 0.412689
0.110168 0.383362 0.412689
0.246979 0.383362 0.412689
0.397522 0.383362 0.412689
0.545471 0.383362 0.412689
0.679474 0.383362 0.412689
0.801666 0.383362 0.412689
0.916321 0.383362 0.412689
0.000000 0.509857 0.412689
0.110168 0.509857 0.412689
0.246979 0.509857 0.412689
0.397522 0.509857 0.412689
0.545471 0.509857 0.412689
0.679474 0.509857 0.412689
0.801666 0.509857 0.412689
0.916321 0.509857 0.412689
0.000000 0.645416 0.412689
0.110168 0.645416 0.412689
0.246979 0.645416 0.412689
0.397522 0.645416 0.412689
0.545471 0.645416 0.412689
0.679474 0.645416 0.412689
0.801666 0.645416 0.412689
0.916321 0.645416 0.412689
0.000000 0.777924 0.412689
0.110168 0.777924 0.412689
0.246979 0.777924 0.412689
0.397522 0.777924 0.412689
0.545471 0.777924 0.412689
0.679474 0.777924 0.412689
0.801666 0.777924 0.412689
0.916321 0.777924 0.412689
0.000000 0.905579 0.412689
0.110168 0.905579 0.412689
0.246979 0.905579 0.412689
0.397522 0.905579 0.412689
0.545471 0.905579 0.412689
0.679474 0.905579 0.412689
0.801666 0.905579 0.412689
0.916321 0.905579 0.412689
0.000000 0.000000 0.515839
0.110168 0.000000 0.515839
0.246979 0.000000 0.515839
0.397522 0.000000 0.515839
0.545471 0.000000 0.515839
0.679474 0.000000 0.515839
0.801666 0.000000 0.515839
0.916321 0.000000 0.515839
0.000000 0.133301 0.515839
0.110168 0.133301 0.515839
0.246979 0.133301 0.515839
0.397522 0.133301 0.515839
0.545471 0.133301 0.515839
0.679474 0.133301 0.515839
0.801666 0.133301 0.515839
0.916321 0.133301 0.515839
0.000000 0.263855 0.515839
0.110168 0.263855 0.515839
0.246979 0.263855 0.515839
0.397522 0.263855 0.515839
0.545471 0.263855 0.515839
0.679474 0.263855 0.515839
0.801666 0.263855 0.515839
0.916321 0.263855 0.515839
0.000000 0.383362 0.515839
0.110168 0.383362 0.515839
0.246979 0.383362 0.515839
0.397522 0.383362 0.515839
0.545471 0.383362 0.515839
0.679474 0.383362 0.515839
0.801666 0.383362 0.515839
0.916321 0.383362 0.515839
0.000000 0.509857 0.515839
0.110168 0.509857 0.515839
0.246979 0.509857 0.515839
0.397522 0.509857 0.515839
0.545471 0.509857 0.515839
0.679474 0.509857 0.515839
0.801666 0.509857 0.515839
0.916321 0.509857 0.515839
0.000000 0.645416 0.515839
0.110168 0.645416 0.515839
0.246979 0.645416 0.515839
0.397522 0.645416 0.515839
0.545471 0.645416 0.515839
0.679474 0.645416 0.515839
0.801666 0.645416 0.515839
0.916321 0.645416 0.515839
0.000000 0.777924 0.515839
0.110168 0.777924 0.515839
0.246979 0.777924 0.515839
0.397522 0.777924 0.515839
0.545471 0.777924 0.515839
0.679474 0.777924 0.515839
0.801666 0.777924 0.515839
0.916321 0.777924 0.515839
0.000000 0.905579 0.515839
0.110168 0.905579 0.515839
0.246979 0.905579 0.515839
0.397522 0.905579 0.515839
0.545471 0.905579 0.515839
0.679474 0.905579 0.515839
0.801666 0.905579 0.515839
0.916321 0.905579 0.515839
0.000000 0.000000 0.612701
0.110168 0.000000 0.612701
0.246979 0.000000 0.612701
0.397522 0.000000 0.612701
0.545471 0.000000 0.612701
0.679474 0.000000 0.612701
0.801666 0.000000 0.612701
0.916321 0.000000 0.612701
0.000000 0.133301 0.612701
0.110168 0.133301 0.612701
0.246979 0.133301 0.612701
0.397522 0.133301 0.612701
0.545471 0.133301 0.612701
0.679474 0.133301 0.612701
0.801666 0.133301 0.612701
0.916321 0.133301 0.612701
0.000000 0.263855 0.612701
0.110168 0.263855 0.612701
0.246979 0.263855 0.612701
0.397522 0.263855 0.612701
0.545471 0.263855 0.612701
0.679474 0.263855 0.612701
0.801666 0.263855 0.612701
0.916321 0.263855 0.612701
0.000000 0.383362 0.612701
0.110168 0.383362 0.612701
0.246979 0.383362 0.612701
0.397522 0.383362 0.612701
0.545471 0.383362 0.612701
0.679474 0.383362 0.612701
0.801666 0.383362 0.612701
0.916321 0.383362 0.612701
0.000000 0.509857 0.612701
0.110168 0.509857 0.612701
0.246979 0.509857 0.612701
0.397522 0.509857 0.612701
0.545471 0.509857 0.612701
0.679474 0.509857 0.612701
0.801666 0.509857 0.612701
0.916321 0.509857 0.612701
0.000000 0.645416 0.612701
0.110168 0.645416 0.612701
0.246979 0.645416 0.612701
0.397522 0.645416 0.612701
0.545471 0.645416 0.612701
0.679474 0.645416 0.612701
0.801666 0.645416 0.612701
0.916321 0.645416 0.612701
0.000000 0.777924 0.612701
0.110168 0.777924 0.612701
0.246979 0.777924 0.612701
0.397522 0.777924 0.612701
0.545471 0.777924 0.612701
0.679474 0.777924 0.612701
0.801666 0.777924 0.612701
0.916321 0.777924 0.612701
0.000000 0.905579 0.612701
0.110168 0.905579 0.612701
0.246979 0.905579 0.612701
0.397522 0.905579 0.612701
0.545471 0.905579 0.612701
0.679474 0.905579 0.612701
0.801666 0.905579 0.612701
0.916321 0.905579 0.612701
0.000000 0.000000 0.714294
0.110168 0.000000 0.714294
0.246979 0.000000 0.714294
0.397522 0.000000 0.714294
0.545471 0.000000 0.714294
0.679474 0.000000 0.714294
0.801666 0.000000 0.714294
0.916321 0.000000 0.714294
0.000000 0.133301 0.714294
0.110168 0.133301 0.714294
0.246979 0.133301 0.714294
0.397522 0.133301 0.714294
0.545471 0.133301 0.714294
0.679474 0.133301 0.714294
0.801666 0.133301 0.714294
0.916321 0.133301 0.714294
0.000000 0.263855 0.714294
0.110168 0.263855 0.714294
0.246979 0.263855 0.714294
0.397522 0.263855 0.714294
0.545471 0.263855 0.714294
0.679474 0.263855 0.714294
0.801666 0.263855 0.714294
0.916321 0.263855 0.714294
0.000000 0.383362 0.714294
0.110168 0.383362 0.714294
0.246979 0.383362 0.714294
0.397522 0.383362 0.714294
0.545471 0.383362 0.714294
0.679474 0.383362 0.714294
0.801666 0.383362 0.714294
0.916321 0.383362 0.714294
0.000000 0.509857 0.714294
0.110168 0.509857 0.714294
0.246979 0.509857 0.714294
0.397522 0.509857 0.714294
0.545471 0.509857 0.714294
0.679474 0.509857 0.714294
0.801666 0.509857 0.714294
0.916321 0.509857 0.714294
0.000000 0.645416 0.714294
0.110168 0.645416 0.714294
0.246979 0.645416 0.714294
0.397522 0.645416 0.714294
0.545471 0.645416 0.714294
0.679474 0.645416 0.714294
0.801666 0.645416 0.714294
0.916321 0.645416 0.714294
0.000000 0.777924 0.714294
0.110168 0.777924 0.714294
0.246979 0.777924 0.714294
0.397522 0.777924 0.714294
0.545471 0.777924 0.714294
0.679474 0.777924 0.714294
0.801666 0.777924 0.714294
0.916321 0.777924 0.714294
0.000000 0.905579 0.714294
0.110168 0.905579 0.714294
0.246979 0.905579 0.714294
0.397522 0.905579 0.714294
0.545471 0.905579 0.714294
0.679474 0.905579 0.714294
0.801666 0.905579 0.714294
0.916321 0.905579 0.714294
0.000000 0.000000 0.820801
0.110168 0.000000 0.820801
0.246979 0.000000 0.820801
0.397522 0.000000 0.820801
0.545471 0.000000 0.820801
0.679474 0.000000 0.820801
0.801666 0.000000 0.820801
0.916321 0.000000 0.820801
0.000000 0.133301 0.820801
0.110168 0.133301 0.820801
0.246979 0.133301 0.820801
0.397522 0.133301 0.820801
0.545471 0.133301 0.820801
0.679474 0.133301 0.820801
0.801666 0.133301 0.820801
0.916321 0.133301 0.820801
0.000000 0.263855 0.820801
0.110168 0.263855 0.820801
0.246979 0.263855 0.820801
0.397522 0.263855 0.820801
0.545471 0.263855 0.820801
0.679474 0.263855 0.820801
0.801666 0.263855 0.820801
0.916321 0.263855 0.820801
0.000000 0.383362 0.820801
0.110168 0.383362 0.820801
0.246979 0.383362 0.820801
0.397522 0.383362 0.820801
0.545471 0.383362 0.820801
0.679474 0.383362 0.820801
0.801666 0.383362 0.820801
0.916321 0.383362 0.820801
0.000000 0.509857 0.820801
0.110168 0.509857 0.820801
0.246979 0.509857 0.820801
0.397522 0.509857 0.820801
0.545471 0.509857 0.820801
0.679474 0.509857 0.820801
0.801666 0.509857 0.820801
0.916321 0.509857 0.820801
0.000000 0.645416 0.820801
0.110168 0.645416 0.820801
0.246979 0.645416 0.820801
0.397522 0.645416 0.820801
0.545471 0.645416 0.820801
0.679474 0.645416 0.820801
0.801666 0.645416 0.820801
0.916321 0.645416 0.820801
0.000000 0.777924 0.820801
0.110168 0.777924 0.820801
0.246979 0.777924 0.820801
0.397522 0.777924 0.820801
0.545471 0.777924 0.820801
0.679474 0.777924 0.820801
0.801666 0.777924 0.820801
0.916321 0.777924 0.820801
0.000000 0.905579 0.820801
0.110168 0.905579 0.820801
0.246979 0.905579 0.820801
0.397522 0.905579 0.820801
0.545471 0.905579 0.820801
0.679474 0.905579 0.820801
0.801666 0.905579 0.820801
0.916321 0.905579 0.820801
