testdata/wa09.cube
#Created by: Adobe Photoshop Export Color Lookup Plugin
#Copyright: (C) Copyright 2017 @ 2017 Joseph Angelo Todaro
TITLE "WA09 - Ascara"
#LUT size
LUT_3D_SIZE 32
#data domain
DOMAIN_MIN 0.0 0.0 0.0
DOMAIN_MAX 1.0 1.0 1.0
#LUT data points
0.000000 0.000000 0.050995
0.025574 0.000000 0.050995
0.051971 0.000000 0.050995
0.080048 0.000000 0.050995
0.110168 0.000000 0.050995
0.142181 0.000000 0.050995
0.175842 0.000000 0.050995
0.210846 0.000000 0.050995
0.246979 0.000000 0.050995
0.283966 0.000000 0.050995
0.321564 0.000000 0.050995
0.359497 0.000000 0.050995
0.397522 0.000000 0.050995
0.435394 0.000000 0.050995
0.472839 0.000000 0.050995
0.509583 0.000000 0.050995
0.545471 0.000000 0.050995
0.580292 0.000000 0.050995
0.614197 0.000000 0.050995
0.647247 0.000000 0.050995
0.679474 0.000000 0.050995
0.710938 0.000000 0.050995
0.741760 0.000000 0.050995
0.771973 0.000000 0.050995
0.801666 0.000000 0.050995
0.830872 0.000000 0.050995
0.859680 0.000000 0.050995
0.888153 0.000000 0.050995
0.916321 0.000000 0.050995
0.944336 0.000000 0.050995
0.972198 0.000000 0.050995
1.000000 0.000000 0.050995
0.000000 0.031525 0.050995
0.025574 0.031525 0.050995
0.051971 0.031525 0.050995
0.080048 0.031525 0.050995
0.110168 0.031525 0.050995
0.142181 0.031525 0.050995
0.175842 0.031525 0.050995
0.210846 0.031525 0.050995
0.246979 0.031525 0.050995
0.283966 0.031525 0.050995
0.321564 0.031525 0.050995
0.359497 0.031525 0.050995
0.397522 0.031525 0.050995
0.435394 0.031525 0.050995
0.472839 0.031525 0.050995
0.509583 0.031525 0.050995
0.545471 0.031525 0.050995
0.580292 0.031525 0.050995
0.614197 0.031525 0.050995
0.647247 0.031525 0.050995
0.679474 0.031525 0.050995
0.710938 0.031525 0.050995
0.741760 0.031525 0.050995
0.771973 0.031525 0.050995
0.801666 0.031525 0.050995
0.830872 0.031525 0.050995
0.859680 0.031525 0.050995
0.888153 0.031525 0.050995
0.916321 0.031525 0.050995
0.944336 0.031525 0.050995
0.972198 0.031525 0.050995
1.000000 0.031525 0.050995
0.000000 0.064026 0.050995
0.025574 0.064026 0.050995
0.051971 0.064026 0.050995
0.080048 0.064026 0.050995
0.110168 0.064026 0.050995
0.142181 0.064026 0.050995
0.175842 0.064026 0.050995
0.210846 0.064026 0.050995
0.246979 0.064026 0.050995
0.283966 0.064026 0.050995
0.321564 0.064026 0.050995
0.359497 0.064026 0.050995
0.397522 0.064026 0.050995
0.435394 0.064026 0.050995
0.472839 0.064026 0.050995
0.509583 0.064026 0.050995
0.545471 0.064026 0.050995
0.580292 0.064026 0.050995
0.614197 0.064026 0.050995
0.647247 0.064026 0.050995
0.679474 0.064026 0.050995
0.710938 0.064026 0.050995
0.741760 0.064026 0.050995
0.771973 0.064026 0.050995
0.801666 0.064026 0.050995
0.830872 0.064026 0.050995
0.859680 0.064026 0.050995
0.888153 0.064026 0.050995
0.916321 0.064026 0.050995
0.944336 0.064026 0.050995
0.972198 0.064026 0.050995
1.000000 0.064026 0.050995
0.000000 0.098206 0.050995
0.025574 0.098206 0.050995
0.051971 0.098206 0.050995
0.080048 0.098206 0.050995
0.110168 0.098206 0.050995
0.142181 0.098206 0.050995
0.175842 0.098206 0.050995
0.210846 0.098206 0.050995
0.246979 0.098206 0.050995
0.283966 0.098206 0.050995
0.321564 0.098206 0.050995
0.359497 0.098206 0.050995
0.397522 0.098206 0.050995
0.435394 0.098206 0.050995
0.472839 0.098206 0.050995
0.509583 0.098206 0.050995
0.545471 0.098206 0.050995
0.580292 0.098206 0.050995
0.614197 0.098206 0.050995
0.647247 0.098206 0.050995
0.679474 0.098206 0.050995
0.710938 0.098206 0.050995
0.741760 0.098206 0.050995
0.771973 0.098206 0.050995
0.801666 0.098206 0.050995
0.830872 0.098206 0.050995
0.859680 0.098206 0.050995
0.888153 0.098206 0.050995
0.916321 0.098206 0.050995
0.944336 0.098206 0.050995
0.972198 0.098206 0.050995
1.000000 0.098206 0.050995
0.000000 0.133301 0.050995
0.025574 0.133301 0.050995
0.051971 0.133301 0.050995
0.080048 0.133301 0.050995
0.110168 0.133301 0.050995
0.142181 0.133301 0.050995
0.175842 0.133301 0.050995
0.210846 0.133301 0.050995
0.246979 0.133301 0.050995
0.283966 0.133301 0.050995
0.321564 0.133301 0.050995
0.359497 0.133301 0.050995
0.397522 0.133301 0.050995
0.435394 0.133301 0.050995
0.472839 0.133301 0.050995
0.509583 0.133301 0.050995
0.545471 0.133301 0.050995
0.580292 0.133301 0.050995
0.614197 0.133301 0.050995
0.647247 0.133301 0.050995
0.679474 0.133301 0.050995
0.710938 0.133301 0.050995
0.741760 0.133301 0.050995
0.771973 0.133301 0.050995
0.801666 0.133301 0.050995
0.830872 0.133301 0.050995
0.859680 0.133301 0.050995
0.888153 0.133301 0.050995
0.916321 0.133301 0.050995
0.944336 0.133301 0.050995
0.972198 0.133301 0.050995
1.000000 0.133301 0.050995
0.000000 0.167908 0.050995
0.025574 0.167908 0.050995
0.051971 0.167908 0.050995
0.080048 0.167908 0.050995
0.110168 0.167908 0.050995
0.142181 0.167908 0.050995
0.175842 0.167908 0.050995
0.210846 0.167908 0.050995
0.246979 0.167908 0.050995
0.283966 0.167908 0.050995
0.321564 0.167908 0.050995
0.359497 0.167908 0.050995
0.397522 0.167908 0.050995
0.435394 0.167908 0.050995
0.472839 0.167908 0.050995
0.509583 0.167908 0.050995
0.545471 0.167908 0.050995
0.580292 0.167908 0.050995
0.614197 0.167908 0.050995
0.647247 0.167908 0.050995
0.679474 0.167908 0.050995
0.710938 0.167908 0.050995
0.741760 0.167908 0.050995
0.771973 0.167908 0.050995
0.801666 0.167908 0.050995
0.830872 0.167908 0.050995
0.859680 0.167908 0.050995
0.888153 0.167908 0.050995
0.916321 0.167908 0.050995
0.944336 0.167908 0.050995
0.972198 0.167908 0.050995
1.000000 0.167908 0.050995
0.000000 0.201172 0.050995
0.025574 0.201172 0.050995
0.051971 0.201172 0.050995
0.080048 0.201172 0.050995
0.110168 0.201172 0.050995
0.142181 0.201172 0.050995
0.175842 0.201172 0.050995
0.210846 0.201172 0.050995
0.246979 0.201172 0.050995
0.283966 0.201172 0.050995
0.321564 0.201172 0.050995
0.359497 0.201172 0.050995
0.397522 0.201172 0.050995
0.435394 0.201172 0.050995
0.472839 0.201172 0.050995
0.509583 0.201172 0.050995
0.545471 0.201172 0.050995
0.580292 0.201172 0.050995
0.614197 0.201172 0.050995
0.647247 0.201172 0.050995
0.679474 0.201172 0.050995
0.710938 0.201172 0.050995
0.741760 0.201172 0.050995
0.771973 0.201172 0.050995
0.801666 0.201172 0.050995
0.830872 0.201172 0.050995
0.859680 0.201172 0.050995
0.888153 0.201172 0.050995
0.916321 0.201172 0.050995
0.944336 0.201172 0.050995
0.972198 0.201172 0.050995
1.000000 0.201172 0.050995
0.000000 0.233002 0.050995
0.025574 0.233002 0.050995
0.051971 0.233002 0.050995
0.080048 0.233002 0.050995
0.110168 0.233002 0.050995
0.142181 0.233002 0.050995
0.175842 0.233002 0.050995
0.210846 0.233002 0.050995
0.246979 0.233002 0.050995
0.283966 0.233002 0.050995
0.321564 0.233002 0.050995
0.359497 0.233002 0.050995
0.397522 0.233002 0.050995
0.435394 0.233002 0.050995
0.472839 0.233002 0.050995
0.509583 0.233002 0.050995
0.545471 0.233002 0.050995
0.580292 0.233002 0.050995
0.614197 0.233002 0.050995
0.647247 0.233002 0.050995
0.679474 0.233002 0.050995
0.710938 0.233002 0.050995
0.741760 0.233002 0.050995
0.771973 0.233002 0.050995
0.801666 0.233002 0.050995
0.830872 0.233002 0.050995
0.859680 0.233002 0.050995
0.888153 0.233002 0.050995
0.916321 0.233002 0.050995
0.944336 0.233002 0.050995
0.972198 0.233002 0.050995
1.000000 0.233002 0.050995
0.000000 0.263855 0.050995
0.025574 0.263855 0.050995
0.051971 0.263855 0.050995
0.080048 0.263855 0.050995
0.110168 0.263855 0.050995
0.142181 0.263855 0.050995
0.175842 0.263855 0.050995
0.210846 0.263855 0.050995
0.246979 0.263855 0.050995
0.283966 0.263855 0.050995
0.321564 0.263855 0.050995
0.359497 0.263855 0.050995
0.397522 0.263855 0.050995
0.435394 0.263855 0.050995
0.472839 0.263855 0.050995
0.509583 0.263855 0.050995
0.545471 0.263855 0.050995
0.580292 0.263855 0.050995
0.614197 0.263855 0.050995
0.647247 0.263855 0.050995
0.679474 0.263855 0.050995
0.710938 0.263855 0.050995
0.741760 0.263855 0.050995
0.771973 0.263855 0.050995
0.801666 0.263855 0.050995
0.830872 0.263855 0.050995
0.859680 0.263855 0.050995
0.888153 0.263855 0.050995
0.916321 0.263855 0.050995
0.944336 0.263855 0.050995
0.972198 0.263855 0.050995
1.000000 0.263855 0.050995
0.000000 0.293976 0.050995
0.025574 0.293976 0.050995
0.051971 0.293976 0.050995
0.080048 0.293976 0.050995
0.110168 0.293976 0.050995
0.142181 0.293976 0.050995
0.175842 0.293976 0.050995
0.210846 0.293976 0.050995
0.246979 0.293976 0.050995
0.283966 0.293976 0.050995
0.321564 0.293976 0.050995
0.359497 0.293976 0.050995
0.397522 0.293976 0.050995
0.435394 0.293976 0.050995
0.472839 0.293976 0.050995
0.509583 0.293976 0.050995
0.545471 0.293976 0.050995
0.580292 0.293976 0.050995
0.614197 0.293976 0.050995
0.647247 0.293976 0.050995
0.679474 0.293976 0.050995
0.710938 0.293976 0.050995
0.741760 0.293976 0.050995
0.771973 0.293976 0.050995
0.801666 0.293976 0.050995
0.830872 0.293976 0.050995
0.859680 0.293976 0.050995
0.888153 0.293976 0.050995
0.916321 0.293976 0.050995
0.944336 0.293976 0.050995
0.972198 0.293976 0.050995
1.000000 0.293976 0.050995
0.000000 0.323730 0.050995
0.025574 0.323730 0.050995
0.051971 0.323730 0.050995
0.080048 0.323730 0.050995
0.110168 0.323730 0.050995
0.142181 0.323730 0.050995
0.175842 0.323730 0.050995
0.210846 0.323730 0.050995
0.246979 0.323730 0.050995
0.283966 0.323730 0.050995
0.321564 0.323730 0.050995
0.359497 0.323730 0.050995
0.397522 0.323730 0.050995
0.435394 0.323730 0.050995
0.472839 0.323730 0.050995
0.509583 0.323730 0.050995
0.545471 0.323730 0.050995
0.580292 0.323730 0.050995
0.614197 0.323730 0.050995
0.647247 0.323730 0.050995
0.679474 0.323730 0.050995
0.710938 0.323730 0.050995
0.741760 0.323730 0.050995
0.771973 0.323730 0.050995
0.801666 0.323730 0.050995
0.830872 0.323730 0.050995
0.859680 0.323730 0.050995
0.888153 0.323730 0.050995
0.916321 0.323730 0.050995
0.944336 0.323730 0.050995
0.972198 0.323730 0.050995
1.000000 0.323730 0.050995
0.000000 0.353424 0.050995
0.025574 0.353424 0.050995
0.051971 0.353424 0.050995
0.080048 0.353424 0.050995
0.110168 0.353424 0.050995
0.142181 0.353424 0.050995
0.175842 0.353424 0.050995
0.210846 0.353424 0.050995
0.246979 0.353424 0.050995
0.283966 0.353424 0.050995
0.321564 0.353424 0.050995
0.359497 0.353424 0.050995
0.397522 0.353424 0.050995
0.435394 0.353424 0.050995
0.472839 0.353424 0.050995
0.509583 0.353424 0.050995
0.545471 0.353424 0.050995
0.580292 0.353424 0.050995
0.614197 0.353424 0.050995
0.647247 0.353424 0.050995
0.679474 0.353424 0.050995
0.710938 0.353424 0.050995
0.741760 0.353424 0.050995
0.771973 0.353424 0.050995
0.801666 0.353424 0.050995
0.830872 0.353424 0.050995
0.859680 0.353424 0.050995
0.888153 0.353424 0.050995
0.916321 0.353424 0.050995
0.944336 0.353424 0.050995
0.972198 0.353424 0.050995
1.000000 0.353424 0.050995
0.000000 0.383362 0.050995
0.025574 0.383362 0.050995
0.051971 0.383362 0.050995
0.080048 0.383362 0.050995
0.110168 0.383362 0.050995
0.142181 0.383362 0.050995
0.175842 0.383362 0.050995
0.210846 0.383362 0.050995
0.246979 0.383362 0.050995
0.283966 0.383362 0.050995
0.321564 0.383362 0.050995
0.359497 0.383362 0.050995
0.397522 0.383362 0.050995
0.435394 0.383362 0.050995
0.472839 0.383362 0.050995
0.509583 0.383362 0.050995
0.545471 0.383362 0.050995
0.580292 0.383362 0.050995
0.614197 0.383362 0.050995
0.647247 0.383362 0.050995
0.679474 0.383362 0.050995
0.710938 0.383362 0.050995
0.741760 0.383362 0.050995
0.771973 0.383362 0.050995
0.801666 0.383362 0.050995
0.830872 0.383362 0.050995
0.859680 0.383362 0.050995
0.888153 0.383362 0.050995
0.916321 0.383362 0.050995
0.944336 0.383362 0.050995
0.972198 0.383362 0.050995
1.000000 0.383362 0.050995
0.000000 0.413727 0.050995
0.025574 0.413727 0.050995
0.051971 0.413727 0.050995
0.080048 0.413727 0.050995
0.110168 0.413727 0.050995
0.142181 0.413727 0.050995
0.175842 0.413727 0.050995
0.210846 0.413727 0.050995
0.246979 0.413727 0.050995
0.283966 0.413727 0.050995
0.321564 0.413727 0.050995
0.359497 0.413727 0.050995
0.397522 0.413727 0.050995
0.435394 0.413727 0.050995
0.472839 0.413727 0.050995
0.509583 0.413727 0.050995
0.545471 0.413727 0.050995
0.580292 0.413727 0.050995
0.614197 0.413727 0.050995
0.647247 0.413727 0.050995
0.679474 0.413727 0.050995
0.710938 0.413727 0.050995
0.741760 0.413727 0.050995
0.771973 0.413727 0.050995
0.801666 0.413727 0.050995
0.830872 0.413727 0.050995
0.859680 0.413727 0.050995
0.888153 0.413727 0.050995
0.916321 0.413727 0.050995
0.944336 0.413727 0.050995
0.972198 0.413727 0.050995
1.000000 0.413727 0.050995
0.000000 0.444824 0.050995
0.025574 0.444824 0.050995
0.051971 0.444824 0.050995
0.080048 0.444824 0.050995
0.110168 0.444824 0.050995
0.142181 0.444824 0.050995
0.175842 0.444824 0.050995
0.210846 0.444824 0.050995
0.246979 0.444824 0.050995
0.283966 0.444824 0.050995
0.321564 0.444824 0.050995
0.359497 0.444824 0.050995
0.397522 0.444824 0.050995
0.435394 0.444824 0.050995
0.472839 0.444824 0.050995
0.509583 0.444824 0.050995
0.545471 0.444824 0.050995
0.580292 0.444824 0.050995
0.614197 0.444824 0.050995
0.647247 0.444824 0.050995
0.679474 0.444824 0.050995
0.710938 0.444824 0.050995
0.741760 0.444824 0.050995
0.771973 0.444824 0.050995
0.801666 0.444824 0.050995
0.830872 0.444824 0.050995
0.859680 0.444824 0.050995
0.888153 0.444824 0.050995
0.916321 0.444824 0.050995
0.944336 0.444824 0.050995
0.972198 0.444824 0.050995
1.000000 0.444824 0.050995
0.000000 0.476837 0.050995
0.025574 0.476837 0.050995
0.051971 0.476837 0.050995
0.080048 0.476837 0.050995
0.110168 0.476837 0.050995
0.142181 0.476837 0.050995
0.175842 0.476837 0.050995
0.210846 0.476837 0.050995
0.246979 0.476837 0.050995
0.283966 0.476837 0.050995
0.321564 0.476837 0.050995
0.359497 0.476837 0.050995
0.397522 0.476837 0.050995
0.435394 0.476837 0.050995
0.472839 0.476837 0.050995
0.509583 0.476837 0.050995
0.545471 0.476837 0.050995
0.580292 0.476837 0.050995
0.614197 0.476837 0.050995
0.647247 0.476837 0.050995
0.679474 0.476837 0.050995
0.710938 0.476837 0.050995
0.741760 0.476837 0.050995
0.771973 0.476837 0.050995
0.801666 0.476837 0.050995
0.830872 0.476837 0.050995
0.859680 0.476837 0.050995
0.888153 0.476837 0.050995
0.916321 0.476837 0.050995
0.944336 0.476837 0.050995
0.972198 0.476837 0.050995
1.000000 0.476837 0.050995
0.000000 0.509857 0.050995
0.025574 0.509857 0.050995
0.051971 0.509857 0.050995
0.080048 0.509857 0.050995
0.110168 0.509857 0.050995
0.142181 0.509857 0.050995
0.175842 0.509857 0.050995
0.210846 0.509857 0.050995
0.246979 0.509857 0.050995
0.283966 0.509857 0.050995
0.321564 0.509857 0.050995
0.359497 0.509857 0.050995
0.397522 0.509857 0.050995
0.435394 0.509857 0.050995
0.472839 0.509857 0.050995
0.509583 0.509857 0.050995
0.545471 0.509857 0.050995
0.580292 0.509857 0.050995
0.614197 0.509857 0.050995
0.647247 0.509857 0.050995
0.679474 0.509857 0.050995
0.710938 0.509857 0.050995
0.741760 0.509857 0.050995
0.771973 0.509857 0.050995
0.801666 0.509857 0.050995
0.830872 0.509857 0.050995
0.859680 0.509857 0.050995
0.888153 0.509857 0.050995
0.916321 0.509857 0.050995
0.944336 0.509857 0.050995
0.972198 0.509857 0.050995
1.000000 0.509857 0.050995
0.000000 0.543457 0.050995
0.025574 0.543457 0.050995
0.051971 0.543457 0.050995
0.080048 0.543457 0.050995
0.110168 0.543457 0.050995
0.142181 0.543457 0.050995
0.175842 0.543457 0.050995
0.210846 0.543457 0.050995
0.246979 0.543457 0.050995
0.283966 0.543457 0.050995
0.321564 0.543457 0.050995
0.359497 0.543457 0.050995
0.397522 0.543457 0.050995
0.435394 0.543457 0.050995
0.472839 0.543457 0.050995
0.509583 0.543457 0.050995
0.545471 0.543457 0.050995
0.580292 0.543457 0.050995
0.614197 0.543457 0.050995
0.647247 0.543457 0.050995
0.679474 0.543457 0.050995
0.710938 0.543457 0.050995
0.741760 0.543457 0.050995
0.771973 0.543457 0.050995
0.801666 0.543457 0.050995
0.830872 0.543457 0.050995
0.859680 0.543457 0.050995
0.888153 0.543457 0.050995
0.916321 0.543457 0.050995
0.944336 0.543457 0.050995
0.972198 0.543457 0.050995
1.000000 0.543457 0.050995
0.000000 0.577393 0.050995
0.025574 0.577393 0.050995
0.051971 0.577393 0.050995
0.080048 0.577393 0.050995
0.110168 0.577393 0.050995
0.142181 0.577393 0.050995
0.175842 0.577393 0.050995
0.210846 0.577393 0.050995
0.246979 0.577393 0.050995
0.283966 0.577393 0.050995
0.321564 0.577393 0.050995
0.359497 0.577393 0.050995
0.397522 0.577393 0.050995
0.435394 0.577393 0.050995
0.472839 0.577393 0.050995
0.509583 0.577393 0.050995
0.545471 0.577393 0.050995
0.580292 0.577393 0.050995
0.614197 0.577393 0.050995
0.647247 0.577393 0.050995
0.679474 0.577393 0.050995
0.710938 0.577393 0.050995
0.741760 0.577393 0.050995
0.771973 0.577393 0.050995
0.801666 0.577393 0.050995
0.830872 0.577393 0.050995
0.859680 0.577393 0.050995
0.888153 0.577393 0.050995
0.916321 0.577393 0.050995
0.944336 0.577393 0.050995
0.972198 0.577393 0.050995
1.000000 0.577393 0.050995
0.000000 0.611420 0.050995
0.025574 0.611420 0.050995
0.051971 0.611420 0.050995
0.080048 0.611420 0.050995
0.110168 0.611420 0.050995
0.142181 0.611420 0.050995
0.175842 0.611420 0.050995
0.210846 0.611420 0.050995
0.246979 0.611420 0.050995
0.283966 0.611420 0.050995
0.321564 0.611420 0.050995
0.359497 0.611420 0.050995
0.397522 0.611420 0.050995
0.435394 0.611420 0.050995
0.472839 0.611420 0.050995
0.509583 0.611420 0.050995
0.545471 0.611420 0.050995
0.580292 0.611420 0.050995
0.614197 0.611420 0.050995
0.647247 0.611420 0.050995
0.679474 0.611420 0.050995
0.710938 0.611420 0.050995
0.741760 0.611420 0.050995
0.771973 0.611420 0.050995
0.801666 0.611420 0.050995
0.830872 0.611420 0.050995
0.859680 0.611420 0.050995
0.888153 0.611420 0.050995
0.916321 0.611420 0.050995
0.944336 0.611420 0.050995
0.972198 0.611420 0.050995
1.000000 0.611420 0.050995
0.000000 0.645416 0.050995
0.025574 0.645416 0.050995
0.051971 0.645416 0.050995
0.080048 0.645416 0.050995
0.110168 0.645416 0.050995
0.142181 0.645416 0.050995
0.175842 0.645416 0.050995
0.210846 0.645416 0.050995
0.246979 0.645416 0.050995
0.283966 0.645416 0.050995
0.321564 0.645416 0.050995
0.359497 0.645416 0.050995
0.397522 0.645416 0.050995
0.435394 0.645416 0.050995
0.472839 0.645416 0.050995
0.509583 0.645416 0.050995
0.545471 0.645416 0.050995
0.580292 0.645416 0.050995
0.614197 0.645416 0.050995
0.647247 0.645416 0.050995
0.679474 0.645416 0.050995
0.710938 0.645416 0.050995
0.741760 0.645416 0.050995
0.771973 0.645416 0.050995
0.801666 0.645416 0.050995
0.830872 0.645416 0.050995
0.859680 0.645416 0.050995
0.888153 0.645416 0.050995
0.916321 0.645416 0.050995
0.944336 0.645416 0.050995
0.972198 0.645416 0.050995
1.000000 0.645416 0.050995
0.000000 0.679230 0.050995
0.025574 0.679230 0.050995
0.051971 0.679230 0.050995
0.080048 0.679230 0.050995
0.110168 0.679230 0.050995
0.142181 0.679230 0.050995
0.175842 0.679230 0.050995
0.210846 0.679230 0.050995
0.246979 0.679230 0.050995
0.283966 0.679230 0.050995
0.321564 0.679230 0.050995
0.359497 0.679230 0.050995
0.397522 0.679230 0.050995
0.435394 0.679230 0.050995
0.472839 0.679230 0.050995
0.509583 0.679230 0.050995
0.545471 0.679230 0.050995
0.580292 0.679230 0.050995
0.614197 0.679230 0.050995
0.647247 0.679230 0.050995
0.679474 0.679230 0.050995
0.710938 0.679230 0.050995
0.741760 0.679230 0.050995
0.771973 0.679230 0.050995
0.801666 0.679230 0.050995
0.830872 0.679230 0.050995
0.859680 0.679230 0.050995
0.888153 0.679230 0.050995
0.916321 0.679230 0.050995
0.944336 0.679230 0.050995
0.972198 0.679230 0.050995
1.000000 0.679230 0.050995
0.000000 0.712708 0.050995
0.025574 0.712708 0.050995
0.051971 0.712708 0.050995
0.080048 0.712708 0.050995
0.110168 0.712708 0.050995
0.142181 0.712708 0.050995
0.175842 0.712708 0.050995
0.210846 0.712708 0.050995
0.246979 0.712708 0.050995
0.283966 0.712708 0.050995
0.321564 0.712708 0.050995
0.359497 0.712708 0.050995
0.397522 0.712708 0.050995
0.435394 0.712708 0.050995
0.472839 0.712708 0.050995
0.509583 0.712708 0.050995
0.545471 0.712708 0.050995
0.580292 0.712708 0.050995
0.614197 0.712708 0.050995
0.647247 0.712708 0.050995
0.679474 0.712708 0.050995
0.710938 0.712708 0.050995
0.741760 0.712708 0.050995
0.771973 0.712708 0.050995
0.801666 0.712708 0.050995
0.830872 0.712708 0.050995
0.859680 0.712708 0.050995
0.888153 0.712708 0.050995
0.916321 0.712708 0.050995
0.944336 0.712708 0.050995
0.972198 0.712708 0.050995
1.000000 0.712708 0.050995
0.000000 0.745575 0.050995
0.025574 0.745575 0.050995
0.051971 0.745575 0.050995
0.080048 0.745575 0.050995
0.110168 0.745575 0.050995
0.142181 0.745575 0.050995
0.175842 0.745575 0.050995
0.210846 0.745575 0.050995
0.246979 0.745575 0.050995
0.283966 0.745575 0.050995
0.321564 0.745575 0.050995
0.359497 0.745575 0.050995
0.397522 0.745575 0.050995
0.435394 0.745575 0.050995
0.472839 0.745575 0.050995
0.509583 0.745575 0.050995
0.545471 0.745575 0.050995
0.580292 0.745575 0.050995
0.614197 0.745575 0.050995
0.647247 0.745575 0.050995
0.679474 0.745575 0.050995
0.710938 0.745575 0.050995
0.741760 0.745575 0.050995
0.771973 0.745575 0.050995
0.801666 0.745575 0.050995
0.830872 0.745575 0.050995
0.859680 0.745575 0.050995
0.888153 0.745575 0.050995
0.916321 0.745575 0.050995
0.944336 0.745575 0.050995
0.972198 0.745575 0.050995
1.000000 0.745575 0.050995
0.000000 0.777924 0.050995
0.025574 0.777924 0.050995
0.051971 0.777924 0.050995
0.080048 0.777924 0.050995
0.110168 0.777924 0.050995
0.142181 0.777924 0.050995
0.175842 0.777924 0.050995
0.210846 0.777924 0.050995
0.246979 0.777924 0.050995
0.283966 0.777924 0.050995
0.321564 0.777924 0.050995
0.359497 0.777924 0.050995
0.397522 0.777924 0.050995
0.435394 0.777924 0.050995
0.472839 0.777924 0.050995
0.509583 0.777924 0.050995
0.545471 0.777924 0.050995
0.580292 0.777924 0.050995
0.614197 0.777924 0.050995
0.647247 0.777924 0.050995
0.679474 0.777924 0.050995
0.710938 0.777924 0.050995
0.741760 0.777924 0.050995
0.771973 0.777924 0.050995
0.801666 0.777924 0.050995
0.830872 0.777924 0.050995
0.859680 0.777924 0.050995
0.888153 0.777924 0.050995
0.916321 0.777924 0.050995
0.944336 0.777924 0.050995
0.972198 0.777924 0.050995
1.000000 0.777924 0.050995
0.000000 0.809967 0.050995
0.025574 0.809967 0.050995
0.051971 0.809967 0.050995
0.080048 0.809967 0.050995
0.110168 0.809967 0.050995
0.142181 0.809967 0.050995
0.175842 0.809967 0.050995
0.210846 0.809967 0.050995
0.246979 0.809967 0.050995
0.283966 0.809967 0.050995
0.321564 0.809967 0.050995
0.359497 0.809967 0.050995
0.397522 0.809967 0.050995
0.435394 0.809967 0.050995
0.472839 0.809967 0.050995
0.509583 0.809967 0.050995
0.545471 0.809967 0.050995
0.580292 0.809967 0.050995
0.614197 0.809967 0.050995
0.647247 0.809967 0.050995
0.679474 0.809967 0.050995
0.710938 0.809967 0.050995
0.741760 0.809967 0.050995
0.771973 0.809967 0.050995
0.801666 0.809967 0.050995
0.830872 0.809967 0.050995
0.859680 0.809967 0.050995
0.888153 0.809967 0.050995
0.916321 0.809967 0.050995
0.944336 0.809967 0.050995
0.972198 0.809967 0.050995
1.000000 0.809967 0.050995
0.000000 0.841949 0.050995
0.025574 0.841949 0.050995
0.051971 0.841949 0.050995
0.080048 0.841949 0.050995
0.110168 0.841949 0.050995
0.142181 0.841949 0.050995
0.175842 0.841949 0.050995
0.210846 0.841949 0.050995
0.246979 0.841949 0.050995
0.283966 0.841949 0.050995
0.321564 0.841949 0.050995
0.359497 0.841949 0.050995
0.397522 0.841949 0.050995
0.435394 0.841949 0.050995
0.472839 0.841949 0.050995
0.509583 0.841949 0.050995
0.545471 0.841949 0.050995
0.580292 0.841949 0.050995
0.614197 0.841949 0.050995
0.647247 0.841949 0.050995
0.679474 0.841949 0.050995
0.710938 0.841949 0.050995
0.741760 0.841949 0.050995
0.771973 0.841949 0.050995
0.801666 0.841949 0.050995
0.830872 0.841949 0.050995
0.859680 0.841949 0.050995
0.888153 0.841949 0.050995
0.916321 0.841949 0.050995
0.944336 0.841949 0.050995
0.972198 0.841949 0.050995
1.000000 0.841949 0.050995
0.000000 0.873840 0.050995
0.025574 0.873840 0.050995
0.051971 0.873840 0.050995
0.080048 0.873840 0.050995
0.110168 0.873840 0.050995
0.142181 0.873840 0.050995
0.175842 0.873840 0.050995
0.210846 0.873840 0.050995
0.246979 0.873840 0.050995
0.283966 0.873840 0.050995
0.321564 0.873840 0.050995
0.359497 0.873840 0.050995
0.397522 0.873840 0.050995
0.435394 0.873840 0.050995
0.472839 0.873840 0.050995
0.509583 0.873840 0.050995
