testdata/wa09.cube
#Created by: Adobe Photoshop Export Color Lookup Plugin
#Copyright: (C) Copyright 2017 @ 2017 Joseph Angelo Todaro
TITLE "WA09 - Ascara"
#LUT size
LUT_3D_SIZE 5
#data domain
#LUT data points
DOMAIN_MIN 0.000000 0.000000 0.000000
DOMAIN_MAX 0.903226 0.903226 0.903226
0.000000 0.000000 0.050995
0.210846 0.000000 0.050995
0.472839 0.000000 0.050995
0.710938 0.000000 0.050995
0.916321 0.000000 0.050995
0.000000 0.233002 0.050995
0.210846 0.233002 0.050995
0.472839 0.233002 0.050995
0.710938 0.233002 0.050995
0.916321 0.233002 0.050995
0.000000 0.444824 0.050995
0.210846 0.444824 0.050995
0.472839 0.444824 0.050995
0.710938 0.444824 0.050995
0.916321 0.444824 0.050995
0.000000 0.679230 0.050995
0.210846 0.679230 0.050995
0.472839 0.679230 0.050995
0.710938 0.679230 0.050995
0.916321 0.679230 0.050995
0.000000 0.905579 0.050995
0.210846 0.905579 0.050995
0.472839 0.905579 0.050995
0.710938 0.905579 0.050995
0.916321 0.905579 0.050995
0.000000 0.000000 0.259613
0.210846 0.000000 0.259613
0.472839 0.000000 0.259613
0.710938 0.000000 0.259613
0.916321 0.000000 0.259613
0.000000 0.233002 0.259613
0.210846 0.233002 0.259613
0.472839 0.233002 0.259613
0.710938 0.233002 0.259613
0.916321 0.233002 0.259613
0.000000 0.444824 0.259613
0.210846 0.444824 0.259613
0.472839 0.444824 0.259613
0.710938 0.444824 0.259613
0.916321 0.444824 0.259613
0.000000 0.679230 0.259613
0.210846 0.679230 0.259613
0.472839 0.679230 0.259613
0.710938 0.679230 0.259613
0.916321 0.679230 0.259613
0.000000 0.905579 0.259613
0.210846 0.905579 0.259613
0.472839 0.905579 0.259613
0.710938 0.905579 0.259613
0.916321 0.905579 0.259613
0.000000 0.000000 0.465912
0.210846 0.000000 0.465912
0.472839 0.000000 0.465912
0.710938 0.000000 0.465912
0.916321 0.000000 0.465912
0.000000 0.233002 0.465912
0.210846 0.233002 0.465912
0.472839 0.233002 0.465912
0.710938 0.233002 0.465912
0.916321 0.233002 0.465912
0.000000 0.444824 0.465912
0.210846 0.444824 0.465912
0.472839 0.444824 0.465912
0.710938 0.444824 0.465912
0.916321 0.444824 0.465912
0.000000 0.679230 0.465912
0.210846 0.679230 0.465912
0.472839 0.679230 0.465912
0.710938 0.679230 0.465912
0.916321 0.679230 0.465912
0.000000 0.905579 0.465912
0.210846 0.905579 0.465912
0.472839 0.905579 0.465912
0.710938 0.905579 0.465912
0.916321 0.905579 0.465912
0.000000 0.000000 0.637390
0.210846 0.000000 0.637390
0.472839 0.000000 0.637390
0.710938 0.000000 0.637390
0.916321 0.000000 0.637390
0.000000 0.233002 0.637390
0.210846 0.233002 0.637390
0.472839 0.233002 0.637390
0.710938 0.233002 0.637390
0.916321 0.233002 0.637390
0.000000 0.444824 0.637390
0.210846 0.444824 0.637390
0.472839 0.444824 0.637390
0.710938 0.444824 0.637390
0.916321 0.444824 0.637390
0.000000 0.679230 0.637390
0.210846 0.679230 0.637390
0.472839 0.679230 0.637390
0.710938 0.679230 0.637390
0.916321 0.679230 0.637390
0.000000 0.905579 0.637390
0.210846 0.905579 0.637390
0.472839 0.905579 0.637390
0.710938 0.905579 0.637390
0.916321 0.905579 0.637390
0.000000 0.000000 0.820801
0.210846 0.000000 0.820801
0.472839 0.000000 0.820801
0.710938 0.000000 0.820801
0.916321 0.000000 0.820801
0.000000 0.233002 0.820801
0.210846 0.233002 0.820801
0.472839 0.233002 0.820801
0.710938 0.233002 0.820801
0.916321 0.233002 0.820801
0.000000 0.444824 0.820801
0.210846 0.444824 0.820801
0.472839 0.444824 0.820801
0.710938 0.444824 0.820801
0.916321 0.444824 0.820801
0.000000 0.679230 0.820801
0.210846 0.679230 0.820801
0.472839 0.679230 0.820801
0.710938 0.679230 0.820801
0.916321 0.679230 0.820801
0.000000 0.905579 0.820801
0.210846 0.905579 0.820801
0.472839 0.905579 0.820801
0.710938 0.905579 0.820801
0.916321 0.905579 0.820801
